JJcerque/IK_Puma560_IA/datos_puma560C1.csv
Q1,Q2,Q3,Q4,Q5,Q6,X,Y,Z
3.1132,0.2316,1.2687,1.0749,0.4834,0.3014,0.01328,0.14973,0.82161
1.7989,1.2535,0.5898,0.5794,-1.5245,2.4338,0.21097,-0.24525,0.98541
1.4539,1.1466,-0.6828,-0.4064,-1.5594,0.7731,0.14934,-0.01481,1.46062
1.1251,0.0263,0.7941,-0.1742,1.3042,-2.3757,0.19129,0.05232,0.99249
1.8141,-0.365,0.535,-0.189,0.778,-3.093,0.06124,0.37614,0.94671
1.5146,0.0114,-0.4014,0.3195,0.841,0.4012,0.18434,0.60531,1.06841
0.6055,1.0041,1.1547,-1.5356,-0.4109,3.06,-0.02866,-0.20233,0.8135
2.6262,0.3241,-0.2513,-1.5037,-0.9354,2.9139,-0.27248,0.3268,1.24147
1.7816,0.8179,0.4739,-1.3698,-0.2034,-0.2574,0.17064,-0.08034,1.12535
0.0854,-1.1963,0.1106,1.5398,0.3068,3.1113,0.5602,-0.10264,0.45334
0.684,0.3793,0.6998,-0.1797,1.5545,-2.2483,0.1181,-0.09731,1.05347
2.0411,0.838,-0.8107,0.2605,-1.0124,2.4982,-0.00099,0.33307,1.42498
2.5707,-1.0731,0.3926,-1.3707,0.5344,0.8726,-0.33424,0.39299,0.61526
2.823,0.7798,-0.1481,-0.3461,-1.0354,-2.1043,-0.01799,0.16393,1.33591
0.8863,0.2552,0.2071,-0.9807,0.9613,-0.7746,0.27015,0.0937,1.17636
0.6874,-1.4027,-0.5208,1.0093,1.4156,0.3993,0.45882,0.18254,0.07791
2.1436,-1.1188,0.315,1.0377,-1.2847,3.029,-0.15225,0.51293,0.56844
0.3533,-1.1608,-0.7988,0.3414,0.7503,1.4211,0.58108,0.05436,0.09334
1.7423,0.3217,-1.1625,-0.0601,1.5451,2.3271,0.02071,0.75963,1.08118
2.9212,0.3067,-1.39,-1.3084,0.5159,-1.7724,-0.75044,0.32189,0.98652
1.7167,1.3977,-1.5625,-1.1144,1.5513,1.8595,0.12443,0.18529,1.5198
1.9518,-0.828,0.3208,-0.1834,-1.4917,0.2085,-0.0539,0.53807,0.72135
0.2161,0.0559,0.86,-1.1636,-1.3416,0.3224,0.13085,-0.1249,0.97505
0.3222,-1.2709,0.5653,-0.3697,0.0705,-0.4698,0.44878,-0.00837,0.57483
0.3515,0.8417,0.8186,-1.1894,-1.1896,2.4261,-0.08374,-0.19053,0.97548
0.8274,0.1721,0.7029,-1.0192,-0.3407,1.8047,0.18289,-0.02278,1.03814
1.1165,1.0237,-1.1423,0.6175,-1.5522,-1.8102,0.26467,0.20002,1.46697
2.3499,-0.5002,-0.3121,-0.503,-1.4056,0.8317,-0.3895,0.60799,0.74701
2.3629,-0.1198,0.6732,0.4793,-0.1677,0.2937,-0.05052,0.26064,0.99824
0.698,0.6564,1.2828,-1.2416,-1.5358,-0.0492,0.04429,-0.1587,0.79878
1.5871,0.3095,-0.1066,1.1354,1.3633,1.9331,0.14442,0.34656,1.23038
0.8333,0.6107,1.2692,1.2333,0.369,-2.8957,0.06819,-0.14809,0.80742
2.2994,-0.1245,0.5191,-0.1292,0.651,-2.8205,-0.07528,0.30971,1.02463
2.7944,1.071,0.8514,-1.3424,1.106,2.6488,0.24423,0.0712,0.92116
2.9574,0.6496,-1.4336,-1.2895,1.1116,-1.4702,-0.62443,0.26897,1.22443
1.7285,0.7324,0.8416,-1.1286,1.1646,0.115,0.16559,-0.08585,0.97947
3.0312,-0.9139,1.1511,1.1306,0.4113,2.0354,-0.16431,0.16918,0.75437
0.849,0.1059,1.436,1.1161,0.4422,-0.0566,0.11154,-0.10038,0.75024
2.0615,0.2476,-0.9415,0.6055,-0.5912,3.1248,-0.20242,0.69728,1.09662
0.4167,0.461,-0.9704,0.9962,0.4819,1.6297,0.62312,0.11171,1.23099
0.226,-1.4482,-0.6128,-1.5225,0.2215,2.8941,0.44703,-0.05118,0.02207
2.0958,1.4766,1.4351,-0.0104,-0.6792,-1.2664,0.16871,0.0081,0.6859
2.2793,1.0541,0.5229,-0.9423,-0.3181,1.4098,0.25618,-0.06836,1.06488
0.6074,-0.3807,0.5119,0.946,-0.5028,-2.6677,0.38496,0.08483,0.94213
0.9769,-0.6002,-1.2888,-0.0447,1.3765,1.5711,0.54971,0.54598,0.27357
0.8832,-0.4341,0.7764,-0.7267,0.3366,1.3546,0.28474,0.11028,0.90378
1.774,0.2336,-0.5342,0.6821,-0.0211,0.0643,0.03247,0.58592,1.17821
0.3472,0.9249,1.5445,-1.2806,1.0602,-1.0783,0.02768,-0.14956,0.69142
0.1953,-0.8612,-0.3462,-0.0134,-0.1072,0.2677,0.70811,-0.01288,0.47877
0.2961,-1.191,0.37,1.1591,-0.9596,0.5491,0.51238,-0.00057,0.55021
2.4818,1.3246,-1.5699,-0.4009,0.9011,2.1093,-0.08959,0.25941,1.50455
0.9573,-1.0215,-0.498,-0.111,-1.451,2.7854,0.50135,0.45138,0.30542
1.3759,1.2042,1.2682,0.8152,1.2028,2.3305,0.12222,-0.15563,0.74886
0.3578,-0.1412,0.8869,-0.081,-0.8962,1.9081,0.19253,-0.08821,0.94204
0.8075,-1.2074,-0.1265,-0.794,0.9346,-1.3486,0.50799,0.3139,0.34983
2.0667,-0.5018,-0.5532,-0.3547,-0.6113,-2.3939,-0.23165,0.74354,0.65945
0.3535,-0.1539,0.1297,0.1767,-1.0683,-2.8133,0.4811,0.01759,1.03682
2.1369,1.4686,1.5478,1.2898,-1.336,-3.0881,0.14274,0.05515,0.67549
2.6312,0.3293,-1.1651,1.2018,-1.3526,2.9548,-0.5746,0.49367,1.08596
0.0598,0.6129,-0.8831,-0.634,0.6361,2.8594,0.49612,-0.12062,1.33093
2.7851,-0.436,1.2198,0.7467,0.3912,-1.4676,-0.04223,0.17584,0.80962
0.7205,1.3548,0.0286,0.2023,1.4052,-1.2824,-0.14742,-0.3291,1.19399
0.8144,1.1615,0.0481,-1.2624,0.3717,-2.0211,-0.04523,-0.26657,1.23955
2.5118,1.5478,-0.5938,-0.9825,0.1441,3.137,0.35552,-0.07343,1.36984
2.6352,-1.3256,0.3555,-0.538,-0.3772,0.9829,-0.34042,0.36039,0.48026
2.7751,0.9964,-0.8987,0.5664,1.1103,-1.0547,-0.1448,0.2163,1.46606
1.1553,0.8992,0.3699,0.5566,0.3252,-3.0785,0.08175,-0.18644,1.15754
2.985,0.4649,0.9627,-1.3257,-0.5877,2.0197,0.06144,0.14221,0.94713
2.5124,0.7266,0.2589,-1.296,0.2821,0.0588,0.1093,0.10603,1.21416
1.1257,1.3153,0.3173,1.301,0.2281,-0.5351,-0.00368,-0.35623,1.0832
0.5227,-0.052,1.5207,0.9124,0.8941,3.0521,0.07814,-0.12815,0.71359
3.1334,-0.5607,1.3035,-1.559,0.7522,0.1321,-0.08736,0.15077,0.77399
2.5012,-0.1305,0.1974,0.6434,0.0868,-1.4104,-0.24674,0.37099,1.04783
0.6843,0.4784,0.0499,-0.4536,-0.5396,-0.4582,0.23681,-0.00046,1.25378
0.5527,0.6553,-1.1074,-1.2068,0.8607,-0.7357,0.54625,0.16064,1.31452
2.9898,0.3693,0.3579,1.147,1.3369,-0.9015,-0.10661,0.1681,1.16376
0.2335,0.7355,0.245,-0.8394,-1.2353,0.3784,0.00821,-0.15228,1.21876
2.5955,-0.0157,0.2075,-1.3572,1.0276,2.5554,-0.23771,0.32006,1.0928
2.6974,0.003,1.5407,-0.7816,-0.4357,-1.4967,0.06384,0.13579,0.70512
1.8473,-0.5849,-1.4809,1.0254,-0.8383,-2.5333,-0.05503,0.74357,0.21044
1.3974,-0.5746,0.2839,1.1939,-1.1139,2.3105,0.23504,0.4722,0.84501
0.3511,-1.5613,-1.0817,0.6076,-0.1021,0.156,0.2326,-0.0746,-0.14889
2.3901,-1.3131,-0.862,-0.153,-0.4515,-2.4254,-0.22916,0.41949,-0.00776
0.917,-1.2181,0.5722,1.5089,0.1113,2.7338,0.37776,0.24631,0.59921
0.221,-1.3417,1.1379,0.9718,-1.5652,1.3002,0.23323,-0.10139,0.67007
1.7545,0.8581,1.3339,-0.6048,-0.7978,1.1357,0.16225,-0.05184,0.76372
2.3444,-0.9767,-0.2808,-0.9492,0.7606,-2.2966,-0.35293,0.5761,0.42778
0.2148,0.1518,1.2045,0.6202,0.9009,-2.0685,0.04102,-0.14463,0.84887
2.0168,0.1479,-0.4077,-0.4801,0.1635,-3.0787,-0.10517,0.56781,1.14756
0.4283,1.1949,0.8559,1.1877,1.4085,2.9121,-0.15042,-0.23362,0.89209
2.9929,-0.5769,-0.3188,-1.3028,1.1203,2.4871,-0.6816,0.25383,0.69033
0.7929,-1.0495,0.7051,1.3045,1.2984,-1.7102,0.37353,0.16536,0.69697
2.4369,-0.1837,-0.075,0.243,1.1632,-0.7854,-0.32532,0.4736,1.00519
2.7278,-0.3585,-0.0373,-0.9338,-1.1147,0.3487,-0.47947,0.37444,0.91091
0.0172,-0.3127,-0.6765,-0.5679,-1.3531,1.9159,0.78528,-0.13656,0.75925
0.3281,-1.3517,0.0557,-0.9581,0.3087,-0.7513,0.53584,0.0239,0.34798
1.7389,0.9917,1.3273,0.1648,-0.814,-1.8154,0.16366,-0.06754,0.75434
3.1239,1.3072,-0.7535,0.0206,0.5443,0.7453,0.09992,0.14831,1.46667
1.7081,0.511,0.9441,-0.5227,0.7829,0.1183,0.15547,-0.02892,0.95301
1.6986,-0.2113,0.4015,-1.5145,-1.4981,-2.5481,0.10288,0.37668,1.00912
1.3518,-0.436,0.9094,1.2089,-0.8872,0.4992,0.19266,0.17493,0.88304
0.4248,0.7799,-1.0736,-1.4194,0.3091,1.9203,0.47316,0.04934,1.38291
3.0139,-0.8227,-0.7243,-1.1972,0.5098,-1.6228,-0.70087,0.24127,0.34531
1.1131,-1.293,1.5348,-1.5656,-1.1975,-0.2141,0.14995,-0.03515,0.68068
2.4262,0.532,-0.9945,0.5482,0.195,1.8784,-0.34161,0.49563,1.26824
0.4261,-0.5803,1.3314,-0.7196,0.8266,-1.8411,0.13602,-0.10304,0.76456
0.5909,1.2224,-0.2231,-1.5479,-1.5017,-2.4029,-0.08647,-0.2387,1.32832
2.3506,-0.0554,0.7952,1.0299,1.1952,-2.8972,-0.00232,0.21575,0.98053
1.0981,-1.3324,0.4794,0.0027,-0.9659,-2.3269,0.33419,0.32395,0.52096
3.1288,-0.6385,0.3361,-0.3285,1.0356,-1.2603,-0.49275,0.15637,0.82064
2.1264,-1.2346,-0.7284,1.5083,0.5234,2.133,-0.15403,0.53257,0.0804
0.4432,-1.4226,0.1094,1.1932,-0.817,-1.8723,0.50383,0.07307,0.33514
0.4854,1.5158,0.2312,-1.4229,0.7506,0.4296,-0.28815,-0.32165,1.04727
1.0465,-1.0415,0.8206,0.5353,1.3468,0.1746,0.29632,0.21267,0.71598
1.6397,-1.3308,0.7826,-0.5538,1.4996,0.0732,0.12594,0.35451,0.61035
2.2494,-0.4779,-0.3681,0.1696,-0.4293,-1.0661,-0.33523,0.65478,0.74432
1.9417,1.3638,-1.2549,1.2025,1.2011,0.9505,0.11738,0.11216,1.52586
2.054,-0.7606,-0.367,0.8385,-0.6726,-1.9546,-0.19775,0.69984,0.541
2.6298,-1.0653,0.8544,0.7809,0.5183,-3.0067,-0.20494,0.28722,0.71202
2.7952,1.3531,0.1024,0.8234,-1.5269,-1.081,0.36448,0.02797,1.16328
2.3394,-0.242,0.8378,0.0679,-1.2596,-1.5699,-0.02678,0.24356,0.93714
2.7327,0.7326,-1.1926,-1.2531,-1.3811,-2.9146,-0.42748,0.34876,1.33852
2.6752,-1.3671,-0.1881,-0.6694,0.7537,-1.3363,-0.39647,0.36759,0.23539
3.024,-1.3992,-1.0237,-0.5247,1.3463,1.8755,-0.32278,0.18923,-0.092
1.0347,0.8255,0.1507,0.3715,-1.0449,1.2408,0.10168,-0.12262,1.24785
2.5329,0.2275,-0.3114,1.2317,0.5517,-2.2348,-0.3056,0.3959,1.1978
0.2892,0.2996,-0.1242,-0.2102,0.5434,2.4187,0.38516,-0.04195,1.22799
0.2946,-1.0899,0.5125,0.4149,-0.7614,3.1201,0.47652,-0.01221,0.63972
1.5498,-1.3838,-0.0167,0.8313,-1.0361,2.7127,0.16071,0.50601,0.30073
0.7496,0.3643,0.625,-0.1528,-0.4219,0.1961,0.1416,-0.07319,1.07982
0.637,1.549,0.1765,-1.0864,-0.744,2.155,-0.24867,-0.37065,1.05705
0.4502,0.6346,-0.7281,-0.2107,0.0115,0.7538,0.43287,0.04255,1.35584
0.2094,-1.5421,-0.5122,0.5928,-1.5377,0.0813,0.40803,-0.06669,0.0215
2.2993,1.4854,-0.051,1.177,-1.3942,1.782,0.37041,-0.18977,1.18088
0.9993,1.4844,1.0776,1.1332,0.8304,-0.8913,0.00926,-0.26302,0.75186
1.599,-1.5626,-0.9391,-0.5183,0.1498,-0.6241,0.14308,0.24922,-0.11845
1.3899,0.818,-1.5403,0.3877,-1.1794,0.4276,0.25481,0.55919,1.2975
2.7383,-0.3954,0.0092,0.5593,0.8643,2.9209,-0.47452,0.36561,0.89786
3.1055,-0.671,0.4191,0.1953,0.4909,-0.262,-0.45975,0.16675,0.81646
2.9854,-1.2634,-0.053,-1.3366,-0.453,-1.725,-0.52358,0.23435,0.34929
2.932,0.862,1.4561,0.388,-1.4373,-1.1253,0.0796,0.13647,0.72104
0.4055,0.4889,-0.1864,0.651,0.4956,-1.3663,0.30909,-0.0306,1.29287
2.4483,-0.757,-0.8686,1.4127,-1.1042,-2.019,-0.47629,0.59083,0.33137
0.2184,-1.1142,0.4857,-0.8906,1.4979,-0.5945,0.48224,-0.04667,0.62162
0.6999,-1.438,-0.8032,-0.8654,0.1106,-2.903,0.38954,0.13187,-0.04035
0.1295,-1.2816,-0.8618,0.4683,-0.9932,-0.1162,0.49047,-0.08744,0.00694
1.3635,0.3766,-0.1038,-0.51,-0.7591,1.3405,0.20956,0.26734,1.25193
2.9667,1.4424,0.0798,-1.1197,0.1491,-1.8818,0.3954,0.08251,1.14133
1.8963,-1.0431,-0.5028,0.7649,-0.99,-2.3353,-0.06556,0.66348,0.28922
0.2104,-0.8085,-0.8358,-0.2452,-1.415,3.0976,0.74264,0.00516,0.30757
1.912,0.3106,-0.3124,-0.5857,-0.6403,-1.654,-0.00323,0.45751,1.23556
1.088,-0.7803,0.1453,-1.0146,0.3136,1.6685,0.40187,0.44348,0.70365
0.403,0.4142,-0.1481,0.4508,-0.874,-0.5839,0.33603,-0.01986,1.26755
0.9985,0.1747,1.2897,0.5797,0.5238,-2.802,0.12507,-0.08292,0.81292
2.6253,-0.3294,-1.2004,-0.385,0.2635,-1.5268,-0.65718,0.54559,0.52957
3.1127,0.8386,0.5971,1.1797,0.3063,2.7461,0.14075,0.14604,1.07124
2.2751,0.6077,-1.5025,-0.678,1.5116,0.1661,-0.34152,0.63368,1.17271
1.8209,-1.5243,-0.8487,1.5278,-1.2241,0.1896,0.06974,0.33326,-0.08403
0.3428,0.309,-1.0848,1.1225,1.5334,1.8892,0.73629,0.10346,1.09717
1.3436,-1.4833,1.231,0.6159,1.0051,-0.266,0.1834,0.12714,0.65474
2.2686,0.889,0.7022,0.0482,1.3041,1.0286,0.21779,-0.02619,1.01858
1.9862,0.947,-0.5489,-1.218,-0.6986,-2.5213,0.0955,0.15529,1.42821
0.3477,0.2078,1.1176,-1.2062,-0.8521,2.2531,0.05919,-0.13815,0.88551
0.0119,-0.5378,-1.0242,-0.7782,-0.7325,1.5426,0.80454,-0.14049,0.43414
2.9102,0.3472,0.2113,-1.0801,0.3491,0.1878,-0.15484,0.19064,1.1957
2.5937,-0.0024,1.2125,1.0436,-0.3125,-2.3507,0.04833,0.14629,0.84218
0.9706,-0.2248,0.1293,0.3601,-0.8564,2.148,0.39624,0.31327,1.00347
0.3312,1.0998,-1.3552,-1.3174,-1.0202,-0.7655,0.35582,-0.03632,1.46928
2.18,-1.3532,-0.3382,0.0573,0.178,2.6294,-0.17417,0.51186,0.17811
3.0017,-0.2729,-1.4281,1.307,-0.7983,1.4728,-0.81219,0.2659,0.47926
3.1329,-1.1638,-0.0178,-0.6867,-0.9562,-1.087,-0.57681,0.15507,0.42036
1.9419,0.1546,-0.8571,-0.9741,-0.3432,0.9153,-0.12168,0.72647,1.05477
1.6848,-1.2572,-0.4651,-1.3678,-0.4946,-2.7715,0.08571,0.57045,0.17585
0.4046,0.4093,1.4215,-0.019,-1.3696,1.0527,0.03482,-0.14832,0.75228
2.4309,-0.3771,1.5532,0.5515,-0.4889,-2.5981,0.0898,0.12068,0.69761
2.6196,0.0462,-0.7497,0.1277,0.4361,0.682,-0.55463,0.49213,1.00792
1.709,-0.8223,0.5954,1.2132,0.9695,1.7228,0.09203,0.42753,0.77161
1.3511,0.0898,-0.2617,1.314,-0.4955,0.4985,0.26062,0.47863,1.13252
2.5396,0.4723,0.8531,1.3987,1.2786,-2.2379,0.10921,0.10702,0.99286
2.8131,0.5151,0.3419,-1.0051,-0.4256,1.8002,-0.01091,0.16225,1.18259
0.4468,-0.1165,-0.2707,-1.5505,-0.5628,3.0455,0.6156,0.12856,1.01381
0.977,1.3087,-1.0361,1.2035,-1.169,-1.683,0.13286,-0.07138,1.5102
1.2913,0.5987,-0.2122,-0.1125,0.7709,0.5393,0.20291,0.16308,1.32278
0.9454,-1.2937,0.4467,-1.2392,-1.3613,0.3163,0.38808,0.28113,0.52724
1.045,0.756,0.2183,-0.4152,-0.4503,2.7001,0.11389,-0.10269,1.22741
1.5487,0.5215,-0.5145,1.4861,0.2481,1.693,0.15867,0.38827,1.31888
1.557,-0.3835,0.4182,-0.841,-1.2008,-1.3019,0.15563,0.40363,0.94251
1.203,0.6051,0.2854,-1.4564,-0.4167,0.3234,0.1516,-0.02388,1.20485
1.5419,1.5091,1.0965,1.5046,-1.5341,3.0557,0.14388,-0.21559,0.74193
2.9853,-0.0519,-0.9309,0.5424,0.7577,2.0991,-0.76863,0.27302,0.87206
0.6626,0.995,-0.9659,1.354,-1.3998,2.7373,0.28376,0.03109,1.46621
0.5953,0.1522,-0.175,-1.3075,-1.0216,1.6249,0.46248,0.132,1.16852
1.2956,-1.2421,0.9204,1.0721,1.2199,-3.0635,0.22461,0.24329,0.66638
0.6419,0.1729,1.0898,-1.5667,-0.9523,1.1948,0.1059,-0.10818,0.8964
1.6977,-0.5521,0.714,1.2861,-0.7675,-1.5645,0.10859,0.33451,0.87479
2.9605,-0.1156,-0.0837,-1.0232,-1.2677,-0.7619,-0.49854,0.24383,1.04126
1.6125,1.0405,1.4634,0.1986,0.401,1.0613,0.15221,-0.04868,0.70947
1.8419,-1.4034,-0.2914,-1.1695,-0.5347,-1.7907,0.01123,0.51991,0.17251
2.3124,-0.8778,-0.552,0.3059,0.1214,-1.0309,-0.36639,0.62211,0.38021
2.8069,1.0112,-1.2298,-1.3938,0.9978,-1.9829,-0.27437,0.25429,1.45489
3.1354,-0.4505,0.5715,-0.5623,-1.5644,1.7749,-0.35581,0.15226,0.91491
0.939,-0.6654,0.4,0.8574,1.3234,2.4663,0.40016,0.2927,0.81661
2.4773,0.6655,-0.583,-0.757,-0.8535,-0.2891,-0.16284,0.31808,1.37045
1.0361,0.54,-1.5566,1.3326,1.4884,-1.1456,0.51038,0.56732,1.10381
2.8316,-0.0898,0.28,-1.0833,1.2073,2.1736,-0.30503,0.25527,1.06096
0.7765,0.8505,-1.333,-0.1561,0.1499,2.6938,0.46409,0.24556,1.36946
0.2749,-1.1695,-1.4619,-1.3446,1.1563,2.4132,0.38896,-0.0462,-0.11239
2.5207,0.371,-0.0519,0.7421,0.1471,0.4354,-0.14552,0.28857,1.24475
1.4448,-0.8136,-1.2104,-0.7289,0.4045,2.6973,0.2338,0.6517,0.1507
1.0234,0.4207,-0.7491,-0.2276,-0.8964,-0.6069,0.41575,0.39379,1.25035
1.0872,-1.4414,-0.6021,1.5085,1.1044,1.3761,0.33321,0.31174,0.02897
2.1178,1.1127,1.5302,-1.4704,-0.4462,-2.5863,0.14552,0.04953,0.68961
0.4618,-1.0614,0.0613,1.3823,-1.388,-2.4002,0.59049,0.12628,0.51103
2.841,1.0845,-0.2875,-0.6045,1.5593,1.2221,0.13312,0.11583,1.36986
2.9469,-0.7816,1.0917,0.7342,0.4046,-0.3479,-0.16136,0.18476,0.78506
0.3612,-0.7508,-1.1617,1.5057,-0.7276,-0.0144,0.72258,0.11257,0.21343
2.358,0.1869,-0.4227,0.1822,-1.1017,-1.4055,-0.28009,0.4909,1.16717
1.8279,0.9382,-0.3074,-1.5432,-1.4118,-2.5882,0.14079,0.05461,1.38075
1.0543,-1.2218,-0.7754,-0.6879,0.4176,0.7243,0.39339,0.38885,0.06899
3.1357,0.5081,1.0898,0.4615,1.388,-0.4764,0.05582,0.14972,0.8905
0.8355,-0.7556,-0.786,1.5344,-1.144,-1.5747,0.61204,0.45297,0.36805
3.0185,0.6684,-0.6163,-1.4957,-0.0403,0.8448,-0.3157,0.19025,1.3717
1.6425,1.456,-0.4255,-0.6741,1.2652,-0.5817,0.1719,-0.29884,1.34031
1.0505,-0.2145,1.0554,0.5126,-0.8736,0.1003,0.18669,0.02401,0.88297
1.0358,0.3869,-0.4866,0.615,0.0205,1.3289,0.36517,0.32186,1.26239
0.0258,0.8378,-0.0123,0.3565,-1.2404,-0.3382,-0.01076,-0.15038,1.30049
0.7129,1.5662,-0.0524,-1.089,0.7555,-0.3021,-0.2256,-0.39341,1.14849
2.845,-0.4691,-0.1117,-0.8693,1.2396,-2.9045,-0.5673,0.33027,0.82648
0.4798,-0.2412,0.2907,0.8825,1.2246,0.6133,0.44025,0.05994,1.00096
3.0576,0.5025,-1.1378,0.372,-0.7744,1.8039,-0.63612,0.20414,1.2153
1.6147,0.2029,-1.5457,0.8404,0.3344,0.5837,0.11268,0.85392,0.83667
0.616,-0.8346,0.2063,-0.5534,-0.5649,-1.5321,0.5439,0.20118,0.68926
3.0569,-0.2639,0.3534,0.3184,0.4279,-0.9219,-0.38435,0.18322,0.99108
2.8388,-0.4346,1.2577,1.0845,-1.0368,1.4095,-0.04006,0.16972,0.79851
0.9685,-1.4239,-0.1673,-0.6338,1.311,1.4134,0.4038,0.32248,0.21557
2.5095,-1.5053,1.0936,0.1697,-0.3692,2.2243,-0.08856,0.25084,0.62855
2.1346,1.4843,1.1863,1.4557,-0.4751,1.8775,0.22127,-0.06919,0.72644
1.6721,0.4653,1.5147,-1.5062,1.1349,-2.214,0.15113,-0.00306,0.71239
1.2412,1.5125,-1.0699,0.264,0.3831,3.0357,0.0962,-0.18239,1.50178
1.3196,-0.8274,0.7736,-0.2749,0.7054,-1.5889,0.22879,0.2879,0.78403
1.1463,-1.006,-0.6576,1.243,0.1801,-0.9614,0.40822,0.53887,0.24686
2.8331,1.5227,1.2831,0.8991,0.0661,2.1274,0.17961,0.10025,0.70214
2.5238,-1.3917,1.4478,0.7185,-0.7268,-0.0254,0.02743,0.16459,0.6792
1.5741,1.1308,-0.7575,0.5872,-0.193,2.6457,0.1499,0.04584,1.47197
2.9178,-0.2114,-0.4744,0.0108,-1.1481,1.8581,-0.66031,0.30418,0.90255
1.8173,-0.1288,-0.0178,-1.5202,-0.1904,0.1768,0.02073,0.53254,1.04057
0.5691,1.289,0.4434,-0.1359,-0.9815,0.5414,-0.17975,-0.29311,1.03716
1.1343,-1.0573,0.1988,-0.1011,-0.2664,-2.2156,0.36943,0.43698,0.56257
2.2067,-0.2301,1.5353,-0.6372,0.3618,0.5599,0.11532,0.09643,0.70628
0.5919,-1.2592,1.2247,0.2075,-0.5184,2.9111,0.22278,-0.03103,0.69167
1.8871,0.7022,0.1761,-1.2669,-1.1771,2.8128,0.13941,0.05643,1.24204
0.4752,-1.0208,-1.1094,-0.8618,0.5144,1.6445,0.58519,0.13235,0.05736
2.825,-0.6387,1.5513,-0.7544,-1.4394,-2.566,0.03008,0.14804,0.6946
1.2032,-0.1451,-1.472,-0.6442,0.0189,0.2874,0.44825,0.74644,0.56913
1.4701,0.0728,-1.1591,0.0705,0.52,1.8506,0.23194,0.80297,0.88639
1.0361,0.3533,0.1546,1.0772,-0.8983,-1.0718,0.23758,0.10669,1.2084
2.4179,0.854,0.4665,1.2578,0.2397,-0.8217,0.1965,0.0266,1.12399
1.0701,-1.2755,-1.0946,-0.2904,0.9962,-3.0968,0.32949,0.28954,-0.06498
1.44,0.2734,1.3373,1.4024,0.8348,-0.6349,0.14662,-0.03593,0.79148
1.8452,-1.4699,-0.9183,-1.1653,-1.134,-2.6107,0.05662,0.35262,-0.0866
1.2117,-1.5367,-0.8652,0.6077,0.7611,0.8276,0.24267,0.2195,-0.09236
1.0092,0.2312,-0.9416,-1.2249,-1.3714,2.1926,0.50899,0.52721,1.08488
1.6597,1.2341,-0.6359,0.7475,1.3692,-2.4157,0.15689,-0.07009,1.44764
2.3373,0.2801,0.4204,0.5698,-0.8762,1.532,0.00255,0.21368,1.13441
1.9563,-1.0028,-1.1149,1.2881,-0.602,-2.1836,-0.08302,0.60363,0.06594
2.1468,-0.071,0.6287,-0.5455,-1.1853,2.5121,0.00633,0.26574,1.01831
1.7149,1.101,-0.7172,1.3642,1.3692,1.3585,0.14094,0.07362,1.46484
1.0238,0.1877,0.5071,-0.4067,-1.2813,-1.8212,0.21312,0.06148,1.0971
2.6843,-0.2583,-0.9264,0.481,0.2273,1.9022,-0.6741,0.49895,0.70533
2.6985,0.0935,0.2955,1.1624,-0.2873,0.3244,-0.19308,0.25772,1.11938
2.9238,1.2517,-0.1005,-0.915,-0.4437,2.0367,0.27712,0.09235,1.27628
0.4592,0.1971,0.9948,-1.3904,-0.3156,1.2033,0.0932,-0.12131,0.93497
1.544,1.3155,0.9849,-1.1365,-0.1756,0.2917,0.14393,-0.23031,0.81694
0.524,0.92,-0.9143,0.3007,0.9108,1.9806,0.31702,0.0099,1.44728
2.7402,-1.1509,1.083,0.6266,-1.5198,-1.0347,-0.14903,0.22626,0.70697
2.319,-0.6675,0.8885,-0.0027,-0.029,-1.179,-0.06982,0.29577,0.83028
0.2272,1.5349,-0.5135,-1.4441,-1.0522,-2.1362,-0.29957,-0.22327,1.34614
0.3022,1.4683,0.3485,0.2752,0.4004,2.7196,-0.3177,-0.25622,1.0159
0.8274,-1.4939,1.5081,0.2513,0.4787,-0.8031,0.1425,-0.0667,0.67335
1.0827,1.0166,0.3871,-1.3183,1.3359,-0.7491,0.041,-0.24275,1.13083
2.7715,1.0147,1.5363,-1.2062,-0.1144,1.4461,0.08166,0.12927,0.69121
2.6165,-0.4554,-1.256,1.5042,1.1435,0.6539,-0.62781,0.53713,0.4013
0.1272,-1.0965,-0.6851,-1.3053,-1.5632,0.2943,0.62927,-0.07079,0.17749
2.6318,-0.0146,-0.3064,-0.0149,1.276,0.5427,-0.43936,0.41755,1.06886
1.7922,0.7366,0.8091,-0.29,0.9067,-0.0175,0.17083,-0.07563,0.99303
1.3154,-1.4222,-1.405,1.3571,1.1041,-1.6446,0.19019,0.13447,-0.17212
1.6571,-0.624,-1.4792,1.0806,-0.4221,-2.2036,0.08811,0.72244,0.18286
2.3271,-0.805,0.2349,1.0007,-1.2861,-2.4131,-0.26789,0.50261,0.71313
2.3461,1.3933,1.295,1.5264,-1.5056,1.7882,0.19893,0.01139,0.71754
2.5766,-1.4336,-0.8351,0.6591,0.2365,-0.8658,-0.23795,0.3285,-0.04895
2.4812,-1.5599,1.4351,1.1905,1.3317,-0.8552,0.02997,0.16672,0.66597
2.6942,1.3517,-0.1074,1.2596,0.0376,2.8524,0.34317,0.00176,1.25102
2.4006,-0.5015,0.5751,1.0509,0.7938,-3.0743,-0.16958,0.35852,0.89637
0.6917,1.2636,1.2157,0.0567,1.1429,-2.2031,-0.02056,-0.21185,0.75539
1.8686,-0.7122,0.1498,0.9911,-0.6976,-3.0972,-0.02505,0.59301,0.74412
1.147,0.9482,0.7966,1.2439,1.2333,-2.3931,0.06399,-0.22304,0.96785
0.6662,-1.3279,0.2486,0.1187,-0.1542,2.8293,0.4812,0.1874,0.43859
0.625,0.8825,0.2442,-0.2477,-0.5204,0.3952,0.0011,-0.18423,1.20917
2.7104,0.0471,-1.5589,0.8497,1.2081,-0.3362,-0.72181,0.49725,0.69736
3.1108,0.8371,-1.188,1.3719,-0.7263,-1.0188,-0.4518,0.16404,1.39104
0.2558,-0.8442,0.384,-0.6103,-1.2916,-2.5168,0.51862,-0.01946,0.72695
2.6501,-0.5254,-0.3875,0.8366,-0.9201,2.7682,-0.5707,0.4757,0.70322
1.7441,1.2195,1.4604,-0.7234,1.1304,1.6364,0.15848,-0.03514,0.69971
0.9569,-0.7072,0.4985,-1.1918,-0.5271,-1.9246,0.37472,0.27124,0.80951
0.1022,-0.1588,1.2891,1.3235,0.494,1.8984,0.05952,-0.14473,0.80602
3.0385,-0.7523,1.444,1.0081,1.2542,0.0156,-0.03974,0.15496,0.72228
0.2556,-0.4025,0.2681,-1.0424,-0.9384,-1.5225,0.49776,-0.02501,0.92787
1.529,-0.4593,1.4109,-0.995,-0.9662,-0.9556,0.15189,0.04089,0.74754
1.9004,-0.8622,0.8872,0.568,0.0226,-2.4542,0.04795,0.32343,0.77615
2.6301,-1.3391,0.3516,0.0512,0.3041,1.6207,-0.33704,0.36126,0.47245
2.4566,0.2829,-1.4563,-1.4172,-1.4832,-1.7875,-0.54059,0.6354,0.94076
3.1195,1.1778,0.9304,-0.4851,1.0306,0.1596,0.21923,0.14524,0.86711
1.9045,-1.5038,-0.6974,-0.9542,-0.773,-3.0306,0.02197,0.39472,-0.02993
1.2434,-1.1856,-0.1985,1.5599,0.0792,0.8499,0.33191,0.5107,0.33187
2.8865,-1.3008,-0.0792,0.1062,-0.0795,-3.0401,-0.48755,0.28221,0.31763
1.1317,-0.7509,0.4486,0.2752,0.2846,1.5855,0.33291,0.35584,0.78339
3.0355,-0.6285,0.2685,0.827,-0.0934,-1.7743,-0.50158,0.20431,0.81493
0.2314,0.3724,0.9298,-0.1112,-1.0066,-1.3049,0.02592,-0.14805,0.9631
1.6886,-0.4179,-1.533,0.7105,-0.2987,-0.9201,0.05638,0.80026,0.31753
1.656,-0.1257,1.2716,0.2362,-0.7081,-2.2419,0.14582,0.05597,0.81419
0.2523,-0.8785,-0.4818,-0.9135,-1.1378,-2.8128,0.71736,0.02997,0.40981
2.8343,-0.1279,-1.4746,1.3671,-0.653,3.0033,-0.77358,0.40292,0.58278
0.8266,-0.2153,0.6479,0.1266,1.57,2.0814,0.28598,0.08906,0.98011
0.5666,1.1352,-0.7868,0.1523,1.3485,1.4959,0.12599,-0.09769,1.4761
0.0577,-1.2878,-1.0034,0.6252,-1.3899,2.1515,0.43963,-0.12491,-0.0429
1.1564,-1.4335,0.365,-0.1162,0.8499,-1.6321,0.31746,0.34906,0.43419
1.1603,-1.4218,-1.1557,-0.4428,1.4708,3.0344,0.24845,0.19485,-0.13094
0.6186,0.9229,-0.0436,-1.2041,-1.5125,0.9442,0.03889,-0.1565,1.30712
0.0249,1.53,-1.5466,-0.1366,0.9289,-1.3252,0.0488,-0.14888,1.53467
0.3657,-0.2733,0.5368,0.1317,0.6826,-1.7915,0.35521,-0.02466,0.97747
2.1356,-1.5669,0.1396,-1.2407,1.5459,0.7408,-0.10445,0.44518,0.28169
2.2918,0.7791,-0.9032,-0.6279,-0.2066,2.4944,-0.1387,0.38512,1.4012
1.005,-0.8731,0.8936,-0.1492,-0.1134,0.809,0.28152,0.1634,0.77306
1.5715,0.9146,-1.4203,-0.6514,0.6599,-0.3092,0.1497,0.49048,1.38187
0.407,1.4502,0.3641,0.5209,-1.2518,-2.0239,-0.28222,-0.28505,1.01609
2.0425,-0.1871,1.5582,-1.3802,-0.9165,-2.3318,0.13136,0.0727,0.69706
1.3325,0.373,-0.1597,0.3506,-0.042,-0.3408,0.22383,0.28578,1.25549
2.5052,1.3936,1.3983,0.4996,1.3064,1.1328,0.16228,0.06666,0.69816
1.4253,0.4404,-0.8099,1.4364,-1.4173,-0.8269,0.23045,0.53774,1.25123
1.4704,-0.1389,1.4874,0.0243,-0.5044,1.19,0.15039,-0.00415,0.72705
0.5158,-0.1892,-0.5357,0.0678,0.9048,-2.9881,0.70521,0.22736,0.90039
2.6278,-0.3211,-0.2115,-0.3829,-0.5026,0.8304,-0.48926,0.44841,0.89723
0.7834,-1.1788,1.3233,-0.1627,1.5049,-0.3852,0.19295,-0.0196,0.70301
1.5832,-0.61,-0.9407,1.5471,-0.8142,1.5505,0.14029,0.78785,0.41285
2.6414,-1.2651,-0.2383,0.1484,-1.3836,0.8672,-0.42131,0.40127,0.26888
0.1925,1.2398,-0.6685,-0.1221,0.98,-0.3918,-0.04597,-0.16183,1.4544
0.4466,0.6566,0.439,-0.9343,-1.3172,2.5925,0.03536,-0.14944,1.15102
2.0086,0.6502,0.3776,0.2088,0.2868,-1.9197,0.14247,0.04957,1.17371
0.604,0.8878,1.5589,1.0366,0.5674,1.4625,0.06912,-0.13461,0.68809
1.3413,0.8267,0.7448,1.3434,-0.1362,1.0127,0.11441,-0.16983,1.0095
1.255,-1.2855,-0.5501,0.5698,0.3326,-0.4475,0.30815,0.46001,0.12488
1.558,-1.3188,0.8712,0.0971,0.9318,1.9426,0.15404,0.3109,0.63414
1.4357,-0.2322,0.2249,0.5933,-0.113,2.639,0.20844,0.41941,1.0041
1.1698,1.3959,0.8877,-1.0506,-0.2459,-2.9327,0.03478,-0.30237,0.83002
2.9718,1.436,-0.9186,-0.0645,-0.3497,-0.8714,0.16128,0.12459,1.48503
1.9829,0.0191,0.1287,0.8681,-0.9704,0.432,-0.01801,0.41581,1.11016
2.751,0.3108,-0.9024,-1.2517,-1.1946,-2.2663,-0.56127,0.39337,1.15098
0.31,-0.769,-0.3549,-0.626,-0.8302,1.8746,0.72047,0.07322,0.53985
1.3721,-0.7444,1.2201,1.2982,0.9793,2.9202,0.17432,0.10555,0.77243
0.9347,0.4911,0.3321,1.4102,0.8942,-0.9883,0.16699,-0.02646,1.18392
0.3311,-0.1181,-1.1219,-0.8949,-1.3002,-2.7432,0.84672,0.1324,0.742
0.7899,-1.4739,0.7746,0.8171,1.3841,1.0736,0.34257,0.1325,0.55944
1.1559,1.5605,1.3569,-1.2295,-0.0335,1.1011,0.09244,-0.16238,0.68713
3.1213,0.514,1.3803,0.9266,-0.9515,-0.3423,0.04289,0.14921,0.76611
1.8234,0.5561,1.3312,-0.8985,-0.1927,2.196,0.15777,-0.01085,0.78466
2.1242,0.7231,-0.0076,-1.0327,0.7428,0.2604,0.09832,0.12634,1.29678
1.1967,-0.5816,-0.7007,1.3118,0.1583,-2.1983,0.4249,0.67172,0.53801
0.5625,0.8291,-0.9809,-0.6746,-0.0318,2.6552,0.39899,0.07416,1.41397
0.4855,-0.0338,-1.1439,0.0993,-0.1546,2.9726,0.81136,0.25843,0.80389
2.1686,-0.9226,-0.9673,-0.7598,0.3318,-2.7366,-0.24988,0.63357,0.17287
0.5378,0.3373,-1.5353,-1.469,-0.8167,-1.5906,0.77854,0.28964,0.9531
2.8409,0.6265,1.2373,-0.4268,1.5601,-2.6259,0.11079,0.12274,0.81972
0.4988,-0.7095,-0.1602,0.7268,1.3607,-2.9146,0.66072,0.18905,0.65356
3.114,-1.4592,-0.277,-0.1805,-1.5603,1.2814,-0.46633,0.16298,0.1516
2.6405,-0.1946,1.0362,0.9884,-0.1691,-2.8324,-0.02894,0.18693,0.89116
2.332,-0.9717,-1.1626,-0.1704,-0.4314,-1.3149,-0.30364,0.53623,0.06742
1.7946,-1.452,1.3045,-0.0817,-0.2804,1.3836,0.11641,0.16466,0.6672
1.359,-0.7991,-1.0225,-1.1365,-0.8569,-1.2748,0.29687,0.66686,0.23552
3.0645,1.4724,0.7519,1.1715,-0.3078,0.5733,0.32338,0.12552,0.85514
0.7,-0.2251,-0.2848,0.8559,0.607,-0.0586,0.59334,0.30358,0.94241
2.42,-1.0438,0.9175,-0.7112,0.5159,1.6358,-0.11987,0.30534,0.72442
1.1114,-0.3366,0.1207,0.6276,1.4687,2.1822,0.36502,0.39946,0.94664
1.9621,0.757,-1.192,-1.1749,0.8903,0.1304,-0.05742,0.53261,1.3514
1.3524,0.0671,-1.413,-1.487,0.033,-2.107,0.33201,0.80343,0.77729
1.9536,0.3823,1.5494,-1.437,-0.4486,3.0024,0.14312,0.04629,0.69943
1.3551,-0.6713,0.8109,-0.9039,0.1836,2.8587,0.21038,0.2591,0.83367
1.6087,-0.2787,-1.4065,-0.1195,1.4895,0.7398,0.11804,0.84688,0.48358
2.2759,1.2984,0.2253,-0.7784,1.0612,1.8464,0.3179,-0.14202,1.12832
0.3171,0.8506,-0.5998,-1.0344,1.5595,0.3143,0.23424,-0.08105,1.41973
1.7343,0.9497,1.4677,-0.007,0.2598,-2.1491,0.15619,-0.02492,0.713
0.8413,0.7673,-0.3886,-1.1336,-0.9489,-2.5658,0.22518,0.02675,1.38029
1.748,-0.8087,0.8234,0.9852,-0.7292,2.2746,0.09269,0.33365,0.79152
2.7743,-0.9315,-1.3153,-1.3311,1.1831,0.4937,-0.48908,0.34895,0.0393
1.331,-0.0226,1.2837,-1.3617,-0.0658,2.7386,0.15208,-0.00978,0.81301
2.4895,1.0726,1.4479,-1.1987,-1.1533,-2.2277,0.1399,0.08197,0.7118
2.153,-1.0325,0.5359,0.086,-0.7874,-1.9145,-0.11933,0.45415,0.67106
1.0689,1.1048,-0.5342,-0.5492,-0.8268,-2.2973,0.1209,-0.09159,1.43195
2.1165,1.2379,-0.4295,0.3962,0.9976,1.6017,0.20982,-0.05644,1.39283
0.6282,-1.3952,-0.8084,-0.2352,-1.4387,-0.8279,0.42122,0.1205,-0.02507
1.4404,0.9371,0.8893,0.1628,-0.0082,-1.2755,0.12703,-0.18531,0.93026
0.7398,1.074,-1.4735,0.1148,0.1463,-1.0753,0.39102,0.15374,1.44133
1.5495,-0.3116,0.1513,0.4057,0.905,-0.4472,0.16066,0.49666,0.96247
0.043,-0.2597,-0.2291,-1.037,0.8323,1.9429,0.64386,-0.12249,0.93265
1.5906,-1.2755,-0.4657,0.983,1.1786,0.7473,0.13917,0.55063,0.16549
0.8161,-1.0857,-1.5622,1.4228,0.0996,1.4683,0.37518,0.17992,-0.10001
0.814,1.4071,-0.6824,-0.0591,0.6859,0.2964,-0.02869,-0.24892,1.4346
0.3148,0.3533,-1.5658,-0.0232,-1.1439,0.1401,0.82296,0.11017,0.95364
2.6975,1.4082,1.3734,-0.5279,1.1282,-1.2959,0.15586,0.09201,0.70096
2.1655,-0.7262,-1.0681,0.4093,-1.3605,1.6603,-0.28998,0.69654,0.2696
1.6172,-1.4756,0.8893,0.8393,-1.13,1.3306,0.13612,0.3035,0.59044
1.5579,-0.3966,-0.8979,-0.6881,1.5263,1.8909,0.1606,0.81724,0.60329
2.0542,0.2751,0.8114,-0.9046,-1.369,2.2446,0.11293,0.1077,1.00813
1.7462,1.1842,0.0607,-0.1403,-1.1022,-0.4964,0.18959,-0.2099,1.22924
0.2514,0.8519,0.1274,-0.2383,-1.2648,0.3975,-0.02346,-0.16094,1.2544
0.6838,0.6055,-0.473,-0.7686,-0.4909,0.7462,0.34138,0.08465,1.3483
1.7794,-1.0764,-1.2475,-1.3116,-0.9909,0.0222,0.042,0.52614,-0.01839
1.7648,1.3289,0.1138,-0.8684,1.3369,1.7369,0.20936,-0.28726,1.16635
2.4964,-0.1757,-0.4936,-0.5572,0.6519,-0.086,-0.47623,0.54623,0.9224
0.2733,0.9261,1.4895,0.6618,-1.2273,1.6543,-0.00028,-0.15591,0.70752
2.6088,-1.4556,-1.314,-1.5044,-0.5773,-0.6707,-0.08544,0.22458,-0.16675
1.0348,-1.2169,-0.5716,-0.8551,0.9381,-0.7626,0.4185,0.41074,0.1537
0.6008,0.5842,0.8939,-0.1118,0.1538,-1.7945,0.02883,-0.16215,0.97016
0.1907,-0.7428,-0.3122,-0.8529,0.7005,1.4921,0.71937,-0.01395,0.5751
0.0954,-0.2183,-1.3333,-0.7434,0.8197,1.0437,0.86407,-0.06805,0.56631
0.5517,-1.5238,0.6406,1.1614,0.2864,-0.4966,0.39107,0.06449,0.49887
1.5109,-0.111,0.6917,-0.0808,-0.117,-1.895,0.16231,0.19987,0.99615
1.3008,0.925,0.4513,0.743,0.8978,2.5144,0.10197,-0.19409,1.12005
2.2661,1.0961,0.7739,-0.0975,-1.3996,0.4247,0.25695,-0.07375,0.94801
1.638,1.4237,-0.2992,1.3824,-0.86,-2.0382,0.17103,-0.30666,1.30366
1.6963,-1.4902,-1.5194,-0.8068,0.1442,0.5142,0.13992,0.08969,-0.18928
2.4291,0.031,-0.2793,-0.3669,-1.4467,2.658,-0.3237,0.47792,1.09878
1.2296,-0.3179,-1.5522,-1.321,1.0256,0.5469,0.41471,0.71949,0.39015
2.545,1.4326,0.0474,0.9182,-1.5648,2.7866,0.38931,-0.08301,1.15888
1.6973,-1.4453,0.9326,-0.6059,0.0523,-1.0788,0.11308,0.30021,0.60975
2.1141,0.7564,-0.0103,-1.3269,1.5474,-0.1858,0.1099,0.10827,1.29905
1.2006,-1.301,-0.9925,-0.9543,0.4912,2.608,0.29384,0.34241,-0.04517
0.7222,0.5804,-1.032,-1.0695,0.1394,0.0072,0.52524,0.26274,1.28826
2.2489,0.0495,-0.0223,-1.0764,0.2353,-1.234,-0.15905,0.43664,1.12539
0.2927,-0.2889,-1.0502,1.5205,0.1729,1.9199,0.84645,0.09837,0.62821
2.4804,-0.3886,-0.4662,0.3043,1.5255,-2.4808,-0.49088,0.57203,0.77633
2.795,0.715,0.7214,-0.4144,-0.9911,2.7252,0.14421,0.10745,1.0329
2.8927,-1.039,-0.3512,-0.5948,0.0839,-1.7207,-0.59047,0.3049,0.35725
1.6922,-0.9508,0.4344,-1.0714,-0.8782,0.0838,0.0906,0.49637,0.68587
3.1373,-0.1452,0.8056,0.8269,-0.3196,1.414,-0.17776,0.15081,0.96282
3.1261,-1.0404,-0.8716,-1.3822,0.1598,0.5451,-0.61615,0.15961,0.13574
1.7378,1.2033,-0.7325,-0.8996,-0.1321,-1.9192,0.15173,0.00262,1.46883
1.1978,0.0443,-0.6265,-0.0776,-0.454,2.2013,0.38963,0.58393,1.04045
0.9279,-0.6057,-0.8884,0.8857,-0.7129,0.6656,0.59196,0.53998,0.43883
2.3804,1.2103,0.9125,0.6639,1.2279,-2.8575,0.26713,-0.04725,0.86673
2.3244,-1.5555,0.8001,-1.0398,-0.6895,-0.4913,-0.10778,0.33414,0.54051
0.4653,-1.1068,-0.2764,1.5263,-1.3887,0.4708,0.62253,0.14465,0.34627
1.4913,1.5234,-0.4004,-0.9969,-0.705,-0.687,0.12099,-0.37076,1.3084
2.8949,0.7058,1.3583,0.3215,1.1456,0.7261,0.09608,0.13054,0.76532
0.1122,0.1218,-0.872,1.2849,0.4042,-0.8502,0.75001,-0.06649,1.02634
0.1887,1.5253,0.3055,1.5132,-0.9012,0.7507,-0.36757,-0.22296,1.01179
2.6385,1.0311,1.0302,-0.5978,-0.8257,1.7389,0.22002,0.05019,0.85675
0.5385,0.7099,0.2141,-0.4708,1.2129,1.0528,0.07278,-0.13131,1.22968
0.4617,-0.0864,-0.0613,-0.0098,-1.2108,0.4419,0.52686,0.09455,1.05868
1.5995,0.024,-0.4091,-1.3817,-0.6557,1.1968,0.1324,0.61675,1.07474
1.0761,-0.0154,-1.226,1.014,-1.1441,2.0933,0.53414,0.67413,0.78565
1.4173,0.839,0.921,-1.0376,0.3558,-0.7474,0.12698,-0.16068,0.9318
1.3371,-0.4573,-0.3526,-0.4462,1.2452,2.1414,0.31135,0.65999,0.76423
1.5249,-0.224,-1.0239,-1.2891,0.0877,2.3036,0.18829,0.82917,0.69368
0.6798,-1.272,-0.4695,0.8449,-0.319,-0.8735,0.52143,0.22854,0.16581
1.008,0.8586,1.5701,-1.5157,-0.105,0.4744,0.11859,-0.09324,0.6853
1.8988,0.1885,-1.0369,-1.5316,-1.2072,3.1357,-0.10328,0.76926,1.02301
1.2917,-1.1207,-0.9325,1.4891,-1.1619,2.4774,0.29878,0.49792,0.06474
1.0356,1.0855,1.1601,-0.6623,-1.4221,0.9952,0.05337,-0.2042,0.79986
2.9179,-0.682,-1.4784,0.1571,1.338,-2.4709,-0.63252,0.29778,0.14268
0.7361,0.2892,1.0724,-1.1896,-0.1192,0.3241,0.09756,-0.11409,0.9045
1.5861,-0.2298,1.4382,0.7226,-1.1021,1.1737,0.14967,0.02618,0.74553
0.1302,-1.4807,-1.1083,0.9856,-0.2238,-2.7775,0.2656,-0.11655,-0.13641
1.1192,0.0584,-0.8302,-1.3043,-1.5031,-0.3963,0.4609,0.60642,0.99233
2.9448,1.0928,-0.0704,0.5308,-1.3925,3.1153,0.18553,0.11601,1.29766
1.5606,-1.3412,0.0233,-1.3581,-1.4931,1.324,0.15536,0.51986,0.33975
1.2313,-0.0968,-0.4525,-0.414,-0.5791,-1.083,0.36545,0.58418,0.98778
1.8488,-0.0322,1.2674,-1.2224,-0.8305,1.3188,0.1359,0.07056,0.8193
2.7988,0.3449,-1.3265,-0.0324,0.9797,0.4971,-0.68102,0.40236,1.04089
0.6197,-1.4778,1.0994,-0.5238,-0.7913,1.3941,0.265,0.00474,0.63565
1.8961,-1.122,-0.5378,-1.3879,-0.5206,1.4237,-0.05457,0.6313,0.22419
1.645,-0.3654,-0.3366,-0.8783,-1.1092,1.5363,0.09792,0.70683,0.83413
1.0675,0.183,-0.1939,-0.7711,0.2904,-1.2996,0.34829,0.32147,1.18196
2.0709,0.9745,1.1636,0.5473,-0.9237,0.9376,0.19525,-0.04439,0.8142
0.0897,1.2175,0.4972,0.6139,-0.5357,-2.3165,-0.26628,-0.17461,1.03513
0.334,-0.9601,-0.7246,1.2947,-0.5546,-2.2627,0.68623,0.0793,0.24883
1.3125,-0.8913,1.4103,-1.3784,0.4113,0.563,0.16418,0.03398,0.72095
2.9497,0.6263,-1.2382,0.8805,-0.8362,-0.2392,-0.5746,0.26449,1.26672
1.968,0.6792,-0.7594,-1.0179,1.2512,2.4605,-0.01281,0.41842,1.37186
0.9626,-0.7287,-0.6705,0.3004,0.2663,0.0094,0.55229,0.53065,0.43802
1.3225,1.0602,-0.0109,-0.0464,1.5512,2.4406,0.10778,-0.18545,1.28127
2.7011,0.2962,-0.3393,1.4435,0.5039,2.3607,-0.34477,0.3284,1.22839
2.9547,-1.1952,1.0416,-1.3691,0.6372,0.4968,-0.21238,0.19287,0.69374
0.0775,-1.0623,-0.6771,-0.4193,1.4148,0.8499,0.64222,-0.10063,0.20219
2.124,-1.2849,-0.3538,-1.3451,0.8562,-1.7982,-0.16194,0.54783,0.20801
0.1906,-0.3307,-1.2566,-1.5522,-0.994,-2.0894,0.85303,0.01177,0.5042
1.0969,1.1585,1.132,1.294,-0.6884,1.1625,0.05818,-0.21535,0.79809
1.8277,-0.545,0.4323,-1.452,0.5687,0.5604,0.03384,0.46173,0.87475
1.5484,1.1992,1.0297,-0.4385,1.4157,0.7188,0.1456,-0.20056,0.82612
0.376,0.6077,0.145,-1.3537,1.5141,1.1751,0.12404,-0.11235,1.2474
0.9051,-0.9774,-0.4196,0.9077,-0.972,2.9981,0.53197,0.43448,0.36852
2.873,-1.2899,-1.4259,-0.5327,1.0955,1.8968,-0.22972,0.21886,-0.14468
0.3981,-1.4735,-0.7238,-0.7979,-1.1202,-2.0881,0.4083,0.00893,-0.02754
3.0185,-0.7976,1.3647,0.505,1.4152,-1.2045,-0.06767,0.15957,0.73791
0.8658,1.4062,-1.0792,-0.6045,0.0826,-1.4476,0.08271,-0.13434,1.51323
0.8643,1.0377,1.305,-1.2525,-0.7488,-1.3998,0.04653,-0.17662,0.75708
2.6897,0.4262,-0.1544,-0.8254,-0.3923,2.7658,-0.20149,0.26459,1.27174
1.7496,1.0183,0.5182,0.5389,-1.2457,-1.6209,0.18398,-0.17429,1.07448
1.7108,-1.1685,-0.7448,1.562,0.9534,1.3467,0.06918,0.58434,0.11036
0.3249,0.8084,0.7634,1.3912,1.2239,-1.1464,-0.07871,-0.18485,1.00397
1.444,-0.1709,1.5216,0.5211,0.3497,1.2241,0.14993,-0.01049,0.71248
2.6448,-0.2367,-1.214,-1.4184,0.6643,1.694,-0.67651,0.53745,0.60215
0.3032,-0.1818,1.4673,0.1033,0.5247,0.6215,0.06012,-0.13841,0.73477
1.2372,-0.9918,0.9433,-1.0944,1.2378,0.6752,0.23264,0.21305,0.74072
2.9791,1.0958,-0.3827,-1.51,-0.5993,-2.0394,0.093,0.13681,1.39569
1.0161,-0.746,-1.1369,-1.3565,0.8681,2.7687,0.50773,0.53457,0.22686
1.0788,-0.6843,-0.9176,-0.4607,-1.5028,-2.5831,0.49389,0.60386,0.36516
0.0406,0.1779,0.9662,-0.8811,-0.363,0.2583,0.04636,-0.14829,0.94543
0.4442,0.3461,-0.5043,0.9985,-0.7626,1.9555,0.51078,0.07692,1.24152
1.9683,-1.1708,1.2683,0.1108,0.5552,-2.9672,0.08171,0.193,0.70584
0.2076,0.7643,0.7964,-0.6148,1.2113,1.7146,-0.08637,-0.17154,0.99531
0.8782,-1.0019,0.4473,0.6402,0.7567,-1.6742,0.42022,0.27148,0.66443
0.2809,-1.4108,1.4104,1.5185,-1.282,-0.7319,0.12736,-0.11942,0.67734
0.5062,-0.6447,-0.6758,0.3833,0.716,1.0112,0.74488,0.24138,0.49962
2.5189,-0.9868,1.0323,-0.17,0.2597,1.8513,-0.1064,0.26111,0.74387
1.7589,0.8043,-0.638,-1.4995,1.3276,2.5355,0.10102,0.27173,1.41208
3.1228,-0.2234,-1.1302,-1.5268,-0.1705,2.4791,-0.84413,0.16594,0.64939
2.6895,1.1662,0.4,1.1413,0.4703,-2.9861,0.30098,0.02064,1.09105
1.918,0.7933,1.1953,-0.1014,-1.3344,-0.7464,0.17512,-0.04296,0.82291
1.1204,-1.1535,-1.058,-0.8088,0.1295,2.686,0.35668,0.39295,0.0027
1.0122,0.4887,-0.7712,-0.741,-0.0511,1.902,0.40343,0.36238,1.28358
1.0025,1.3382,-0.4383,-0.7249,-1.5218,-1.9692,0.0048,-0.27129,1.37635
0.2888,-1.0799,0.7987,-1.3235,0.3054,-2.7315,0.37142,-0.04618,0.70023
1.2005,-0.7291,0.1264,1.238,-0.0791,-2.0524,0.35105,0.48967,0.72838
0.0567,-0.7145,-0.8251,-0.7144,-1.5089,2.1572,0.7657,-0.10683,0.38208
0.3256,-1.3767,0.733,-1.3962,-1.3022,-2.0108,0.38782,-0.02744,0.58134
2.7269,-1.3742,0.5404,1.0676,-1.1158,-2.737,-0.32187,0.30564,0.52351
0.0612,-0.3709,-0.9543,-0.542,0.3261,-2.1073,0.83385,-0.09924,0.60062
2.7636,-0.8354,-0.5824,1.5014,-0.685,-2.1494,-0.61337,0.40501,0.39737
0.3627,0.1423,-1.3473,-1.5415,-0.1948,1.5745,0.83665,0.15701,0.86856
1.9492,-1.3983,-0.0808,-1.1733,-0.4112,-0.5374,-0.04749,0.5256,0.26576
2.9448,-0.8263,0.6541,0.1987,1.4062,1.1354,-0.34978,0.22274,0.77621
0.9773,1.0346,0.5787,-0.4523,0.4787,0.9838,0.00601,-0.2594,1.04496
2.892,-0.5881,-1.2508,0.7274,-0.9454,0.1595,-0.70932,0.33566,0.29832
2.4452,0.7602,-0.0664,0.5468,1.0379,0.6211,0.05604,0.14873,1.31433
1.6631,0.44,-1.5481,-0.3367,0.0931,2.2382,0.07695,0.79661,1.03032
2.9137,-1.2713,1.2761,0.5042,-0.1656,2.5136,-0.10796,0.17907,0.69114
1.2539,-0.1414,0.1531,1.3389,0.4449,1.3398,0.28054,0.37393,1.04298
0.4036,-1.3585,-1.1089,-1.0118,-1.1694,-3.1233,0.37592,-0.00263,-0.10028
2.5994,-1.528,0.5376,0.6788,-0.5767,-2.4095,-0.25723,0.33013,0.46023
1.7882,-0.4092,0.2213,-0.1712,1.4809,0.4635,0.03937,0.51742,0.92044
1.0147,-0.4731,-1.0574,0.4831,-0.9073,-2.4176,0.55852,0.61438,0.47219
2.8126,-0.9167,1.3866,-1.3788,1.4445,-1.441,-0.03225,0.16956,0.72334
2.2975,-0.0519,-1.4577,-0.3553,0.978,1.7177,-0.46154,0.74501,0.65558
1.8057,-1.2019,-1.557,1.4785,-0.7366,-0.6203,0.07654,0.32485,-0.13907
2.6044,0.6181,1.1015,0.8302,0.2162,-1.6203,0.14391,0.08893,0.87811
1.7519,-0.8089,0.7947,-1.3865,-0.7561,-1.7765,0.08915,0.34622,0.79088
3.1107,-0.4774,0.8574,0.3291,0.2019,2.9252,-0.23746,0.15746,0.88196
0.1922,0.4079,-0.9881,-1.395,-0.7415,-1.0082,0.66675,-0.02311,1.19313
0.4886,-1.4246,0.8368,0.1453,-0.814,1.185,0.35232,0.01736,0.59271
0.2743,-0.484,0.3754,0.3191,-0.9342,-0.295,0.47304,-0.02277,0.89796
3.0665,1.4016,1.4359,-0.3748,0.0975,-2.8882,0.08699,0.14393,0.69155
1.4898,-1.4267,1.5095,0.2124,0.3704,1.6722,0.15332,0.03423,0.6765
2.8816,-0.7534,0.2152,-0.7308,1.4112,-0.0101,-0.49652,0.28735,0.73678
2.2506,0.5699,1.2301,1.2894,-1.313,2.4764,0.15539,0.04645,0.82647
1.3321,-0.8589,0.8264,-1.2781,-0.4099,-2.3342,0.2206,0.27195,0.77582
0.1791,0.103,1.0833,1.0984,1.513,-2.1932,0.06299,-0.14108,0.89701
0.6242,-0.4112,-0.9596,0.3487,-1.4647,-1.1941,0.75553,0.35926,0.56512
0.4859,0.8655,-0.7614,0.2846,0.7776,2.3318,0.29577,-0.01348,1.43218
2.8739,-1.4162,-0.0648,0.9047,1.3595,-2.4613,-0.44093,0.27653,0.26368
3.114,-0.445,-1.2688,-0.4628,0.8628,2.6473,-0.8098,0.17246,0.40433
1.1192,-0.8967,1.2454,1.2367,0.4777,0.4773,0.19657,0.06144,0.74723
0.6741,0.5264,-0.8625,0.6828,0.6178,-1.7625,0.51158,0.21666,1.28972
0.1757,1.3143,-0.7418,-0.6283,-0.5411,-1.0617,-0.07943,-0.1665,1.46345
0.2532,-0.0687,-1.1326,1.1936,1.2785,0.6302,0.85155,0.06535,0.7792
2.6925,-0.9172,0.2503,-0.8416,-0.5869,-0.5731,-0.42635,0.37204,0.65575
1.373,-1.5117,1.1861,0.0111,-0.8918,2.5598,0.18306,0.14981,0.6434
2.958,1.206,0.9662,-1.0889,-0.1442,-3.0527,0.23728,0.10856,0.84764
2.4385,-0.5306,0.7508,-0.7327,1.0627,1.757,-0.13025,0.3071,0.87912
2.615,-0.2595,-0.7869,0.5039,0.1335,1.6512,-0.61732,0.53244,0.75966
2.3805,-0.1644,-0.1859,-0.2875,-0.3016,2.3176,-0.32606,0.51781,0.99977
0.0124,1.3335,-0.8979,-0.0569,1.3633,0.9633,-0.06042,-0.15081,1.49157
2.6116,1.1685,-1.5119,-1.1097,-0.63,1.4711,-0.21195,0.29809,1.46891
1.516,-0.95,-0.2202,-0.0034,1.4479,-1.5981,0.18579,0.6475,0.47029
0.827,0.0414,1.3949,-1.5105,-0.4062,1.1103,0.11466,-0.097,0.76772
2.0934,1.1292,-0.2714,0.8666,-0.9798,-3.0644,0.19431,-0.03671,1.36
1.2777,1.3862,1.2378,-1.0057,0.883,-0.9113,0.09973,-0.1889,0.7311
2.3075,-0.1831,-0.0441,-0.4233,0.5696,-2.1226,-0.25275,0.50198,1.00934
0.8983,0.1617,-0.6365,-0.3116,1.2406,0.9127,0.51707,0.40845,1.1161
1.5845,1.3636,-0.1119,0.7061,1.4597,-1.0278,0.15435,-0.31272,1.24913
1.2219,1.4392,0.3777,-1.4518,1.5136,-2.0491,0.01552,-0.39626,1.01439
1.2042,0.9536,0.0326,-0.1645,0.8984,-0.7315,0.1046,-0.14619,1.27919
1.3664,-1.3009,-0.6161,0.7917,0.6751,-3.0405,0.25134,0.47326,0.09004
2.0487,-0.0241,0.0694,-1.4016,0.9798,-0.5133,-0.06563,0.45297,1.0937
2.6564,1.3028,0.0479,1.3832,0.4922,0.031,0.33767,-0.0084,1.2023
2.3022,-1.2791,-0.9572,0.5644,0.0348,-2.0406,-0.18976,0.43609,-0.02432
0.1506,0.3507,1.5522,-0.2216,0.4759,-1.94,0.01331,-0.14975,0.69859
0.8654,-1.3829,1.1698,-0.0353,0.7165,2.1212,0.2386,0.04876,0.66537
1.0776,0.5079,-0.0686,0.3511,-1.4316,2.6575,0.23255,0.11571,1.28127
1.4712,1.2213,0.0761,-1.3751,-1.4014,-2,0.12321,-0.27604,1.21366
2.1254,-0.3331,0.6986,-0.6407,1.2485,-2.5141,-0.01604,0.31084,0.94118
2.0862,-0.9994,-1.1493,1.4008,0.9476,-0.0051,-0.15734,0.58219,0.05574
2.6836,-1.2363,-0.6582,1.4711,0.3219,-2.974,-0.4222,0.37541,0.10737
1.4406,-1.0955,-1.4124,-0.8634,1.1321,1.3473,0.2055,0.41373,-0.07209
1.0774,0.032,1.179,0.4968,0.6472,-3.0367,0.14853,-0.04062,0.85668
2.5777,0.5443,-0.7043,1.5447,0.9851,-2.0904,-0.30709,0.37174,1.31847
1.5273,1.2066,0.2137,0.1918,0.2731,-1.6048,0.13816,-0.27634,1.16012
2.6414,-0.6544,-0.9148,0.5925,-1.1456,-1.4297,-0.60759,0.50308,0.38939
1.3675,-0.4157,-0.4019,-1.399,0.185,0.2145,0.29312,0.67871,0.77799
2.8792,1.3449,-1.5537,0.7776,-0.4539,0.6776,-0.1601,0.19837,1.51087
0.7373,0.9084,0.9757,-0.8763,-0.5835,-0.6806,-0.01126,-0.21292,0.89854
2.1135,0.56,-0.3681,0.9245,0.8891,-2.3812,-0.02821,0.33731,1.32894
1.5661,1.5621,0.4134,1.3184,-0.5424,-0.4129,0.14816,-0.40186,0.95225
0.1763,0.2899,0.4511,0.2269,-1.1447,1.0826,0.16147,-0.12365,1.12755
1.6573,-0.21,1.379,1.3688,0.5225,-0.8848,0.14665,0.04568,0.76937
1.6258,-1.1148,-0.3153,0.8039,-0.9009,-0.4907,0.11571,0.62784,0.3246
2.7854,-1.1519,0.4285,0.4897,-0.8111,1.9104,-0.39443,0.30685,0.58759
0.8888,-0.7989,-0.6507,-0.2435,0.2824,3.1125,0.57807,0.47389,0.39446
1.4727,1.3681,-1.1378,1.2157,0.0664,2.5709,0.15012,-0.00661,1.51982
2.011,-0.1441,0.4761,-1.2263,0.2654,-1.5002,0.00545,0.34057,1.02466
1.1209,1.2633,-0.8897,1.0594,1.5117,2.9495,0.13164,-0.07246,1.4928
2.9767,0.9221,0.3223,-0.6519,-0.9716,1.0533,0.16433,0.12477,1.1736
2.9106,0.0996,0.6616,-0.8948,0.8828,1.4578,-0.10826,0.17961,1.0414
2.2825,0.0402,-0.2066,0.1856,0.7085,2.4269,-0.22795,0.49404,1.11166
0.4999,0.3471,-0.9056,-1.0205,1.5472,0.981,0.64421,0.18088,1.17415
2.1379,1.2398,0.9719,-0.9058,0.905,0.7113,0.24363,-0.1032,0.83828
2.8207,-1.1909,1.1208,1.2947,1.212,-1.4694,-0.15254,0.20882,0.70013
0.0155,1.5613,0.895,-1.4334,1.0087,1.2329,-0.28254,-0.15445,0.78214
2.1141,-0.9593,-0.2786,0.0787,-0.7411,1.8058,-0.21411,0.64478,0.4402
1.2292,1.0757,1.2113,-0.4231,-1.348,-2.4051,0.09653,-0.17641,0.78361
1.2928,1.2002,-1.1798,-0.3238,-0.7807,2.2401,0.19036,0.12025,1.50644
2.8887,-1.4276,-1.5375,1.4265,-0.5349,3.1125,-0.07617,0.17466,-0.18421
2.533,0.7486,-0.0554,-0.3342,1.2266,-1.3793,0.0398,0.15515,1.31083
1.2391,-0.1116,0.0596,0.859,0.989,0.5518,0.29552,0.39725,1.0539
0.6289,1.1253,1.2629,0.0566,0.9726,0.1874,-0.01212,-0.19437,0.76043
1.2883,-0.996,-0.2074,0.5604,-1.0549,1.3225,0.32391,0.57764,0.44557
0.0943,-0.1167,0.5306,-0.3618,1.5639,0.5899,0.2867,-0.1236,1.02506
0.468,1.4139,1.4679,1.01,0.544,0.1079,0.0114,-0.16237,0.68623
0.7928,-1.2137,0.6482,1.3393,1.4905,-0.0172,0.38724,0.17923,0.62097
0.268,1.2018,-1.087,1.0808,-1.1149,-2.1246,0.16167,-0.11121,1.50585
2.3833,-1.1249,1.0625,0.9892,-0.6134,-2.693,-0.06627,0.26945,0.71194
2.67,-1.3141,-1.463,1.3301,0.7823,3.0202,-0.14972,0.24479,-0.15649
1.5989,0.5946,-0.817,-1.3242,0.2467,-1.9378,0.13671,0.47676,1.3304
1.7437,1.373,-0.7355,0.8914,-0.0862,1.2365,0.17462,-0.1277,1.45428
0.0348,0.2339,1.4452,-0.8255,-0.848,-2.8941,-0.00619,-0.15036,0.74542
0.9556,-0.2732,0.144,-0.1828,-1.5504,-2.852,0.40622,0.31483,0.98091
2.9694,0.3188,0.7633,0.8962,1.1154,0.4048,-0.01204,0.1544,1.02781
1.4303,-0.0814,-0.681,-1.0101,-0.3306,-2.7992,0.25266,0.71494,0.93497
1.7453,0.8654,-1.1603,-0.9344,-0.2891,-1.5723,0.074,0.44447,1.40784
0.428,-1.5429,1.2917,-0.3929,-0.5089,1.3437,0.18877,-0.07881,0.6534
2.2533,-1.2445,-0.6662,-0.9544,-0.8378,2.2034,-0.22336,0.5127,0.09971
0.7885,-1.2629,0.8489,1.3852,-0.1248,-0.954,0.33422,0.12343,0.64749
2.9106,0.6138,-1.3482,0.4931,0.4235,1.9547,-0.6056,0.29658,1.22743
1.2647,-1.4688,-0.8436,-0.4702,1.0059,2.0209,0.24814,0.28723,-0.06436
3.0318,1.0759,-0.3225,-0.7126,0.827,0.5306,0.09151,0.14087,1.38065
2.659,0.5662,0.8654,1.3346,-0.7187,0.8102,0.12313,0.10489,0.98347
2.44,-1.1888,-0.9704,-0.3351,-0.1865,2.2116,-0.29184,0.44306,0.0146
2.9055,0.9447,0.2495,-0.3139,-1.561,-1.7245,0.17223,0.1129,1.1994
0.0576,0.4749,0.7065,-1.3516,-0.9764,-2.8241,0.0009,-0.15025,1.05197
2.6889,1.5604,-0.1164,0.1583,-0.3587,-2.5236,0.44447,-0.04933,1.17835
1.6351,-0.1916,-1.4167,-0.5974,-1.2353,0.4814,0.09482,0.86251,0.55313
0.0344,0.0428,-1.4979,0.3788,-0.0668,-0.1849,0.86731,-0.12029,0.71999
1.6154,-1.5477,1.4221,-0.0865,-1.1358,-2.8682,0.14615,0.09081,0.666
0.5055,0.9705,1.3555,1.0609,-0.397,1.9716,-0.00119,-0.17216,0.74695
1.9913,1.5504,1.4733,0.0054,-1.3969,-2.1663,0.16235,0.00453,0.67713
0.6483,-1.506,0.5668,-0.8556,0.2238,2.9782,0.40024,0.11495,0.4795
0.1263,-1.4011,0.8257,0.5633,-1.1766,3.0898,0.34124,-0.10793,0.59745
2.2339,-0.508,-0.8278,-0.1719,-0.1165,-2.3299,-0.37539,0.72436,0.54259
1.1122,0.1859,0.4899,1.0542,0.8551,0.3064,0.20985,0.0861,1.10123
2.0114,0.9762,-1.047,-0.3571,-1.3622,2.9297,0.0109,0.32872,1.4588
2.1005,-0.0032,-0.2002,-1.2601,1.1948,0.1075,-0.14281,0.54087,1.08925
0.6293,-1.1136,1.2102,-1.5377,1.1709,-0.2878,0.22508,-0.02174,0.71612
1.7407,-1.1817,-0.1383,0.2354,-1.3695,1.1327,0.04861,0.60405,0.3598
1.1366,-0.5299,1.274,0.8698,-0.6946,-0.2279,0.17611,0.02311,0.785
0.6998,-0.0676,1.0235,-0.1201,0.0236,0.1022,0.16535,-0.05694,0.90834
3.0506,1.1228,-0.1975,-0.695,0.5909,1.4197,0.1587,0.13619,1.337
1.373,-0.7588,-1.2231,0.0074,-0.1849,-1.6739,0.28489,0.6579,0.18356
2.6603,-0.0757,-0.9384,-1.3478,-0.1658,0.5767,-0.64665,0.507,0.8501
1.3931,1.2456,0.606,1.1874,1.002,1.2187,0.09774,-0.30463,0.98084
2.0338,-0.6053,0.4787,0.9528,-0.4407,-2.9795,-0.05769,0.45151,0.85191
2.525,-1.0345,-1.2783,-0.6628,0.6909,0.9756,-0.34172,0.42612,-0.00611
0.7376,-0.0257,0.6782,0.4616,0.2871,-1.1298,0.23828,0.01377,1.01615
0.802,0.6284,-0.2701,-0.4,0.6886,-2.625,0.25865,0.05157,1.33716
0.7137,0.0965,0.4514,0.4589,-0.5878,-2.2429,0.2662,0.03203,1.0926
1.6938,0.7059,-1.3917,-0.2091,-0.9098,-1.0671,0.07312,0.63152,1.27327
1.5693,-0.0449,0.3642,0.1494,-1.2254,1.9314,0.15052,0.31487,1.0688
0.9309,1.0492,1.3711,-0.934,1.0318,-0.7831,0.06947,-0.15797,0.73536
0.7411,0.9519,0.6391,-1.3561,0.3342,2.7916,-0.03269,-0.23331,1.03511
1.7256,-1.5651,1.2681,0.923,0.6897,1.851,0.1254,0.1696,0.64699
2.9995,0.3484,-0.7418,0.8317,-1.2532,0.8657,-0.56293,0.23211,1.21028
0.9829,-1.5361,0.0768,0.4162,-1.5421,-1.531,0.37241,0.2882,0.26816
2.7425,0.5971,-1.5311,0.9541,1.5461,-0.6036,-0.60173,0.41661,1.15504
1.8972,0.8309,-1.4461,-0.8693,0.3128,1.3971,-0.03644,0.57561,1.33165
2.0902,-1.344,-0.1732,-1.0704,0.7163,2.6871,-0.13249,0.53403,0.25395
0.3093,-0.8984,0.3793,-0.7584,1.0822,-0.6927,0.5227,0.00951,0.69887
0.8598,0.205,-0.1661,-0.856,0.3821,-2.4944,0.39186,0.22505,1.19199
0.5386,1.2878,-0.7629,0.0177,0.2966,-1.1326,0.0098,-0.16894,1.4703
0.1193,-1.1255,0.9903,-0.3834,-0.3739,-1.4372,0.28028,-0.11753,0.70726
2.7306,0.7766,0.9127,1.1419,0.3955,-2.4101,0.17286,0.08835,0.94357
2.2197,1.1667,-0.9131,0.7417,-0.8282,2.7047,0.07055,0.15529,1.49193
2.2522,0.2524,-0.5601,1.2463,-0.861,1.7874,-0.24139,0.53586,1.18503
1.9836,-1.0237,-1.2045,-0.5423,1.2877,2.124,-0.08482,0.56769,0.02313
1.8311,0.4934,1.5101,-0.0179,1.3649,-2.3099,0.1502,0.01908,0.7137
0.9451,-0.6952,-0.6794,1.1063,-0.3746,-1.0244,0.56618,0.52738,0.45951
0.1693,0.5862,0.5433,0.8708,-0.925,0.8947,0.00355,-0.15162,1.11348
0.2318,0.7746,1.3665,-0.552,-0.5254,-1.4973,-0.02958,-0.16116,0.75781
2.0062,-0.1333,-0.5964,1.3172,-1.4847,-2.1506,-0.17225,0.72605,0.92276
1.3036,-0.8525,1.2269,-0.6396,0.7161,-1.5108,0.18305,0.10038,0.75603
3.0801,-1.5619,-1.3699,-0.9028,0.736,1.6539,-0.06455,0.15431,-0.18651
0.3176,0.8635,0.6264,-0.5525,1.4726,-2.6732,-0.0939,-0.18882,1.05518
1.7555,-0.7842,-0.9279,0.47,0.2488,-3.0674,0.01337,0.74547,0.28596
0.4675,0.4266,-0.2616,-0.3239,0.9487,-2.275,0.3731,0.02027,1.27977
2.3236,1.192,-0.9672,0.9991,1.084,3.1302,0.05261,0.16332,1.49848
2.3378,-0.9143,-0.4664,-0.1577,1.2043,-1.8672,-0.37179,0.60194,0.39144
2.2809,1.255,-1.2947,0.0738,0.5086,-2.3463,0.00196,0.22789,1.51293
2.1852,-0.5573,-0.7203,0.7062,0.8992,-2.8623,-0.33033,0.72851,0.54881
1.7227,0.5437,-1.1708,1.375,-1.51,-2.6858,0.05158,0.6547,1.23293
0.51,0.177,0.3866,-1.2755,-0.1406,0.4753,0.25786,-0.02769,1.12372
0.4846,-1.4422,-1.2191,0.6737,-1.1506,-2.6841,0.27951,-0.02242,-0.14873
2.4396,0.2911,0.3791,0.6999,1.4502,2.1296,-0.02629,0.21875,1.14677
0.4129,-1.1809,-1.41,-1.3426,0.5104,-3.0138,0.40166,0.01214,-0.10615
2.6129,-0.9663,0.9844,0.4278,-0.0231,2.2733,-0.147,0.25965,0.74865
1.9856,-1.4281,-0.9376,1.0686,0.8929,-0.3217,-0.00346,0.38018,-0.07802
1.6393,1.2833,0.979,-0.9936,1.1878,-0.5557,0.16497,-0.21232,0.82619
1.6506,0.4629,1.0648,0.4773,-1.4906,1.5521,0.15309,-0.03206,0.90353
2.354,0.9965,0.9634,1.0379,-1.2292,2.3196,0.22815,-0.01648,0.88933
0.2528,0.184,0.8016,1.1863,1.0559,-0.7363,0.1109,-0.12633,1.00627
1.2194,0.7658,-1.1911,-0.6664,-0.6303,1.746,0.31571,0.42522,1.35607
2.3621,-1.5131,0.565,0.8937,-1.4575,1.0708,-0.17014,0.3791,0.4761
3.0807,-0.8648,1.5067,0.8468,-0.6324,0.9533,-0.02868,0.15208,0.70125
1.5117,-1.0802,1.3341,1.5515,1.2859,-0.4641,0.15656,0.10557,0.71402
3.0221,1.164,-0.6206,0.7694,1.3609,-2.9827,0.05267,0.1448,1.44849
1.3488,0.1687,0.277,0.6565,-1.1177,-0.7943,0.20314,0.21848,1.1427
2.8009,1.5615,-0.2,0.8158,1.1502,-1.46,0.44048,0.00304,1.21318
1.6197,-0.8512,-0.9749,1.469,0.8082,0.5509,0.11579,0.70377,0.2184
0.8146,-0.0119,-0.9499,-1.0844,0.3833,-2.5301,0.6564,0.47722,0.89705
1.7255,-0.2919,-1.3776,0.7946,-0.8888,-2.7297,0.01863,0.85431,0.48482
0.4734,0.0045,1.2842,1.1541,0.3782,1.1304,0.08863,-0.12319,0.81347
1.8449,-0.707,1.2475,-1.118,1.1595,1.9094,0.11101,0.15953,0.77205
1.8081,-1.1129,0.3735,0.4792,0.015,-0.4812,0.02904,0.5182,0.58988
0.0767,-1.4893,1.1549,1.4586,-0.5014,-2.8225,0.20697,-0.13459,0.64268
0.7741,-0.4546,-1.5112,-1.5517,0.3894,-1.4176,0.66169,0.43706,0.29733
1.0491,0.509,1.1874,1.3931,0.0738,-1.1436,0.10324,-0.12149,0.84829
2.1766,0.6443,1.5057,-1.4397,0.6536,-0.6634,0.13887,0.06304,0.71183
0.67,0.9498,0.3137,1.3416,0.3544,1.901,-0.02768,-0.21336,1.17297
2.2577,0.6635,-0.8808,-1.2901,1.4787,-1.944,-0.17131,0.4455,1.35503
3.0736,-0.2486,0.1164,-0.1835,-0.9303,-0.8584,-0.48423,0.18337,0.99094
0.8441,-0.6523,-0.4863,-0.5058,-0.9048,2.1499,0.60629,0.45616,0.57215
0.2406,1.4075,1.0641,-1.4186,0.0617,2.9456,-0.17194,-0.19669,0.77204
2.8891,0.3941,-1.4392,0.5404,-0.6901,-0.9285,-0.72009,0.34075,1.03676
0.3909,0.0698,0.5133,-0.747,0.8709,-2.3598,0.25127,-0.05874,1.07357
1.2747,-0.1958,0.7462,1.5296,-0.858,1.9203,0.20626,0.16187,0.96647
1.0602,0.6193,-1.1766,-1.091,-0.3242,-3.0396,0.42277,0.44771,1.2782
1.2313,-0.093,1.1369,0.7275,-0.3946,-3.0955,0.16377,0.01312,0.86641
2.0928,-0.5993,0.8291,1.1843,0.5829,1.7534,-0.00853,0.31576,0.85334
1.4371,-0.0412,-1.2987,1.5208,-0.3671,0.646,0.26287,0.82878,0.7331
1.8977,0.189,-1.3322,-0.4895,1.3569,-0.549,-0.12296,0.82992,0.91354
2.1173,-1.5216,-0.3318,0.5486,1.2632,0.4906,-0.09541,0.44556,0.10065
2.9392,1.1497,-0.6656,1.3914,0.6211,1.6511,0.03652,0.14568,1.45754
1.7526,1.1155,0.6229,0.573,-0.2162,-0.9301,0.19084,-0.20819,1.00763
0.1261,1.1625,-0.4685,-0.5503,0.966,-1.7612,-0.06956,-0.16007,1.41304
1.0358,-0.1142,0.3614,0.8379,-1.2482,1.3105,0.30396,0.21858,1.04627
1.5643,-1.4773,0.4746,-1.3476,0.7901,-2.891,0.15274,0.41423,0.45713
0.0079,-0.934,0.3134,0.6574,1.5115,0.8737,0.52554,-0.1459,0.66414
1.1063,0.1582,1.3341,-1.0606,-1.1153,-1.6249,0.13305,-0.06943,0.79395
1.5376,0.4775,-0.3707,-0.99,-1.5253,-0.8004,0.16184,0.35248,1.30177
2.8286,-0.708,-0.0505,1.0041,-0.4155,-2.3597,-0.56248,0.33975,0.69049
1.971,-0.1897,0.9613,0.8228,0.7827,0.3152,0.08462,0.18511,0.91408
2.9357,0.4385,-1.5683,1.2963,0.9008,-1.4186,-0.74274,0.30841,1.02112
2.1908,0.827,1.3346,1.0818,-0.8071,-2.9323,0.16718,0.02407,0.76593
0.5746,-0.0071,0.3539,0.2115,1.0371,1.9676,0.33683,0.03933,1.08176
2.0937,0.0731,-1.5492,-0.7333,-1.1066,-0.7438,-0.3007,0.82212,0.72399
2.6877,0.7196,1.2496,0.0902,-1.3971,2.2896,0.13869,0.09929,0.80762
1.7202,0.7158,1.3757,-1.2199,-0.9676,0.5792,0.15714,-0.03586,0.75798
2.96,-0.562,-1.5211,0.9111,1.1102,1.5453,-0.69267,0.27974,0.21238
1.9414,-0.815,-1.2548,-0.9975,0.4471,-2.6635,-0.1012,0.67475,0.13314
1.8592,-0.0532,-0.7578,-0.5516,0.645,2.0611,-0.0718,0.76958,0.93156
1.0014,0.4236,0.731,1.3455,0.9365,-1.8336,0.1301,-0.07508,1.04246
1.0272,-1.43,1.2737,-0.1896,-0.08,1.0078,0.2049,0.04894,0.66768
1.5348,0.8794,1.0405,-1.0836,0.3508,0.9204,0.14501,-0.14269,0.87585
1.8727,-0.7859,0.9912,1.1737,0.4014,-1.5321,0.07279,0.27092,0.79322
2.9191,-1.1294,-0.1975,1.2393,1.1444,2.0078,-0.56028,0.2806,0.36599
1.0279,-0.0424,-1.2768,1.125,1.2621,2.3162,0.57001,0.65426,0.74136
3.056,1.0988,0.8723,-0.2812,-1.2944,1.4651,0.22131,0.13161,0.90684
0.109,0.2381,1.3839,1.3652,0.6003,0.7401,0.00374,-0.15054,0.77185
1.2968,0.739,-1.2081,-0.3283,-1.123,-1.7856,0.28853,0.47201,1.33865
0.6569,0.0879,0.1659,0.5252,0.9936,-0.7599,0.36195,0.08964,1.1328
0.7784,-0.0719,-0.2243,0.4068,-0.3772,1.0028,0.51559,0.29769,1.04788
1.9286,0.9787,1.4743,1.5627,-0.0172,-1.6653,0.15773,0.00658,0.70961
2.8625,1.2055,-1.502,0.0448,-1.4177,3.0757,-0.24689,0.22684,1.48217
1.7727,1.1147,0.5291,1.5513,-0.2355,2.8513,0.19552,-0.20694,1.04824
0.4248,-0.43,0.995,-0.4592,-0.7842,-0.3603,0.22443,-0.06317,0.86739
0.7975,1.1289,-0.917,-0.8393,-1.3623,3.018,0.18679,-0.02345,1.48856
1.7549,-0.6294,1.1766,-0.868,-1.262,-3.0018,0.12157,0.1668,0.79696
0.6423,-0.9684,1.3611,-1.4074,0.9379,1.4637,0.1685,-0.06134,0.72273
2.6121,0.6956,-0.0052,-1.216,-1.0619,-2.3766,0.01353,0.16594,1.29439
1.0259,-0.0578,-0.2893,0.9221,-0.9654,2.0078,0.43779,0.43281,1.04603
1.233,0.8599,0.0363,-0.1742,1.1825,-0.9849,0.12739,-0.09009,1.28459
0.0669,1.0789,-1.2881,1.0405,0.6624,2.6351,0.3228,-0.12876,1.47061
0.7884,1.2921,0.126,-1.0597,1.4207,-3.1301,-0.10853,-0.32202,1.17271
2.6734,-1.2029,0.1751,-0.954,-1.0931,-2.5756,-0.41014,0.37555,0.47466
0.7502,0.4044,0.418,-0.5245,-1.4446,-2.5002,0.17134,-0.04543,1.15043
3.1369,0.5552,1.2553,-0.9554,1.355,-0.473,0.05804,0.14978,0.81664
1.7733,1.1064,-0.4702,-1.1175,-0.0401,1.2588,0.1564,-0.01569,1.41728
0.0801,-1.0087,-1.0144,-1.2882,-1.3448,-0.7751,0.61969,-0.10079,0.09949
2.0041,0.6941,-0.8429,-1.3996,-0.2167,-0.7887,-0.03848,0.44054,1.37207
0.1946,-0.3927,-1.0126,-1.4666,1.4008,1.298,0.84156,0.01293,0.5577
1.0146,-0.7166,0.8951,1.0047,1.332,-0.5102,0.2694,0.14915,0.81676
2.3811,0.5619,-0.0626,-0.7766,0.9482,0.2265,-0.02443,0.23035,1.2907
0.7298,-0.4903,0.7121,1.0608,0.8934,1.3537,0.32791,0.09201,0.89419
2.8319,-1.1866,-1.0282,-0.4428,0.3235,0.4551,-0.42569,0.29376,-0.00398
1.4946,1.2275,-0.459,0.6529,1.0746,-1.4162,0.13894,-0.15121,1.40299
0.0699,0.7331,0.918,0.7827,0.954,1.0511,-0.10041,-0.15745,0.94638
1.3779,1.4497,0.9475,1.3626,-1.0118,-2.8072,0.09832,-0.27935,0.79663
0.3165,-0.4718,-1.5484,0.9218,-1.0537,-0.8378,0.77345,0.09542,0.26971
0.2761,0.9593,-0.5536,1.5202,-0.8742,-0.2819,0.13339,-0.11816,1.43014
2.6147,1.0226,1.3017,1.4501,-0.8897,-0.6296,0.16515,0.07752,0.75972
1.2809,0.6946,1.0003,-0.0352,1.1756,2.2619,0.11542,-0.13799,0.91491
2.8505,1.5273,0.6191,0.8765,0.1177,-2.2589,0.38265,0.042,0.8852
2.1233,0.8448,-0.3248,0.437,1.3141,1.9792,0.08063,0.15513,1.37956
2.9929,-0.1779,1.4056,-0.3421,0.6096,-2.9126,-0.00267,0.15212,0.75979
2.7143,-0.4247,0.733,0.4706,-1.1904,-2.9209,-0.19424,0.25332,0.91151
2.7757,1.2504,-1.1552,-1.3799,-0.0044,-2.8979,-0.05385,0.18132,1.51343
2.9036,-0.1705,-0.918,0.6235,1.4339,-1.1181,-0.75908,0.33855,0.78086
2.5744,0.451,-0.7505,-0.7391,-0.8895,2.8794,-0.37096,0.41422,1.26663
2.4038,-1.2928,-0.9665,1.3362,0.6738,-1.0784,-0.22393,0.40635,-0.03343
0.6675,0.3597,-0.7652,0.5229,-0.9853,-1.8944,0.55873,0.24933,1.2126
2.8913,-0.3176,1.4947,1.4459,0.571,-0.1932,0.01854,0.15014,0.72137
1.7596,1.2079,1.316,-1.2572,-0.4862,2.4397,0.16866,-0.08317,0.73525
2.3294,-0.9219,-0.1057,0.3967,0.9577,0.0418,-0.3321,0.56851,0.5336
2.2699,-0.4636,0.5004,-0.3299,0.8711,0.3851,-0.13653,0.39555,0.911
1.5947,-1.505,1.4866,1.5143,0.23,-3.1263,0.14865,0.0602,0.67232
0.2897,-1.0347,1.2396,-0.3982,1.3645,-3.0216,0.18908,-0.10021,0.72751
3.0067,0.5723,0.6104,1.2837,0.0897,-0.7691,0.04893,0.14479,1.08787
1.9571,-1.153,-0.8792,0.8428,-1.4491,2.3553,-0.06929,0.56861,0.06675
1.1168,1.2378,-1.4353,1.5475,0.9891,-1.2767,0.24264,0.15507,1.49933
0.5531,-1.2869,-1.1371,-0.3616,0.7755,1.6551,0.41033,0.07699,-0.08135
2.384,0.2291,1.2978,-1.1965,-0.9254,-0.9733,0.11036,0.10216,0.80912
1.0305,-1.5155,-0.571,0.8638,-1.4531,2.0401,0.32903,0.25683,0.01009
2.6718,0.1772,-0.8248,0.1279,0.2617,-1.9987,-0.55777,0.45146,1.08007
0.0888,1.3067,-1.0422,-1.3666,0.3076,-1.7628,0.03266,-0.14774,1.51075
2.3777,-1.4533,-1.2001,-0.4177,0.7504,1.6398,-0.06607,0.27107,-0.14787
0.1172,-1.2129,0.7702,1.4224,-1.235,2.6385,0.36969,-0.10756,0.64887
1.1144,0.7006,-1.4156,0.4668,-0.9687,1.3407,0.41169,0.49806,1.26294
0.1348,1.4561,0.4506,-0.4592,1.3767,-2.0217,-0.34147,-0.19773,0.97763
2.0975,-1.041,-0.7973,-0.6039,0.5424,0.6313,-0.18662,0.61943,0.16551
1.5596,1.0933,-0.4132,-1.312,1.2182,1.6033,0.1494,-0.059,1.40383
1.9946,0.3447,0.551,-0.0968,0.7898,1.4423,0.10305,0.13645,1.10345
0.7461,0.2778,0.2935,-1.3539,-1.567,-2.7533,0.24786,0.02478,1.16445
0.7522,-0.4245,-1.4019,1.3725,1.1977,-2.8115,0.69114,0.44121,0.36517
1.7681,0.2265,-1.1745,1.2828,-0.8549,-1.3382,-0.00642,0.79756,1.00418
2.9809,1.3357,-1.4066,-1.266,0.7024,-0.1951,-0.12546,0.17234,1.52103
2.4767,0.8002,0.7542,0.8358,1.2637,-0.8047,0.19538,0.03749,1.00902
3.0392,1.139,-0.845,0.8855,-0.2902,-2.1608,-0.05928,0.15693,1.48315
1.6379,0.1187,0.8181,0.2071,0.9058,0.0779,0.14348,0.10275,0.9951
2.5451,-1.0687,0.1178,-1.3978,1.2189,2.0576,-0.38816,0.44493,0.52766
2.8662,-0.3325,0.4601,-0.3853,-0.029,-2.3397,-0.31847,0.24592,0.96176
1.9491,-0.2987,-0.2471,-1.0146,0.2957,2.0148,-0.10218,0.66334,0.90329
1.8679,-1.0346,0.6141,1.2877,1.5181,0.896,0.02187,0.44112,0.68653
2.2202,1.3435,-0.5426,0.9133,1.1165,2.3717,0.2396,-0.06743,1.40766
0.9868,0.8049,-0.56,-1.0453,-0.9689,0.7588,0.24335,0.09607,1.40689
2.5721,0.4318,1.2624,-0.1962,-0.395,-1.946,0.11362,0.10542,0.81954
2.79,0.1081,0.1953,1.5147,0.7596,0.0105,-0.24841,0.25095,1.13656
0.8289,-0.7285,1.3185,-0.3655,-1.1802,2.465,0.17739,-0.02853,0.75445
2.2866,1.2294,1.2616,0.6128,-1.36,-3.1068,0.20057,-0.00197,0.74741
1.8922,-0.5769,-1.2786,-0.5996,1.5303,-1.5874,-0.10108,0.77857,0.29555
1.462,0.8583,1.1913,0.8188,0.4933,2.3693,0.13718,-0.12596,0.81767
2.9751,0.08,0.888,0.3066,0.4669,2.5616,-0.06017,0.16227,0.96787
0.2609,-1.1605,-0.2059,-0.1748,-1.2393,-0.9574,0.6176,0.00958,0.34364
2.4132,1.3993,0.2426,-0.8839,-0.721,-0.1985,0.36738,-0.12664,1.08687
0.3493,1.5588,-0.1993,1.4828,1.4346,-0.9081,-0.33648,-0.28225,1.21401
3.0257,-0.0088,-0.3786,0.7446,-1.3344,1.885,-0.59224,0.22001,1.06016
2.8113,-1.4113,-1.3291,0.752,0.8719,-1.3989,-0.15804,0.21281,-0.15993
2.3552,1.2233,0.0861,-1.0584,0.9044,1.7711,0.29329,-0.08146,1.20902
1.1264,0.5144,0.5686,-1.5382,-0.8382,0.0304,0.13719,-0.0609,1.10459
1.5045,0.3983,-0.675,-0.6154,0.7061,-2.7639,0.1852,0.52437,1.24913
0.7324,-0.2838,-0.7163,1.4027,0.921,-2.1148,0.68691,0.41591,0.76711
3.1335,-1.0743,-0.0779,-0.5537,-1.5149,-2.0536,-0.60722,0.15497,0.44914
0.4378,1.4099,-0.4347,1.4669,-1.4684,-1.6504,-0.18716,-0.25328,1.3571
2.3519,-0.6813,-1.018,-0.7203,0.3419,0.2617,-0.42927,0.64609,0.32441
0.1717,0.2898,0.8686,1.3989,0.6758,3.0624,0.05158,-0.14334,0.98689
1.2036,-1.1147,-1.527,0.2009,1.0624,0.0346,0.27623,0.30019,-0.10452
1.2678,-1.288,1.1723,-0.2207,-1.1367,0.349,0.20006,0.13705,0.68375
1.613,0.0285,0.8897,0.8912,-0.7598,-0.0956,0.14566,0.10712,0.96247
0.6242,0.9397,-1.2558,-1.1752,-1.5086,2.5058,0.419,0.11687,1.42455
0.8154,0.1113,-0.6075,-1.4928,1.4244,1.0249,0.55661,0.37219,1.08985
2.459,-1.3281,-0.5137,0.0795,-1.2139,-1.6786,-0.30447,0.4409,0.11753
2.3106,-0.8618,0.3348,1.4507,-1.4494,1.1029,-0.23693,0.48216,0.70709
0.2647,-0.5755,0.3247,0.5845,1.2537,1.291,0.5113,-0.01687,0.85007
1.5387,0.3841,-0.4945,-0.718,0.9689,-2.3977,0.16499,0.46303,1.26057
1.1174,-1.325,-1.1073,1.3736,0.3194,-0.4838,0.29735,0.2677,-0.08787
1.3105,-1.0206,0.467,-0.9636,-1.1953,-0.0298,0.26597,0.4156,0.66039
2.8422,1.0001,0.983,0.6723,-0.8946,0.4923,0.20716,0.09309,0.88077
0.57,1.2492,0.7876,0.3913,-0.2596,2.5051,-0.13657,-0.26577,0.90561
2.6612,-0.7651,-0.8429,-0.3735,1.4837,1.0003,-0.58886,0.47606,0.33641
1.5761,-1.4389,-0.1162,-0.5747,0.1519,-1.5217,0.14746,0.48964,0.23026
0.4251,0.4077,-1.153,0.9401,-0.4909,-2.5287,0.70338,0.15371,1.14659
1.7858,0.6402,-0.7873,1.2109,0.071,-0.2216,0.05493,0.45178,1.35393
1.0745,-0.1481,0.5776,-1.4696,0.8653,-1.1174,0.25848,0.16221,1.00915
2.5688,1.3869,-1.2233,1.5609,-0.4908,-2.3106,0.05724,0.14163,1.52569
2.0809,-1.2808,0.9965,0.8229,-0.2135,0.0275,0.00201,0.30372,0.66683
2.4956,-1.2196,0.6107,-1.2985,-1.2215,1.2776,-0.23879,0.36794,0.60897
0.5426,-0.1471,1.5523,-0.9117,-0.9466,-2.1393,0.08141,-0.12613,0.69974
2.8336,-0.4153,0.6152,-1.3845,-0.4041,-2.4221,-0.26827,0.2428,0.92485
2.1482,-0.9053,1.1436,0.329,-0.9959,1.6557,0.02506,0.23642,0.75656
0.7104,0.3653,-0.9258,-0.833,0.2261,-1.4277,0.59066,0.31017,1.18102
1.6684,1.2266,-1.0584,0.9734,1.0122,1.6241,0.14023,0.10761,1.50741
0.4818,1.4299,-0.424,-0.4608,0.2282,-0.5125,-0.1903,-0.26884,1.34765
1.238,0.9187,-0.6692,0.8657,-1.141,-0.8584,0.19902,0.11646,1.43847
1.4698,-0.3728,-0.3332,-0.307,-0.6591,-1.0622,0.21963,0.67905,0.82997
2.288,-0.9992,-0.5111,-0.5676,-0.0901,-0.2436,-0.32455,0.60043,0.31451
2.2372,1.4986,-0.8895,0.3577,-1.2752,2.6552,0.24112,-0.06386,1.46827
2.0541,1.2793,1.2849,-0.7403,0.3868,2.4327,0.19263,-0.04415,0.73469
2.703,0.7478,-0.6511,0.3044,-1.1012,-2.0159,-0.20345,0.26117,1.39721
0.2752,0.5176,-1.3341,0.6621,1.1968,2.1222,0.71811,0.04685,1.16638
2.4538,1.085,-0.4764,1.2808,-0.9495,-3.0574,0.11735,0.09778,1.41955
1.6688,-0.1701,0.4976,1.4027,1.2882,0.5682,0.1194,0.3191,1.01411
0.2465,1.032,0.5267,-1.2516,0.8788,-3.1067,-0.167,-0.19675,1.06798
2.5748,-0.1886,-0.5557,0.031,1.3668,-0.9752,-0.53663,0.5194,0.89474
0.5515,-0.8586,0.0586,0.4778,-0.7943,-2.1427,0.59484,0.18976,0.63126
1.1487,1.5106,1.4132,-0.3241,-0.7768,-2.6934,0.10118,-0.14097,0.68563
0.6481,0.5969,1.3866,-0.2248,0.9228,0.2048,0.05347,-0.14773,0.75994
0.7763,0.7127,-1.2055,0.9104,1.5693,1.9256,0.49675,0.2775,1.32499
0.0834,0.6864,1.4117,-0.7833,1.3983,1.3767,-0.03668,-0.15364,0.74574
0.9485,0.3145,-1.0438,-0.1275,0.7801,-0.7364,0.53781,0.49227,1.11384
2.0106,0.954,0.3742,-0.5665,1.5054,-1.0023,0.20581,-0.08497,1.1475
2.7196,-0.9008,0.0223,-0.9808,-0.0285,-2.6403,-0.49821,0.38816,0.59337
2.6065,0.7906,0.8088,-0.1078,-0.7811,-2.4936,0.18702,0.06357,0.98669
0.89,0.9126,-0.5002,-0.3542,-0.1945,1.9394,0.18562,-0.00923,1.41716
0.1807,-1.2358,-0.3139,-1.3012,0.5728,-2.6861,0.59171,-0.04443,0.25285
0.5575,-0.0195,1.1309,-0.1364,0.146,-1.2108,0.12494,-0.09893,0.87307
0.7416,1.5223,1.0297,-0.4003,0.3833,-3.0363,-0.07269,-0.27008,0.75551
0.2223,1.0231,0.4238,1.4603,-1.1698,-0.5486,-0.1631,-0.1907,1.11398
1.3367,-1.248,1.1201,1.5365,-1.5537,1.2172,0.19518,0.17159,0.68802
2.079,0.7243,1.4122,-0.216,1.3569,-2.4862,0.15639,0.02758,0.74363
1.1749,-0.2726,-0.9921,-1.5431,-0.8325,-2.1839,0.45995,0.71135,0.66634
0.0423,-0.4273,0.821,-1.5622,0.1306,0.2543,0.25221,-0.13951,0.89944
3.0428,-0.0469,1.5588,0.4782,-0.1868,0.1981,0.01334,0.14946,0.69727
0.9286,1.4637,-0.5643,-1.2293,1.5543,0.2324,-0.04713,-0.31353,1.38566
1.6925,1.027,0.5655,-1.3775,0.1729,-1.2084,0.17428,-0.18897,1.05227
3.0986,0.1034,0.9815,-1.3204,0.6338,2.6868,-0.05065,0.15237,0.936
1.5025,-0.4277,0.0151,-1.2224,-1.2092,-1.3934,0.1896,0.57305,0.88015
1.431,-0.629,1.4539,-0.3645,-0.6672,-3.0809,0.15497,0.02443,0.72573
0.8096,-0.2837,0.4285,-0.9812,1.4088,2.8615,0.36546,0.16606,0.98118
1.7921,1.2755,0.4112,-0.7106,-1.0793,-1.0766,0.21347,-0.2652,1.05517
2.8303,-1.1285,1.5089,-0.4731,0.8363,1.837,0.0047,0.15611,0.69005
2.1284,0.446,-0.8083,0.4978,-0.3157,2.0998,-0.16984,0.55592,1.25467
1.0218,-1.1476,-0.8009,-0.6443,1.4624,0.7508,0.42607,0.40897,0.10001
1.5753,-0.7623,-0.6763,0.2906,0.7264,-2.8491,0.1467,0.74368,0.41043
0.125,-1.4186,-0.129,-0.4597,1.0273,1.161,0.51244,-0.08684,0.23474
2.7201,-0.118,0.7775,-0.0001,0.2002,0.9208,-0.1031,0.21067,0.97468
1.802,0.4448,-1.2306,-0.3769,1.1447,-0.8453,-0.01654,0.72509,1.14847
1.2875,0.7328,-0.4942,0.3491,-0.0657,0.1872,0.21077,0.18718,1.38505
1.0108,0.4717,-1.3287,0.9164,0.7714,1.5979,0.51188,0.53399,1.1354
0.8276,0.6679,0.6594,-1.4202,-1.1412,2.1895,0.05963,-0.15687,1.06307
2.1536,1.4507,1.4342,-0.7264,0.7014,3.1233,0.16795,0.01785,0.68802
2.2427,-0.671,1.2553,1.4908,1.3562,1.2689,0.04465,0.18492,0.77471
2.8517,-0.6442,0.7872,-0.6127,-0.0057,-3.1254,-0.24825,0.23063,0.84279
1.2274,1.0668,-0.7427,-1.2999,0.2676,2.8446,0.17168,0.03447,1.46572
2.057,-0.831,-1.123,-1.1016,-0.328,-1.5278,-0.18695,0.67483,0.17263
2.6724,-0.9781,-0.7607,0.1029,-1.1736,-2.6838,-0.52398,0.43386,0.22146
1.6652,1.1771,-1.0075,-0.0045,-0.1298,-1.44,0.13875,0.12641,1.49963
1.8427,-0.8786,1.547,1.3152,-1.4753,-2.5224,0.13811,0.06334,0.69087
0.1033,-0.0554,-1.4731,-1.5699,0.1922,-0.3122,0.87428,-0.06022,0.6459
1.4898,0.199,-0.4364,-1.4832,-1.2428,0.4395,0.19362,0.53063,1.17211
2.7655,1.2071,0.7963,1.1644,1.419,-0.7052,0.28478,0.04887,0.91279
1.8695,-0.3986,0.0412,-0.8447,-1.2379,-0.2871,-0.02375,0.58703,0.90165
1.5876,0.4755,-0.4487,-0.5511,-0.4339,0.5284,0.14343,0.39509,1.30169
2.3377,0.8699,-0.4443,0.4565,0.6116,0.9498,0.02569,0.18958,1.4035
2.6167,-0.388,1.2857,-0.933,-1.0059,-2.878,0.01052,0.1673,0.79352
0.5771,-0.1398,0.3118,1.5036,0.2779,-2.2426,0.39503,0.07813,1.04056
2.2862,-0.5158,0.099,-0.3669,1.4594,-2.2926,-0.25995,0.52791,0.84547
2.8229,-1.3813,-1.5608,0.7556,0.133,-1.9283,-0.09259,0.18856,-0.1795
1.9094,1.1929,1.0876,0.2033,-0.3668,-0.6579,0.2018,-0.12131,0.8072
1.7735,-1.1187,0.1166,0.4808,1.0663,-1.432,0.03355,0.58207,0.49885
2.124,0.4851,-0.2351,-1.272,0.1055,-2.9128,-0.02723,0.32969,1.29658
2.4059,-0.7918,0.3164,1.4264,-0.4081,1.1529,-0.28411,0.45958,0.73918
1.7095,0.1177,1.4183,-1.2182,-0.1066,1.7091,0.14889,0.01875,0.75785
0.6123,1.4975,1.4304,0.6379,-0.7545,-1.3867,0.02095,-0.16865,0.6848
2.0467,0.565,-0.486,-1.2189,0.4428,-2.5791,-0.02736,0.38061,1.33508
0.273,0.9542,1.1793,0.8555,-0.1593,0.8939,-0.08122,-0.17856,0.81093
1.5562,-1.265,-0.6991,0.2566,-0.8255,1.7324,0.15764,0.5188,0.07583
1.9313,-1.1467,0.2532,1.2405,-1.4664,0.8161,-0.04546,0.54596,0.53307
2.5445,0.1402,0.1529,1.3775,-1.1762,-2.8077,-0.18212,0.30526,1.15142
0.2947,-1.0475,1.3077,-1.0926,-0.4045,2.9201,0.16254,-0.10747,0.7203
2.7739,-1.1487,1.3661,0.5444,-0.407,-0.3127,-0.04272,0.17726,0.70394
3.1382,-1.2373,-0.4518,-0.0456,0.3952,-1.721,-0.56722,0.15198,0.1927
3.0399,-1.323,0.3164,0.3133,-0.6751,2.0678,-0.46392,0.19817,0.46696
1.6414,-1.0668,-1.2219,0.2631,-0.4892,-3.0898,0.11296,0.52969,-0.00561
2.4867,0.2857,-0.0354,-1.2247,0.0463,0.6852,-0.16796,0.31818,1.2169
0.0139,-1.2953,-1.3634,-1.3255,-0.6425,-1.8186,0.30204,-0.14587,-0.13554
1.2138,-0.0874,-1.1206,-0.0632,-1.0828,-2.7776,0.4345,0.73559,0.7684
2.6404,-0.2774,-1.1849,-1.1206,-0.6641,-2.4317,-0.67052,0.53844,0.58016
0.4229,-1.4033,1.1116,-0.4903,-1.4723,0.8482,0.25819,-0.04834,0.65379
0.3405,-0.0135,1.2329,-1.2742,0.9885,-1.9292,0.08153,-0.1303,0.83369
1.32,-0.3152,-1.3519,1.4508,-1.1709,-1.3155,0.35342,0.77491,0.47624
1.5853,0.3941,1.0469,-1.1693,-0.1331,-0.7348,0.15042,-0.02466,0.91365
0.6448,1.3864,-0.4365,0.7692,0.0963,-3.1177,-0.11779,-0.27633,1.36403
2.007,1.3474,0.153,0.587,0.0563,1.735,0.27696,-0.239,1.14352
2.8996,-0.5706,-0.6288,-0.6261,-0.5008,-1.2874,-0.71464,0.33095,0.57639
0.1287,-1.4372,1.3223,-0.4773,1.494,-0.2309,0.14539,-0.13249,0.6705
2.8632,0.5302,-0.9556,-0.8933,0.9022,-1.2657,-0.50605,0.3007,1.27513
3.08,-1.2083,-1.3544,0.7821,1.1864,1.4585,-0.36242,0.17269,-0.10446
2.7022,0.1039,-1.3823,0.1968,-1.4019,0.4566,-0.70434,0.49687,0.82164
2.2955,-1.5347,0.6822,-0.886,-0.9371,1.9433,-0.12237,0.36455,0.5092
0.3611,-1.2361,-0.1618,1.0488,-1.1444,-2.9889,0.5869,0.06125,0.31828
1.466,0.9494,-0.4099,-0.3431,0.1637,-1.2924,0.15414,0.03103,1.40381
0.5807,1.3123,1.1772,0.8904,0.3187,-0.3128,-0.05797,-0.21751,0.7584
2.0678,-1.2423,-0.0256,-0.5356,-0.798,0.7566,-0.13392,0.5616,0.37254
2.6181,1.4614,-0.3768,-0.9797,-1.1947,-2.7866,0.3566,-0.03258,1.32076
2.4856,0.2173,-0.0129,0.7388,-1.2687,-1.5529,-0.1889,0.33475,1.19186
0.7378,-0.2328,1.5617,-1.239,1.3767,0.675,0.10521,-0.10714,0.69536
0.5064,1.121,0.1165,-0.5346,1.4039,-1.7675,-0.11406,-0.23485,1.22113
0.6805,-0.7722,0.0872,1.1117,0.396,-2.6581,0.5594,0.25977,0.69211
1.3971,1.3937,-1.4155,-1.5571,-1.1809,0.0187,0.16607,0.07825,1.52813
1.4173,1.0128,-1.2504,-0.4448,0.4018,-1.0412,0.2018,0.32294,1.45302
2.9299,-0.5588,-1.4582,1.4604,0.7657,-2.5918,-0.69868,0.30363,0.23825
1.7604,0.087,-0.0914,-0.9274,-0.3164,0.9881,0.0621,0.47254,1.14106
0.1379,-0.6822,0.8825,1.0492,-0.0329,2.8417,0.28721,-0.11163,0.82679
1.7493,1.3145,-1.0487,1.0074,1.4709,-0.0365,0.14489,0.04202,1.51149
2.6604,0.6854,0.7265,0.0787,0.9727,1.5781,0.14822,0.09188,1.03352
0.8157,1.5187,-0.594,0.3156,-1.4147,1.771,-0.10323,-0.32863,1.37923
2.1151,1.4126,0.7976,-1.22,-0.8974,0.4994,0.27884,-0.17089,0.85687
1.1034,0.3615,-1.3592,-1.2191,-0.2541,0.6102,0.48436,0.62669,1.04163
1.2075,1.4624,-0.6387,-0.8904,-0.4943,0.5133,0.04918,-0.29288,1.4094
2.7768,0.7632,0.8865,-0.6572,-0.3819,0.728,0.16566,0.09736,0.95651
1.0195,-1.556,1.0076,-0.1177,0.2892,1.8668,0.25815,0.13336,0.59798
2.1415,0.3732,-1.328,-1.4679,-0.739,0.0102,-0.28767,0.72587,1.06218
1.4555,-0.5741,1.5121,0.4699,-0.9952,0.2065,0.15209,0.00895,0.70907
1.5795,1.0949,0.2123,0.9024,1.1114,0.2423,0.1519,-0.21246,1.18776
2.1743,0.8688,-0.6373,-0.8761,-0.5904,-2.6394,0.01031,0.24943,1.42647
2.3683,-0.3695,0.3766,-0.732,0.8576,-1.1711,-0.19567,0.40067,0.94782
1.3609,0.8155,-0.9385,-0.6088,0.2462,0.0135,0.22367,0.32976,1.41226
2.3276,-1.3569,-0.5835,-1.2213,-0.8852,-2.9464,-0.22526,0.45706,0.07496
1.4146,0.4513,-1.3995,0.4204,0.196,-3.0756,0.26508,0.7187,1.09546
2.9139,0.604,-0.6834,-1.3733,1.0929,-1.2378,-0.36544,0.2387,1.3459
2.3475,0.9482,-1.122,-1.1009,-0.719,-2.2114,-0.13583,0.35228,1.44439
2.4893,-0.8818,0.5357,1.4898,0.0645,1.5474,-0.25866,0.38639,0.73784
1.9014,0.9818,-0.3274,1.4747,-0.1524,2.0054,0.14415,0.04223,1.38582
3.0619,-0.0502,1.2799,1.0647,1.1274,0.9578,-0.01908,0.15205,0.81374
2.3524,0.7589,-0.9034,-0.0727,0.3793,2.9979,-0.17215,0.38647,1.39334
0.4489,1.5006,0.3806,-1.1007,-1.3848,3.0405,-0.28361,-0.30317,0.99001
2.35,0.259,-1.2248,-0.169,-0.5697,-2.77,-0.44424,0.66331,1.01131
2.0213,1.1058,0.9544,-1.1677,-0.8324,-2.1872,0.22087,-0.11204,0.87271
2.8395,1.2894,-1.2834,-0.2217,-0.1478,-1.2451,-0.08674,0.1842,1.51856
2.1168,-1.0593,1.5145,0.1332,-0.6719,-0.4197,0.10759,0.11189,0.69205
0.6749,-0.827,0.1038,-0.025,1.4754,1.5475,0.55702,0.25358,0.66435
2.0604,-0.5753,-0.4769,-1.1101,1.5693,-2.7823,-0.21905,0.73014,0.63329
2.5384,0.7351,-0.4373,-0.7046,0.5606,0.0639,-0.09029,0.2444,1.38017
2.5262,-0.4115,-0.4187,-0.1697,1.3199,2.997,-0.50795,0.54287,0.77548
2.644,1.097,0.6783,0.8752,0.7149,-1.6647,0.27365,0.02212,0.98825
1.9461,0.6947,-1.2643,-0.5421,0.0453,0.3227,-0.07362,0.5962,1.30093
0.4915,-0.1832,-1.2418,-0.6796,-0.0847,-2.4139,0.82438,0.27111,0.63581
1.8139,-0.208,0.1536,-0.4351,-1.0295,-0.8809,0.03341,0.48865,1.01272
0.6617,-0.7039,-0.6252,-1.0226,1.3369,-1.3927,0.6865,0.34448,0.47601
0.2974,-0.6058,-0.5945,1.3409,0.0641,-1.9514,0.77521,0.08065,0.56338
1.1714,1.1895,-1.4915,1.0881,-1.1595,-0.4753,0.2582,0.22587,1.47884
2.4139,0.9682,0.797,0.0892,0.6656,-1.2442,0.23634,-0.00958,0.96408
2.2854,1.0347,1.2029,-1.362,-1.3903,-1.2682,0.19939,-0.00085,0.79195
0.5302,-1.3485,-0.77,0.1355,0.8391,-2.0694,0.46692,0.09977,0.00847
1.3625,-1.0637,0.679,0.8669,1.0373,0.6771,0.22757,0.35109,0.68699
2.4105,-0.2498,1.12,-0.8151,1.2548,-1.9458,0.02471,0.1794,0.85897
2.16,0.1364,0.8019,1.1994,-0.9747,-0.2255,0.07389,0.15947,1.00218
3.0958,1.5172,0.4292,0.7659,-0.7764,-3.1082,0.39248,0.13222,0.9635
1.9526,0.3746,0.8703,1.0401,-0.1722,1.6748,0.13951,0.05524,0.9873
1.9878,0.9856,0.648,-0.2805,-0.9901,1.5652,0.21565,-0.11634,1.02494
2.1167,0.5019,0.2836,-0.0178,0.4645,1.6745,0.08279,0.15272,1.19922
0.4909,1.15,0.1327,0.4234,-0.4474,-2.1399,-0.13374,-0.24163,1.20811
1.5976,0.5783,1.4954,-0.313,-1.0655,-0.5752,0.15071,-0.0225,0.71752
1.8432,0.168,-0.9963,-0.4676,-1.1248,-2.5683,-0.05931,0.77003,1.02103
0.103,1.34,-0.9658,-0.6994,-0.9887,1.733,-0.02452,-0.15338,1.50152
0.4228,-0.4522,-0.4361,0.3917,0.4381,2.6417,0.73301,0.16527,0.73975
1.4007,-0.6356,-0.528,0.9939,-0.8596,1.2978,0.27518,0.71576,0.56786
1.4877,-0.4454,0.7053,0.0995,-1.3523,-1.4255,0.17429,0.28484,0.90832
2.5792,-0.5232,0.5622,0.1006,0.4463,1.0232,-0.23934,0.32822,0.88834
1.994,0.3329,0.668,-0.7333,0.4682,-1.7636,0.11402,0.11222,1.063
1.5,-0.1922,0.625,-0.5936,1.4514,-0.9048,0.16815,0.24991,0.98985
2.8291,-0.4643,-1.5507,0.6129,0.6098,0.1437,-0.68397,0.37866,0.27458
0.9066,-0.8652,0.8033,0.3274,0.5033,-1.9113,0.31972,0.16498,0.77285
1.1801,-0.261,1.3005,0.0302,-0.5068,1.7843,0.15976,-0.00612,0.79668
1.136,-1.1503,-0.6401,-0.7799,0.0675,-2.2673,0.38599,0.47487,0.16377
1.5944,1.3219,-0.3074,-0.1271,-0.6541,0.9418,0.1559,-0.24599,1.33557
0.5621,-1.0289,-0.9971,-0.4339,0.2375,-2.9708,0.58902,0.19367,0.09382
1.9465,1.4431,-1.1396,-1.4383,-1.0929,1.5974,0.15965,0.00418,1.51825
1.3663,-0.9807,-1.3097,-1.4479,-0.3278,1.8532,0.25895,0.50967,0.01319
1.6319,-1.1167,-0.1069,1.3142,-1.3861,-1.7244,0.11299,0.61039,0.41163
2.1014,-0.0099,-0.7423,0.6084,1.1731,-2.5069,-0.24589,0.71559,0.96898
1.1349,1.3242,1.1492,-1.3584,0.4893,2.9467,0.06084,-0.22476,0.76421
1.1786,1.149,0.5198,-0.2499,0.0422,1.1016,0.04122,-0.29293,1.04374
2.6868,-1.2634,-0.5611,-1.4429,-0.2686,-1.6383,-0.42237,0.37356,0.13224
2.192,0.0916,-0.5904,0.2359,0.0955,2.2442,-0.25884,0.61946,1.0808
2.4158,0.7631,-0.4351,-0.5532,-1.4441,1.1999,-0.04415,0.23978,1.38559
2.6185,0.2836,0.2729,1.3273,0.1545,-0.8851,-0.10151,0.23175,1.17002
1.303,0.0589,-0.9484,1.4628,-0.796,0.2821,0.35089,0.71176,0.95343
2.7347,-1.4722,-0.1892,-1.2121,0.7854,0.2297,-0.37288,0.32408,0.18284
0.2179,1.5133,1.1598,1.3739,0.7609,-1.9105,-0.15139,-0.1872,0.72681
2.843,0.8535,-0.0947,1.4148,-1.5507,1.5375,0.04273,0.14384,1.32454
0.4356,-1.3479,-1.0153,0.6964,0.611,-1.5886,0.41162,0.02607,-0.071
1.4369,-1.3127,0.9341,0.2859,-1.1867,-0.8215,0.18724,0.26606,0.64805
1.2308,0.4356,-0.1936,0.2083,-0.8389,-0.1327,0.24408,0.24005,1.27811
0.8666,-1.2192,0.1365,1.5043,-0.2031,-2.1052,0.46371,0.31411,0.45101
2.3252,0.8128,-0.5362,-0.9588,1.1854,-0.2307,-0.02658,0.24737,1.40634
2.3545,-0.3634,-1.3429,0.3438,0.1845,-0.8573,-0.4787,0.69289,0.4399
0.2953,0.2535,1.1918,1.293,-1.1522,-2.3518,0.03615,-0.14584,0.85431
1.1036,0.5409,-0.5901,0.4363,-1.2075,0.8008,0.31938,0.29997,1.32445
0.0714,0.7358,0.6666,-0.4016,0.3748,2.9893,-0.09123,-0.15696,1.05403
1.4008,-0.2751,0.8893,0.3126,-1.5129,-2.7693,0.1789,0.15528,0.91912
1.0771,-0.3811,-1.5068,0.2946,0.3852,2.5984,0.5135,0.63756,0.3573
1.4697,-0.5069,1.4764,-0.3927,0.627,-2.1342,0.15261,0.01761,0.72322
2.7065,0.2039,0.166,-0.3742,0.2526,0.499,-0.19582,0.25648,1.1692
0.5858,0.1938,-1.1084,0.671,0.3844,1.2514,0.73143,0.30522,1.00235
2.1452,-1.1222,-1.1594,-1.5486,-0.5497,-2.5152,-0.14638,0.50234,-0.01436
2.241,1.3617,1.0697,0.6216,1.0059,-1.0537,0.24635,-0.06925,0.78005
0.675,-1.0533,-0.0049,-0.212,-0.9286,-0.9869,0.56209,0.25771,0.49065
2.3104,-0.9748,-1.517,0.2685,-0.8739,1.7572,-0.2177,0.46124,-0.04161
2.6078,0.1909,-0.3841,1.546,0.2498,0.8506,-0.37715,0.3972,1.17363
0.7514,-0.2096,1.4431,1.4469,0.4094,-1.1891,0.11822,-0.0949,0.74404
0.4966,-0.4964,1.5638,-0.1681,-1.3031,-2.25,0.08137,-0.12657,0.69226
1.6517,-0.7905,0.9775,-1.1579,0.6071,-1.3708,0.12989,0.25477,0.79299
2.0024,-1.3938,1.5704,-1.259,1.1976,0.4186,0.12786,0.08107,0.67543
1.6907,-0.3993,0.8284,-0.9709,1.2798,0.0584,0.12067,0.25289,0.90506
0.1923,0.0684,-1.0556,-0.9721,0.3509,-1.4904,0.8162,0.00605,0.92234
2.1748,-0.8673,0.4075,-1.0409,1.0294,1.4638,-0.1543,0.48781,0.72049
2.9886,-0.3088,1.127,-0.5228,1.1495,0.3299,-0.08592,0.16507,0.85057
0.3167,0.0499,1.4803,-0.1806,-0.5809,-0.8348,0.04734,-0.14239,0.73118
0.401,0.1951,-0.8951,0.8806,-0.0484,-1.7983,0.71897,0.14185,1.07272
2.853,1.0931,-1.2208,-0.8651,-0.0838,-2.5679,-0.21962,0.22172,1.48099
1.8796,0.2721,-0.6518,1.4005,0.9895,2.7022,-0.03782,0.61228,1.1814
1.9124,0.1831,0.474,0.1051,-0.8113,-2.0991,0.08212,0.21695,1.10474
3.0299,-1.3974,-0.8183,1.2391,0.3154,1.6472,-0.38811,0.19452,-0.02928
1.4167,-0.31,-0.3522,-0.405,1.2801,2.3875,0.2546,0.66148,0.86816
1.4924,-0.8169,0.6037,0.8964,-1.1911,2.9345,0.18145,0.39376,0.77476
1.685,-1.2474,-0.7411,-1.4826,-0.7727,-0.4699,0.0894,0.53735,0.06869
2.5541,-0.4151,-0.6186,-0.438,1.2689,1.5416,-0.56315,0.5553,0.70118
2.3205,0.9206,-0.5836,1.3678,1.026,-1.3269,0.01594,0.20308,1.42975
1.9457,-0.3971,-1.0776,-0.2569,0.1811,1.2498,-0.16429,0.82726,0.52606
2.4376,0.3243,1.2897,-0.2742,-0.8568,0.935,0.11464,0.0995,0.81105
1.5921,0.9158,-0.2055,-1.5278,-1.4455,-0.4638,0.15008,0.00006,1.35488
1.2594,0.2243,-0.8184,0.255,0.9974,1.5007,0.35103,0.60086,1.11432
1.3465,0.3127,0.2176,-0.0008,-0.102,-0.3911,0.19299,0.17134,1.18743
2.5293,1.2518,1.2184,-0.0623,0.4569,-1.6225,0.20824,0.0371,0.75639
0.21,0.9956,0.7058,-1.3519,0.0521,2.1886,-0.16028,-0.18758,0.99804
0.1915,-1.5118,-0.3275,-1.5039,-0.4624,1.7938,0.45698,-0.06425,0.10666
2.5314,1.1209,0.4167,0.4784,-0.2303,2.9486,0.28522,-0.01634,1.09528
2.8627,0.9763,-1.172,0.4912,1.4965,-1.2812,-0.29106,0.23943,1.44916
0.7377,-0.4121,0.1809,-0.5127,1.0675,-3.1263,0.48155,0.23491,0.91454
2.3975,0.8902,-1.1261,1.1171,0.6825,0.6862,-0.18704,0.37615,1.42252
2.3668,-1.1588,-1.07,0.5075,-0.9597,-2.9914,-0.25384,0.4585,-0.00396
0.0542,-0.2688,-0.0944,0.033,0.4906,1.8122,0.59594,-0.11794,0.95357
2.347,-1.111,0.2102,-0.2983,-1.3354,-0.9907,-0.27312,0.49237,0.5371
1.4355,-0.2731,0.5741,-1.2506,1.4971,1.8624,0.19011,0.28412,0.97377
1.8752,-0.785,0.6485,-1.4964,0.6648,-2.9893,0.02796,0.41162,0.79164
1.7223,-0.9385,1.4301,-1.2324,-1.2873,0.5939,0.13788,0.09112,0.71376
1.9273,1.4171,-0.3489,1.5673,-0.8051,2.218,0.24619,-0.23113,1.32433
0.4138,0.9813,-0.456,-0.3386,-0.5925,2.8045,0.09795,-0.12087,1.41451
0.7277,-0.4447,-0.6167,1.1775,0.7074,-1.9446,0.67976,0.40457,0.67892
3.0773,-0.519,0.8413,-1.007,-1.0409,-0.7753,-0.24725,0.16628,0.87365
1.0843,-1.351,-1.5313,0.6388,-1.436,0.766,0.21924,0.09359,-0.17215
1.6372,-0.0234,1.1825,0.9628,-0.4097,-0.3717,0.14679,0.05394,0.85312
0.5311,0.1579,0.3118,-1.0156,1.5141,2.7225,0.29077,-0.00322,1.13395
1.6305,0.7477,-0.3084,-1.0255,-0.4589,-2.2873,0.14075,0.16003,1.36487
2.4019,1.5501,-1.3921,1.356,1.1268,-2.748,0.12992,0.08458,1.53315
3.1325,0.9929,-1.0022,-0.1346,0.8146,-2.6481,-0.25882,0.15241,1.4651
0.2451,1.0993,-1.435,-1.5144,-0.1839,2.56,0.38327,-0.05881,1.45753
1.9722,-1.0376,-0.0626,-0.7551,0.5346,-0.8455,-0.1016,0.6234,0.47766
1.6213,1.4403,-0.1147,1.1293,0.6534,0.9411,0.16792,-0.34974,1.22447
1.4109,-1.3869,1.4571,0.9737,0.262,-0.5025,0.15911,0.04415,0.67947
0.0449,-0.8742,-1.0725,-0.4819,0.1304,-1.0772,0.6773,-0.11977,0.16322
1.4324,1.2046,1.4741,-0.616,-0.3327,2.1533,0.14084,-0.07653,0.69771
0.0868,0.5782,-0.5551,1.1291,-1.0651,-0.0769,0.38354,-0.11724,1.33997
2.1775,0.6731,1.3853,1.0196,1.2538,-1.8321,0.1537,0.04171,0.75665
1.4295,-0.7341,0.6312,-1.0761,0.1303,1.6692,0.20279,0.36016,0.80999
2.7615,1.0233,0.9253,-1.2659,0.3048,1.4093,0.2266,0.07105,0.9001
0.0962,-0.9211,-0.8969,-1.3144,-1.3528,-1.8373,0.68621,-0.08453,0.20266
1.8271,-1.3984,1.3515,0.4176,-0.6242,2.4067,0.1161,0.14889,0.6768
0.6207,-1.5022,-0.0966,-1.1383,-1.5003,2.8063,0.462,0.14586,0.20866
2.6035,-0.5034,0.7774,-0.3501,-0.2548,2.4421,-0.16434,0.27283,0.88471
1.4665,0.8781,-1.5448,1.2826,1.5099,-0.9182,0.2074,0.54007,1.3309
2.9416,1.1523,-0.2527,0.5783,0.3711,1.8362,0.17685,0.11725,1.35081
0.0554,-1.3048,1.4693,0.0375,-0.5271,2.4754,0.07103,-0.14634,0.68451
2.0229,0.8105,-0.7287,1.1664,-0.5487,0.9552,0.01155,0.31969,1.41674
1.3739,-0.044,0.1388,0.7509,-0.3643,2.4107,0.2275,0.37343,1.08462
2.1681,-0.7973,-1.0244,0.9254,0.5321,2.3172,-0.27801,0.67552,0.23602
1.6052,-1.1811,0.282,-0.9591,0.5202,-1.2574,0.13226,0.51953,0.52523
1.9614,-0.4074,0.5852,-0.749,-0.8724,-2.1917,0.00927,0.37159,0.92932
0.0051,-1.3018,1.5083,0.0297,1.5641,-2.3175,0.04686,-0.14981,0.68235
1.8542,0.0804,1.0179,0.6879,1.1487,0.5891,0.12864,0.09491,0.9211
2.7553,1.3702,0.8511,1.4602,0.9288,-2.8515,0.30652,0.03732,0.84963
1.6397,-0.7643,-0.7729,-0.5636,-1.3162,-0.2498,0.09847,0.75251,0.36723
3.0625,-1.0622,-1.4598,-1.2077,-0.9508,-0.886,-0.43124,0.1847,-0.06864
1.6591,-1.0575,-0.5099,1.2117,0.0722,2.6939,0.09268,0.65463,0.27684
0.9244,-0.408,-0.6138,1.1165,-0.5373,1.3774,0.58675,0.52851,0.70851
0.2891,-0.9804,1.3303,0.9447,-0.5818,-2.6302,0.14958,-0.11206,0.72572
1.9313,0.2275,-0.1409,0.1242,-1.3288,-1.5749,-0.00195,0.43054,1.20116
0.8757,0.6811,-1.1441,0.9841,0.7555,-1.4539,0.46523,0.32359,1.32098
2.8854,-1.1674,-1.1468,0.2367,-0.9609,0.8532,-0.42016,0.26517,-0.0325
1.0205,-1.295,-1.3564,-0.3909,0.7976,0.6224,0.28633,0.17977,-0.13416
0.8162,-0.1656,0.7213,0.9973,-0.3182,-2.812,0.25683,0.05411,0.97819
2.8723,-0.2811,-0.5775,-0.8269,-1.0652,-1.3216,-0.68783,0.3455,0.81886
0.9206,-0.8686,-1.1572,0.2561,0.0285,1.7523,0.51766,0.43279,0.13419
0.8627,0.6903,0.689,0.8657,-0.8718,0.559,0.05733,-0.16375,1.0489
0.747,-0.3116,-0.357,-1.4855,0.5043,2.3942,0.6116,0.36185,0.86569
2.5746,0.6749,-1.4081,-0.2696,-1.3519,-1.027,-0.46028,0.47096,1.24888
1.2415,-0.0515,-0.9939,-0.6944,0.045,-1.4914,0.40553,0.72266,0.84861
1.7679,1.271,-0.5344,-0.0769,-1.4528,-1.3221,0.17603,-0.11527,1.41787
2.2939,0.3649,1.0953,1.444,0.5178,2.9968,0.12809,0.08163,0.89375
2.5919,-0.6045,1.554,1.3729,0.8651,0.5798,0.06476,0.1363,0.69427
2.6174,1.2297,0.464,0.4475,-0.8018,-1.6923,0.32321,-0.01354,1.04596
2.7301,0.5047,-0.2901,1.5271,1.1209,-0.2027,-0.2203,0.25985,1.30684
0.6971,-0.6573,-0.7051,0.1252,0.9388,-2.822,0.68554,0.37832,0.47748
1.7855,-0.108,-1.3604,0.3528,1.4419,3.0782,-0.03682,0.8731,0.64923
1.465,-0.3354,0.1852,-0.1836,-0.1781,-0.0766,0.20121,0.47383,0.95361
2.3029,1.2945,-0.9826,-1.0281,-1.0642,0.5963,0.10852,0.10373,1.50445
1.8824,-0.6781,0.1529,-0.8359,-0.0245,-2.0827,-0.03203,0.58887,0.76438
1.064,1.1525,0.2134,-0.7147,0.1715,-2.2066,0.01313,-0.2855,1.17413
1.9771,0.3974,1.2256,-0.7399,1.5018,-2.572,0.15132,0.02796,0.83669
3.1332,-1.5053,-0.5991,-0.7084,-0.6373,2.4352,-0.38843,0.15332,0.00385
0.1678,-0.3816,-1.2026,0.7258,-0.8737,0.0038,0.8456,-0.00895,0.48494
1.5559,-0.8403,-1.4509,1.2281,0.1927,-2.1149,0.15896,0.59694,0.0501
2.6182,-0.5176,0.8443,1.0578,0.0831,-1.4393,-0.14664,0.25786,0.87365
0.366,-0.0016,-1.362,-1.0366,0.9268,-0.0637,0.85538,0.16715,0.7401
2.8521,-1.4164,1.2702,0.8403,0.1947,-1.2502,-0.10034,0.18645,0.6694
2.0608,0.8853,0.7602,1.0726,0.7974,3.0222,0.20711,-0.06946,0.9941
2.9534,1.0356,0.8825,0.8692,-1.21,-1.5371,0.21738,0.11135,0.91537
1.5306,-0.655,1.3975,-1.2546,1.4108,3.003,0.15256,0.05936,0.74066
0.3346,-1.3387,-0.6382,0.4455,-1.3098,-1.4235,0.5102,0.01852,0.06238
0.0031,1.5345,0.5276,1.3091,-0.0247,0.9026,-0.37417,-0.15121,0.91753
2.7993,1.2006,1.0356,0.9214,0.5189,2.9578,0.23499,0.07556,0.82376
1.1488,-0.0878,0.0354,-1.2792,-1.3182,0.6725,0.33063,0.37007,1.06411
1.8981,0.9193,0.6511,0.7887,0.1937,-2.9771,0.19672,-0.1127,1.03566
1.7854,0.9452,0.4812,0.3585,-0.3806,0.5551,0.18314,-0.13564,1.10408
0.8013,1.3125,-0.1921,-0.7992,0.7928,0.728,-0.07981,-0.29805,1.29555
1.1437,-1.3394,-1.1929,-0.418,-0.7028,0.9577,0.27306,0.23774,-0.11418
2.2634,-0.0289,-0.2943,0.5083,0.5043,1.7454,-0.25999,0.54834,1.06235
1.7404,-1.2975,-0.7684,1.54,-1.0491,-2.488,0.06572,0.50519,0.03304
2.3667,0.7856,1.2277,-0.9189,-0.4087,2.1876,0.17188,0.0417,0.81067
1.3869,-1.0089,1.4683,1.2199,-0.6342,-1.4034,0.1579,0.02839,0.70245
0.0509,-0.7688,-0.8312,1.1529,1.5449,1.3907,0.74805,-0.11214,0.33871
2.3045,-1.1357,-0.6878,-0.5937,0.4056,-1.4049,-0.28699,0.54239,0.15265
2.1885,-0.4366,0.4965,1.1936,0.6483,1.2007,-0.10107,0.40134,0.92148
2.918,-1.189,-0.69,-0.2548,0.7616,-2.145,-0.51881,0.27186,0.12079
1.1321,-0.0835,0.2958,1.3633,-1.1862,-2.3319,0.2884,0.26141,1.0622
0.8819,-1.0314,-0.0941,-0.3678,0.7739,-1.9413,0.51009,0.38339,0.469
0.6705,0.5982,-0.7707,1.4761,-0.0242,-2.1883,0.44655,0.16263,1.33691
0.9057,0.1057,0.9955,-1.0558,0.3598,-0.4147,0.1511,-0.05049,0.93089
2.7933,-1.3472,-0.5376,-0.7271,0.9984,-2.1676,-0.41892,0.31174,0.0981
2.5243,0.9057,0.0496,0.4983,-0.6868,-2.0153,0.14749,0.07932,1.27748
2.4062,0.2559,0.0075,-0.0368,-0.1731,-2.0999,-0.14028,0.32925,1.20332
0.6851,0.213,0.0613,-1.2992,-0.0547,-1.1447,0.34632,0.08921,1.18427
0.5442,-0.8701,1.4783,1.452,-0.7104,2.9383,0.11904,-0.10335,0.70773
2.0516,1.1834,0.7023,-0.5026,-1.0762,-1.8635,0.25039,-0.15557,0.95719
1.7233,-0.8093,1.0174,-0.4699,0.5416,-1.0961,0.11358,0.24874,0.78597
0.4924,0.5022,1.445,-1.4557,0.338,-3.0924,0.04402,-0.14667,0.73984
3.0096,-0.4584,0.474,-0.7297,0.7671,-0.5953,-0.37755,0.20149,0.91282
0.0345,-0.79,0.8289,-1.0261,0.7125,-1.0066,0.31241,-0.13936,0.79736
0.7436,-0.5608,-0.8888,-0.8878,0.2491,-1.8668,0.68801,0.42891,0.47422
1.0126,-0.4513,-0.1001,-0.5578,-0.7065,3.0934,0.46206,0.45666,0.84068
1.797,-0.2653,0.8258,-0.0871,0.9787,0.033,0.1004,0.23279,0.93513
0.0415,-0.8689,-1.3054,-0.1691,0.634,3.0215,0.62849,-0.12408,0.08033
0.1638,1.4949,-0.403,0.4122,-0.3314,-0.9527,-0.31209,-0.20367,1.31938
0.6874,1.0484,1.3392,-1.5567,-0.5825,2.8014,0.02183,-0.17621,0.74517
0.8165,1.3187,1.4162,-0.2715,1.2455,2.4524,0.05337,-0.16232,0.70143
1.4267,1.4124,-0.4782,1.3136,0.2745,-3.0307,0.11015,-0.28582,1.37124
2.8318,0.6627,-0.5726,-0.375,-0.9856,1.2009,-0.26071,0.241,1.36937
0.4557,-0.313,1.4422,1.1733,1.024,0.7256,0.09218,-0.12192,0.74177
1.949,-1.5332,-0.2254,-0.3197,1.2669,3.0412,-0.02179,0.4612,0.13977
1.0098,1.052,1.3151,0.8538,-1.0393,0.7738,0.07258,-0.16653,0.75237
1.604,-0.4328,-0.1996,-0.422,0.7485,2.8809,0.12794,0.6682,0.82702
2.3068,0.5122,-1.4607,0.2334,-0.8782,1.0703,-0.38495,0.6485,1.11866
0.5127,-0.339,-0.044,1.4672,-0.7624,1.0587,0.5855,0.15739,0.92117
2.405,0.7578,0.7752,-0.7136,-1.1325,-1.6463,0.18753,0.0325,1.00522
0.0967,1.4272,0.9149,0.9214,-0.1875,-0.463,-0.24625,-0.17464,0.81275
2.2673,-0.6889,0.7919,0.3128,0.5282,-1.2081,-0.08321,0.33339,0.82894
0.3852,-1.2153,0.3347,0.1552,-1.4099,0.4101,0.51621,0.04738,0.5263
2.6552,0.1215,1.5,0.2571,-0.7455,0.5549,0.07337,0.13094,0.72255
2.4215,0.048,-0.6984,1.0927,0.1565,0.4909,-0.43397,0.5803,1.0239
0.9144,-1.0907,-1.5337,1.4146,1.0521,3.0418,0.3601,0.22158,-0.09652
2.5028,0.1692,-1.027,1.0074,1.4808,-1.7597,-0.52511,0.57689,1.01163
1.579,1.4719,0.2892,0.834,1.1354,-0.1842,0.15321,-0.38397,1.03978
0.5455,-0.6835,-0.4736,-0.7853,-0.5365,-0.6109,0.70903,0.25481,0.55414
1.4102,1.0594,1.4228,0.7942,1.3335,-0.9919,0.13704,-0.09236,0.71954
0.4961,-1.4136,0.2272,-0.6769,1.1418,-1.2217,0.4896,0.09438,0.38846
1.4666,-0.7035,0.4154,0.193,0.5134,3.047,0.19827,0.45327,0.80074
0.9084,0.9825,-1.4645,-0.5512,0.7898,-1.7198,0.39985,0.26868,1.40423
2.9836,-0.4482,-0.1513,0.409,-0.6647,1.6511,-0.61785,0.25038,0.82976
0.7341,1.4094,-1.1873,1.1976,-0.3438,-0.9401,0.09612,-0.11537,1.52368
1.3742,1.3438,-0.7606,0.2844,-0.9127,1.7157,0.123,-0.1506,1.46416
1.0811,-1.5256,1.1966,1.3085,1.5696,2.5612,0.21625,0.08671,0.64255
0.2783,-1.4507,-1.0406,0.3962,0.1267,-0.5116,0.32679,-0.06269,-0.11282
0.3575,-1.026,-0.6064,0.9678,-0.0909,-1.7365,0.6647,0.08812,0.2557
0.0935,-1.0714,0.2303,0.6604,-0.7607,1.9263,0.55381,-0.09878,0.56549
1.4688,1.2611,-0.0951,0.7985,0.793,2.7297,0.12307,-0.27125,1.2718
1.3529,1.5671,-1.5525,0.9758,-0.0991,2.7315,0.14987,-0.01722,1.53568
0.0319,-1.3533,0.0604,-1.0533,0.3578,-2.4896,0.5185,-0.13358,0.34914
1.8373,0.7957,0.1402,-0.6168,-0.4374,2.5923,0.15356,0.00725,1.25273
0.9334,-1.1778,-0.6129,-1.3306,-0.558,0.0497,0.46714,0.3787,0.15895
2.9967,0.151,-0.8431,-1.2001,-0.5331,2.1057,-0.68888,0.25216,1.05628
1.1701,0.9587,1.3998,1.2407,-0.4699,0.6793,0.11051,-0.12382,0.73352
1.8081,0.6019,-0.9426,0.0983,-1.3051,-2.2652,0.02376,0.54005,1.31652
2.7979,-1.4494,0.6606,0.3328,1.1081,-2.7385,-0.30059,0.26695,0.53309
1.3851,0.7457,0.5368,-0.1244,0.1573,-0.6434,0.13067,-0.11714,1.10703
1.84,-1.4608,0.1878,-0.4573,1.1285,2.6277,0.02067,0.48927,0.34993
1.2772,-0.3554,-1.5254,-0.8736,-0.613,-3.1382,0.37799,0.73176,0.37052
0.2071,1.2518,-0.3967,-0.4057,0.199,-1.2493,-0.14248,-0.18326,1.38049
0.0481,-1.269,1.324,-0.3894,-0.9073,-2.1293,0.13195,-0.14387,0.69181
2.5536,-0.2514,-0.3265,-0.216,-0.7002,3.0434,-0.47517,0.49711,0.91501
1.8432,-0.7159,-0.1156,-0.3146,0.5024,1.7882,-0.03266,0.67464,0.66437
2.2237,1.071,0.1194,0.1868,0.6716,0.3449,0.23246,-0.05695,1.22998
2.7277,1.4898,-0.7393,0.0551,0.2542,2.0027,0.28439,0.03896,1.43186
1.6445,-0.901,0.0516,-0.2286,0.9004,0.2946,0.10504,0.61512,0.60325
1.6756,0.2978,0.0781,0.0471,-1.1767,1.3375,0.12065,0.28736,1.20763
1.4351,-0.6962,0.4835,-0.3427,-1.3828,-0.5107,0.20851,0.41794,0.8127
2.0224,-1.338,0.9308,0.4085,0.8441,-2.5172,0.00877,0.32575,0.64013
2.8459,-0.3498,1.2888,-0.3474,-1.4967,-1.0587,-0.02246,0.1637,0.79525
3.0582,-0.9941,-0.6647,-1.3083,0.982,-1.3758,-0.64898,0.20482,0.25169
0.3751,0.1879,-0.5985,-0.7742,0.3893,-1.4669,0.62737,0.08576,1.1403
0.5302,-0.7822,-0.2416,0.1985,1.4578,-1.5576,0.6674,0.21729,0.57473
2.7064,1.201,-0.2637,-1.5009,-1.282,0.6776,0.22642,0.06021,1.34641
2.3029,0.7959,0.3145,-0.842,-1.1565,1.7733,0.16221,0.04398,1.19038
1.051,-0.4941,0.4885,-1.555,-0.7545,1.1483,0.33034,0.27513,0.89873
0.3803,-0.7961,1.4816,1.5075,0.9974,2.3452,0.09693,-0.12285,0.71036
2.2269,-0.9936,-0.028,-0.4683,1.2696,-0.7599,-0.25598,0.57847,0.51807
1.6851,-1.3885,1.2461,1.4256,0.2818,0.3862,0.13086,0.17573,0.67173
0.6377,1.5434,-0.4447,-1.0245,1.4395,-0.4889,-0.20274,-0.33697,1.31791
1.2255,-0.6767,-0.8737,1.5573,0.796,0.5263,0.4014,0.67261,0.38994
0.648,-1.3578,1.3869,-0.9891,0.0292,-1.4579,0.16951,-0.05987,0.682
2.4759,-1.2652,-0.6896,0.4179,0.3294,-2.2719,-0.31839,0.44081,0.07945
2.5455,-0.3031,-0.7918,0.2808,-1.5322,-0.4388,-0.58212,0.57624,0.72272
0.5041,0.324,-1.0914,-0.1908,0.5068,-0.619,0.70618,0.21819,1.10598
1.167,-0.6998,0.878,0.7411,0.8057,-0.4025,0.24554,0.19278,0.82228
2.6615,-1.5627,0.4239,-1.1433,0.1558,1.8056,-0.28914,0.31974,0.4024
2.7724,-0.4964,-1.274,-0.1342,-0.3972,0.7185,-0.69091,0.42823,0.36066
2.3494,-0.1525,-0.7916,-1.5443,-0.8778,-1.9694,-0.44689,0.66666,0.84303
0.3965,-0.5354,-0.2203,0.8644,0.7713,-2.0696,0.68729,0.12508,0.75187
1.3611,0.5445,1.1698,1.1461,-0.0555,-2.4061,0.13408,-0.09081,0.85384
2.8176,0.3674,-0.3784,1.4407,0.8996,0.7527,-0.35799,0.27851,1.25848
2.3005,-0.3311,-0.5277,-1.3631,0.9478,1.3232,-0.38715,0.65795,0.79821
0.985,-1.0754,0.5315,0.3278,0.4533,0.8672,0.37166,0.28875,0.65093
0.3053,-0.6016,1.2644,-1.4725,1.4037,-2.0175,0.14648,-0.11116,0.78031
2.6853,0.5767,1.143,-0.9541,-1.2768,-1.0135,0.12722,0.10471,0.86329
0.4078,-0.651,-0.9744,0.8114,-0.1208,3.0074,0.76961,0.16903,0.36633
1.3792,-0.1008,1.5328,0.1135,-1.2111,0.8251,0.14821,-0.02389,0.70822
1.4792,-1.2952,1.3808,0.0616,-1.4038,1.2286,0.15864,0.08666,0.68828
1.8248,-0.1905,1.0264,-0.7666,0.358,0.625,0.11577,0.15119,0.89466
2.3147,1.2145,-1.0812,-1.2905,0.7912,-2.0307,0.03366,0.18501,1.50718
2.1589,0.4775,1.2964,-0.1921,-1.3251,-0.5307,0.14898,0.04704,0.80305
0.6857,1.4494,-0.702,-1.0857,0.0525,0.4747,-0.08016,-0.25945,1.43096
2.4865,-1.318,1.4747,0.3071,-1.4085,-2.1752,0.04331,0.15595,0.68343
2.0012,0.093,0.1542,0.1724,1.3235,-0.9157,-0.00715,0.3752,1.13557
2.5622,0.6219,-0.2695,-0.8704,0.3611,-0.2564,-0.10275,0.24655,1.33566
2.2392,-1.3417,-0.0514,0.7387,-0.7582,1.147,-0.20862,0.50631,0.30766
1.2056,0.5129,-1.0004,0.4801,-1.4684,-2.2807,0.35316,0.50352,1.25571
1.7332,0.4994,0.8223,0.9761,0.6698,1.9,0.15364,-0.00969,1.00474
1.1741,0.1864,-1.216,-1.5026,0.3677,1.4607,0.44938,0.68439,0.9569
0.2204,-1.4373,0.7056,0.9998,0.2143,-1.5555,0.38515,-0.06748,0.55159
1.5594,0.3314,-0.2129,0.4014,0.6896,-1.3204,0.15434,0.37568,1.2435
3.0735,-0.6929,1.0335,-0.7188,-0.4006,-2.289,-0.19643,0.16379,0.80978
0.2693,0.1906,-1.464,-0.839,0.4818,1.3653,0.85232,0.07958,0.86076
0.0266,-0.2119,-1.4064,0.4124,-0.3305,1.1588,0.85618,-0.12732,0.54023
1.8588,-0.5698,-0.0718,0.7689,-1.1603,1.4334,-0.03742,0.6546,0.77267
2.6494,-0.5067,1.3189,-0.0351,-1.2594,-2.5847,0.00207,0.16915,0.77405
0.0063,1.0337,-0.9961,1.3857,-0.1636,0.4961,0.22592,-0.14863,1.47509
1.5845,0.0061,1.1783,-0.6447,-0.7158,-2.8356,0.14949,0.04153,0.85599
2.0734,-1.1503,-1.5032,1.5373,-0.7846,-0.1049,-0.04232,0.38848,-0.11325
0.0582,0.4831,-1.025,-0.3126,0.8819,-0.162,0.63016,-0.11359,1.23188
1.4371,-0.9487,-1.2206,-0.2084,0.3151,-0.5394,0.22828,0.57161,0.06087
0.8988,1.2696,-1.4559,1.5635,0.9601,-0.2243,0.25938,0.08504,1.50476
0.1681,0.0937,0.6843,-0.6891,0.7799,-2.0319,0.16442,-0.12429,1.03406
2.7595,-1.0061,0.4534,-1.2584,0.9784,-3.1255,-0.38484,0.31636,0.66392
2.9885,0.9632,-0.8406,-1.5563,-0.8988,-0.6892,-0.18847,0.18091,1.45739
0.2377,1.0133,-0.9754,1.2465,-1.4539,0.7808,0.26117,-0.09111,1.47051
2.1286,1.2368,0.4562,-1.1979,-1.29,-0.5978,0.28055,-0.16619,1.04728
0.2386,-1.5673,-0.0979,1.2132,-1.1232,-2.6901,0.45277,-0.0443,0.17912
1.1737,-0.6286,0.5392,0.2161,-1.3698,-0.8473,0.29618,0.31825,0.84619
2.7611,-1.3357,-1.4466,1.0794,-1.3383,-1.7103,-0.16099,0.226,-0.15946
2.7668,1.4988,0.1165,1.3274,-0.8304,-2.9758,0.42829,-0.00724,1.10358
1.6574,0.0032,-0.3688,-0.4508,-0.6953,2.1868,0.09715,0.61584,1.06922
2.5272,-0.3192,1.456,1.2886,0.5282,1.2998,0.06464,0.13803,0.73632
2.1634,0.9539,-1.5055,0.3736,1.1881,-0.8106,-0.1511,0.49305,1.38116
0.3833,0.171,-0.1884,-1.014,-0.7303,-1.5535,0.47653,0.03037,1.17669
3.0722,0.0993,0.499,-0.3906,-0.6329,2.3171,-0.19235,0.16378,1.08286
0.2188,0.1081,1.4833,-0.7008,1.2286,2.0163,0.02979,-0.14709,0.72982
1.9036,-1.5456,0.7505,1.2699,-0.1068,1.1686,0.03291,0.3641,0.52803
0.9264,0.5324,0.2039,-0.4051,1.384,0.6203,0.17829,-0.01251,1.22459
2.691,-1.4339,-1.4486,-0.7412,0.8437,-2.2189,-0.06962,0.20037,-0.17852
0.4911,1.5237,-0.3532,-0.4237,1.4588,2.9686,-0.255,-0.30654,1.29012
1.1061,-1.3801,1.4136,-1.001,0.3872,-2.5434,0.17343,0.01113,0.6801
2.8075,0.9192,-0.2872,-0.37,0.7169,2.8476,0.02733,0.14935,1.37555
2.2431,0.7268,-0.5602,-0.0212,-1.0634,-0.8053,-0.05144,0.30555,1.38794
0.4701,-1.4609,-0.3799,0.7578,-1.193,1.9428,0.47637,0.07373,0.10789
0.3301,-1.5691,-0.3839,1.5136,0.5392,-0.0578,0.42118,-0.0143,0.06015
1.4062,0.5502,-0.6922,0.1847,1.325,-2.3671,0.22164,0.41862,1.32218
0.2803,0.2373,0.0047,0.9804,-1.3808,-0.2025,0.36433,-0.05126,1.19742
2.3175,0.5452,0.5875,0.961,0.8648,-1.9957,0.1191,0.09222,1.09732
0.454,-0.4722,-0.3456,0.8715,-0.8492,-1.1821,0.70702,0.17806,0.75589
1.3765,0.5191,0.3149,-1.1007,0.234,0.1064,0.1605,0.03849,1.19121
3.0154,-0.8495,0.8356,-0.2393,-1.5316,1.3301,-0.29008,0.18805,0.77905
2.4265,-0.8153,0.2347,-0.0888,-1.3209,-0.2484,-0.3168,0.47385,0.70742
1.2204,0.0799,0.5902,-0.854,0.9839,-1.7366,0.20209,0.11582,1.05733
2.97,-1.1922,0.7464,-1.2184,1.3675,-2.9184,-0.33313,0.21002,0.65145
1.9951,1.4864,1.3558,-0.7936,-1.1952,2.1751,0.18218,-0.03879,0.69549
1.7087,-0.0197,-0.597,0.7472,1.5214,-2.1164,0.05267,0.71201,1.00384
1.2042,-0.7399,-0.8331,-1.2527,0.3277,-2.5574,0.40914,0.64699,0.35945
0.4427,-0.6449,1.0628,0.2048,0.3271,-0.0451,0.23451,-0.05488,0.81515
2.1444,0.554,-1.0906,1.2492,-0.2823,-0.8542,-0.2025,0.58994,1.25973
2.9034,-0.9416,-1.2298,0.4033,0.4272,-2.4739,-0.54656,0.28712,0.06194
0.8925,-0.5131,0.2392,-0.3568,0.6367,-1.2069,0.43843,0.30493,0.87008
2.2299,-1.5129,1.5493,-1.5609,-0.2763,0.3953,0.10052,0.11526,0.67301
1.2097,-0.3733,1.4313,0.9771,-1.1279,-1.0539,0.15301,-0.01956,0.74389
1.5202,-0.709,-1.2355,1.424,0.5916,0.3021,0.18639,0.71382,0.21416
2.9872,1.3156,1.2475,-0.5105,0.9201,-1.2215,0.16545,0.12611,0.7392
1.1769,-1.3196,0.5903,0.6209,0.2747,2.908,0.29599,0.32119,0.56202
0.7258,0.8968,-0.5867,0.8359,1.5595,-1.3454,0.21707,-0.00799,1.42661
1.0707,-0.4221,1.5386,0.7435,-1.3679,-0.6769,0.13877,-0.05896,0.70266
1.9885,0.192,0.5002,0.039,-1.1159,2.7124,0.07066,0.21068,1.0996
0.108,-0.8944,-0.5841,-0.2267,-0.9473,1.9034,0.71422,-0.07349,0.35468
1.1669,0.1381,0.5569,-0.755,-0.7449,2.2768,0.20351,0.09437,1.07592
0.3586,0.788,-1.4006,0.3134,-0.0471,3.0956,0.58587,0.05934,1.31956
1.9665,-0.6467,0.5809,0.3608,-0.5697,1.5727,-0.01313,0.42071,0.84118
2.6729,-1.1271,-1.1304,-0.8124,0.9505,0.6359,-0.38403,0.36263,-0.00762
2.0455,0.8229,1.3867,1.021,-0.9166,-0.8167,0.16321,0.01069,0.74723
0.8153,-0.3817,0.06,1.2642,-0.7642,2.1743,0.4908,0.30222,0.91421
1.7354,0.5747,0.3293,1.1259,1.1571,1.3007,0.14218,0.05978,1.18956
2.8948,1.0646,-0.5643,-0.301,0.4891,-1.6676,0.01722,0.1504,1.4381
2.7648,-1.5184,0.4716,0.0456,-0.2535,1.9098,-0.3229,0.28914,0.43909
0.6964,1.198,0.857,0.1165,-1.4035,0.2479,-0.08353,-0.26543,0.89093
2.5929,-1.465,1.3467,0.6358,1.4703,-2.8584,-0.02132,0.1889,0.66883
2.7947,0.2319,1.4654,1.025,0.5288,0.3435,0.06105,0.13748,0.73673
0.1147,1.1831,-1.0733,1.0747,0.7014,2.7586,0.15238,-0.13349,1.50301
0.342,-0.9213,-0.2703,0.6155,0.0289,2.3103,0.68132,0.08327,0.46893
0.1382,-1.2776,-1.031,-0.4073,0.0807,-0.0156,0.44722,-0.08929,-0.04702
0.118,-0.1066,0.6268,-1.247,0.2591,1.4227,0.24839,-0.12165,1.01066
0.3241,0.892,1.4198,0.6337,1.3592,-0.2938,-0.0102,-0.16172,0.73141
2.9754,-1.2285,1.3927,-0.493,0.0603,1.2262,-0.06825,0.1636,0.69439
2.379,1.4394,1.5346,1.554,1.029,-0.2902,0.1293,0.08399,0.67754
0.2818,1.0622,0.6511,-0.0642,0.5582,-1.0793,-0.16963,-0.20532,1.00775
1.2081,0.6911,0.0259,0.6698,-0.8416,3.133,0.16309,0.00686,1.28587
3.0536,-1.3818,0.0202,-0.0098,0.84,2.3754,-0.49257,0.19409,0.31754
2.7394,-0.701,-0.3184,0.8268,-1.1622,-1.8053,-0.59316,0.41538,0.60225
1.8201,0.6575,-0.5062,1.4103,1.417,0.8094,0.07219,0.32461,1.36565
1.141,0.6,-0.009,0.7853,0.0689,3.0932,0.19167,0.05805,1.28551
2.3943,-0.3002,0.4016,1.537,-0.872,2.5312,-0.18334,0.37444,0.97578
2.06,0.1218,-1.0693,-1.3923,-1.0415,-1.0758,-0.23928,0.76878,0.95986
1.7977,-1.0168,-0.7683,-1.4705,1.5519,-1.4945,0.00116,0.662,0.19295
3.0772,0.2304,-0.0191,1.2142,-0.5915,-1.0766,-0.3393,0.17224,1.19689
0.9795,0.1229,0.4454,-0.2598,1.5073,2.927,0.24345,0.09341,1.09962
1.2378,1.3831,0.2442,0.0822,-0.6059,2.6757,0.02685,-0.38141,1.09193
2.0778,0.4052,0.1529,-1.5358,-0.7229,-1.6008,0.04116,0.23492,1.21908
3.0794,1.3754,0.348,0.4239,1.4477,3.003,0.35469,0.12825,1.04984
2.6436,-0.5858,-1.4467,-1.3647,0.9125,1.9174,-0.57612,0.48403,0.22257
2.6756,1.0429,-0.3536,1.3069,-0.5756,2.7025,0.10445,0.11543,1.39098
0.3691,-1.1963,-1.3081,0.5875,1.4339,-1.0373,0.42583,0.00384,-0.08919
2.224,-1.1887,0.8055,1.2787,-1.4616,2.4105,-0.08824,0.36221,0.66406
0.1361,0.8098,1.3019,0.1966,-0.2196,0.3017,-0.0617,-0.1599,0.77958
0.4218,-1.1421,-1.1145,-1.1442,-1.5228,0.1163,0.51835,0.06814,-0.01006
1.896,0.493,-1.0493,0.8187,1.1467,1.3675,-0.0577,0.64078,1.23216
2.7121,-0.8121,-1.3829,0.4935,-1.3361,-1.0871,-0.51537,0.40108,0.08962
0.2165,0.8702,0.5554,-1.4243,0.1426,0.8875,-0.11031,-0.1779,1.08449
1.3747,-1.5688,1.2357,-0.1134,-0.4637,-1.2086,0.17859,0.12891,0.64146
1.9216,-0.4537,0.3621,-0.8531,0.4148,-1.6149,-0.01299,0.47212,0.91071
1.6496,0.6977,0.5705,0.534,1.0239,-1.625,0.15551,-0.06319,1.0973
1.211,0.9914,0.8982,-1.5487,-0.9135,-0.1142,0.07707,-0.22129,0.9171
2.4902,1.4827,1.4299,-0.9069,-1.5197,1.511,0.15443,0.07095,0.68604
3.0215,-0.4731,0.1276,1.2395,-0.7869,-0.2054,-0.52777,0.21483,0.87449
0.7968,-1.4855,0.2022,0.8612,-0.0364,-2.3114,0.42648,0.22165,0.34457
2.353,0.9908,1.3876,0.2325,-1.3603,2.6277,0.16037,0.05149,0.73501
2.7148,0.8256,-0.3623,0.2155,-1.4798,2.6603,-0.0453,0.18544,1.38454
1.3121,-0.3755,0.2208,1.5562,-1.3951,2.6672,0.26998,0.43367,0.93699
