JJcerque/IK_Puma560_IA/datos_puma560C.csv
Q1,Q2,Q3,Q4,Q5,Q6,X,Y,Z,Rx,Ry,Rz
1.048,-0.0965,0.8757,-0.9865,-1.2988,-0.7118,0.20031,0.04708,0.95171,6.48653,55.37854,-8.8336
1.8443,0.1976,0.7328,1.1097,-0.7141,-0.3215,0.1,-46.41047,-6.39758,135.977852036,0.1265,1.03088
3.0274,-1.1621,0.5175,-0.8999,1.26,-1.9082,-0.42728,0.20004,0.60855,51.92846,-13.29673,24.8778
2.8585,0.3636,-0.9494,1.5617,-1.3004,0.0618,-0.59106,0.32821,1.17398,70.09964,50.23345,-40.9063
2.3544,1.562,0.4571,-0.9722,0.6521,0.1336,0.38448,-0.17328,0.93475,132.22594,-13.79733,-8.74603
0.1528,0.5651,1.5171,0.1931,1.3018,2.3089,0.00127,-0.15162,0.70944,162.92609,-2.3281,52.56334
1.8801,-1.0916,0.4932,-0.5245,0.3021,-2.4101,0.00318,0.48299,0.634,3.87062,-20.60508,-58.53364
0.6084,0.9772,-0.7988,1.1889,-0.873,-1.7476,0.23747,-0.01746,1.45831,-44.51527,-16.69424,5.3538
0.1052,-0.1724,-0.6114,-0.8027,-0.3579,0.3957,0.75626,-0.07103,0.88924,-21.72087,58.0551,-35.93809
0.8567,-0.5845,0.7106,-0.3951,1.4425,1.29,0.32687,0.14804,0.86449,-89.28516,-18.8619,116.41121
0.7911,-0.0483,0.6985,-0.2465,-0.2905,-0.9002,0.23752,0.02682,1.00697,20.81437,-5.28604,-20.03022
0.4189,0.6652,1.1718,-0.4686,0.5187,1.7236,-0.01405,-0.17051,0.84434,-134.09347,-19.67707,114.82888
1.8659,-0.7384,-1.4013,1.1859,0.4796,2.9876,-0.05194,0.68677,0.13147,-115.67878,-39.99484,7.1202
0.7457,1.4817,-0.0988,-0.9349,-0.8637,1.2875,-0.17881,-0.3694,1.20252,-0.67322,-55.60115,91.38027
1.8169,-1.2918,0.9858,1.1846,0.63,2.5415,0.08015,0.29682,0.66235,-30.62885,13.31869,-51.30311
2.4157,-1.4258,-0.8582,0.9363,-0.7735,-1.0318,-0.18136,0.36159,-0.0533,151.1932,26.91952,-27.77165
1.8705,-0.9689,-1.3613,0.822,-0.637,-1.0059,-0.01715,0.56374,0.0039,160.79714,26.22931,-55.99502
2.4727,1.1211,-1.5537,0.3575,-1.5365,3.0858,-0.21068,0.3578,1.44421,-165.25178,-68.0575,147.85998
2.4335,0.1233,-0.1046,-1.3132,-1.1782,-0.9559,-0.2372,0.40063,1.15704,-62.47991,33.13475,-10.3474
2.4666,0.1014,1.168,-1.4476,-0.2989,2.2233,0.0756,0.13169,0.86311,-61.86158,-47.55999,-132.25786
3.1343,0.3136,-0.7332,-0.742,-0.6533,-0.5374,-0.60408,0.15446,1.19111,-49.82417,32.73544,84.84788
0.1099,1.0047,-1.4294,-1.4512,1.5438,1.5914,0.44189,-0.1022,1.42135,-85.32065,25.32518,13.91551
2.4568,-0.8813,-0.7811,-1.5562,1.3964,-2.3687,-0.44946,0.56076,0.27895,90.13774,-49.59719,-49.36698
0.573,0.5271,0.4858,-0.7193,-0.7327,1.5159,0.09615,-0.11654,1.13486,-6.22327,-34.38254,94.18319
2.6731,1.4833,-1.564,-1.5516,0.8167,1.3635,-0.01502,0.17577,1.53074,-46.74614,-4.03916,146.12666
1.1848,1.3308,1.377,0.6448,-0.2784,0.3223,0.10239,-0.14661,0.70798,-151.65121,-27.57206,-176.79887
0.546,-0.6994,-1.1954,1.4788,0.0535,2.5715,0.7046,0.25255,0.23714,-112.98394,-36.65574,-47.72123
1.3345,-0.9713,0.3225,-0.0347,-0.109,2.6801,0.26778,0.47112,0.64712,24.08255,-37.28392,-140.27471
1.9036,-0.8478,-1.2704,-0.8073,-1.3102,1.8875,-0.06852,0.65753,0.10598,-168.66663,44.06125,-155.22354
0.5133,-0.6104,-0.5218,1.2661,0.8249,-2.3091,0.72997,0.23924,0.58932,-44.95374,46.43849,-77.99266
2.7212,-1.5342,-1.393,1.5149,0.6168,0.4448,-0.01894,0.17283,-0.18591,150.93874,25.31173,-146.95915
2.841,0.114,1.5608,0.2818,0.5174,0.7079,0.04689,0.14256,0.69631,-128.14221,-24.32793,-79.71743
1.728,0.5381,0.3719,0.4163,-0.3469,2.1015,0.14157,0.0653,1.17417,-16.5266,30.8927,-125.01168
2.4451,1.5459,-1.4407,0.0344,-0.2672,-3.1385,0.10731,0.10586,1.53504,0.1807,-9.286,-37.80029
1.1148,0.0033,-1.347,-0.5589,-0.9248,2.6891,0.51214,0.70343,0.7507,124.5658,-22.52284,109.27771
1.6656,0.9531,-0.7227,0.8541,1.2282,-2.5649,0.13317,0.18467,1.44887,74.54347,45.81156,40.49861
2.2559,0.4514,-1.395,-0.9818,-0.4224,0.627,-0.35842,0.67577,1.09717,-24.95873,67.22918,81.12283
1.4306,0.2872,1.0981,1.5052,0.9445,-1.5486,0.14766,-0.02744,0.89374,71.32147,-79.94615,64.44789
0.0272,-0.9362,-0.9279,0.2863,0.1616,-0.7707,0.66732,-0.13195,0.17982,-106.32199,60.68615,-105.39472
1.8247,-0.0185,-1.537,1.2255,-0.9301,2.6519,-0.07173,0.87378,0.65015,-109.77109,-39.18955,78.76118
1.1114,1.3848,-1.3867,1.3398,1.1225,0.8546,0.17926,0.02397,1.52794,-57.40255,-36.36433,-150.26979
0.6164,-0.0864,0.4278,0.101,-0.6903,1.1327,0.33541,0.05374,1.04824,17.52722,10.14573,106.89648
1.3527,-0.0016,-0.3303,0.0364,-0.1667,-1.2506,0.27452,0.54521,1.07276,-27.12657,9.3057,5.74501
2.2819,1.4539,-0.9319,1.0576,1.3264,1.3125,0.20985,-0.0137,1.4851,-91.62152,10.95314,-81.82676
2.9098,-1.1768,-0.7738,0.3001,1.4092,-1.554,-0.50984,0.27451,0.09418,-31.6995,16.44255,71.02621
3.1183,0.264,0.8989,0.6066,1.3684,-0.4859,-0.02502,0.15067,0.97443,-162.28919,-46.22391,22.75227
1.3096,-1.0658,-0.8707,-0.0775,-1.1184,-0.5732,0.30117,0.54563,0.12056,-173.85211,1.8627,-70.25494
1.9827,1.1447,1.3415,1.1632,-1.4324,0.3585,0.17785,-0.03229,0.73506,-80.90101,-34.76356,131.88115
1.5007,1.1005,0.5758,1.2449,0.5779,0.0362,0.13316,-0.2458,1.03147,-105.4401,-10.07385,-148.82061
2.1632,1.2142,-0.1086,-0.3829,-0.9272,2.1783,0.25071,-0.10377,1.28831,-18.08207,-11.24699,-121.15333
2.3291,-0.5244,-1.4896,1.5488,1.3469,-1.2066,-0.41037,0.65143,0.25212,-136.04512,83.95259,-80.29306
2.211,-1.3896,0.4996,-1.1038,1.2433,0.5099,-0.13422,0.43138,0.5031,-57.61719,-4.77598,124.90112
2.6021,-0.7542,0.4438,0.7502,-0.9374,-0.7986,-0.32267,0.36808,0.78114,-52.47168,50.98233,126.43222
2.9234,0.9161,-0.163,-1.0988,-0.8586,2.3805,0.04963,0.14269,1.34326,-15.71152,-42.28742,-96.01151
2.0685,0.8456,0.0288,-0.6476,0.4249,2.2753,0.14704,0.04366,1.28753,-70.2634,10.34957,-163.08322
1.3785,-0.2797,0.2924,1.5273,-1.4656,-1.8854,0.22943,0.39323,0.98465,-83.6045,-18.64788,74.51441
2.3837,-0.9495,1.2614,0.8082,-0.8876,-2.4925,0.0028,0.20395,0.73792,-13.84068,-37.99105,38.97356
2.0034,-0.9825,1.413,-1.5382,0.5946,2.7062,0.10358,0.1336,0.71349,-38.73061,17.20953,167.94172
3.0018,-1.1747,0.5608,1.1544,-0.5082,-1.2527,-0.40681,0.20877,0.61473,-34.07676,43.50918,161.31998
0.4766,-0.3788,0.9455,-0.3248,0.3373,0.8479,0.23456,-0.04777,0.88735,-35.99851,-39.10961,68.54252
0.4625,0.9218,1.5534,1.5103,-1.4975,-0.0728,0.04735,-0.14406,0.68897,-92.0819,-56.04525,33.54446
1.3495,0.8433,0.5837,1.5227,1.3567,2.7902,0.11626,-0.16687,1.07628,91.04903,28.76536,65.29075
0.2376,1.2371,0.1915,0.1308,-0.3544,-1.148,-0.23986,-0.21248,1.1611,57.44173,-28.37487,-62.45221
1.4606,-0.3924,0.7869,0.641,-0.1874,0.2309,0.17683,0.23373,0.91314,-14.7351,-4.27812,132.928
1.3235,-0.771,-1.0823,-0.8572,-0.4221,1.209,0.32142,0.66012,0.23106,161.37265,57.30854,-147.12803
0.0469,0.2445,-0.4296,0.2477,-1.3235,-0.8208,0.52485,-0.12558,1.19704,-84.47209,45.43028,-69.5848
0.1863,0.5898,0.6186,-1.0211,-1.2295,-0.1067,-0.00926,-0.15444,1.08406,53.22354,14.74423,-9.87257
0.4034,1.4018,0.0592,-1.283,1.4051,-2.258,-0.267,-0.2771,1.16497,-118.20741,56.59994,10.61969
3.0424,-0.7784,1.3007,0.4747,0.7477,1.94,-0.09424,0.16017,0.753,-66.58363,32.86969,-63.20601
0.3487,-0.6004,1.2507,0.9104,-0.1974,-2.3625,0.1556,-0.10309,0.78384,29.68572,-10.82985,-69.05789
0.674,1.0456,-0.0691,0.1427,-0.881,-2.1638,-0.00785,-0.19831,1.30403,8.08485,-2.71797,-80.64431
2.9807,-0.3911,-0.5561,1.4907,-0.195,-0.6599,-0.7277,0.27012,0.7429,43.45461,39.47912,-119.59746
0.2703,-0.7554,1.0227,-0.5616,1.1789,-2.1107,0.25196,-0.08589,0.79762,78.06783,38.51758,-111.92643
0.4515,-0.8173,1.3539,1.2219,1.5568,3.1171,0.14837,-0.09481,0.73841,109.51329,60.84684,25.30725
1.4094,0.2348,0.7091,-0.7023,0.8052,-0.9536,0.1613,0.05699,1.04204,92.25095,-3.78938,-37.17671
0.7866,-0.1629,-1.5599,0.7864,0.3015,1.4272,0.70643,0.49567,0.51635,85.53946,-36.1998,125.54905
1.121,1.3473,0.4417,0.95,-1.5274,-0.2149,-0.00846,-0.36264,1.01923,-52.39831,-23.87328,58.60758
2.0601,1.2035,-0.4122,-1.0417,-0.2851,-1.4482,0.19721,-0.0511,1.39279,15.89288,36.25983,-13.64092
0.5849,1.4011,-1.0148,0.7802,-1.1079,1.141,0.02368,-0.16428,1.50506,39.28071,32.44249,146.48267
0.619,1.1806,-1.1744,-0.6052,1.2296,-1.266,0.23518,-0.01669,1.50309,69.90736,-16.25672,-83.2913
2.0604,1.3483,0.0406,0.7596,-0.4448,-2.0911,0.2856,-0.21689,1.19106,60.40382,-17.83649,18.30526
1.3166,0.1126,-1.3956,-0.8713,-0.0544,-0.0022,0.35869,0.78386,0.82344,-71.2273,39.06909,-4.93571
2.5058,-0.1282,-0.8522,0.904,0.6832,-2.5622,-0.55318,0.59475,0.84014,-37.10877,18.54506,27.08992
2.7272,1.456,-0.3136,0.5722,0.1077,2.6788,0.36696,0.00251,1.29863,13.81829,70.0828,-5.54626
2.638,1.4461,-0.6682,0.1207,0.8573,-2.6647,0.27812,0.01808,1.42213,96.49253,57.65348,71.87095
1.9062,1.1745,-1.4266,-1.2435,-0.9735,0.3407,0.0449,0.32705,1.48325,7.15072,61.17899,54.29439
0.8961,-1.2521,0.6567,1.1472,0.0696,1.5475,0.36346,0.21416,0.60789,12.34424,-30.47195,-158.74751
2.8161,-0.0483,0.4358,-1.3772,0.6415,1.7053,-0.22388,0.23392,1.05844,-43.23192,-16.58044,179.34536
1.7179,0.9575,-0.4062,-1.433,-1.5639,1.8325,0.14262,0.06121,1.4034,83.54752,-46.17229,109.6238
0.9812,-0.0566,1.3941,-0.9039,0.6,0.7782,0.13345,-0.07038,0.76698,145.05195,-79.52709,-115.03868
0.0693,0.5351,0.4266,1.2525,-1.2961,-1.5488,0.03923,-0.14769,1.15571,-51.07584,-50.19247,-24.70518
0.118,-1.4493,-0.2004,-1.4184,-1.5009,0.4669,0.49551,-0.09236,0.18894,-99.751,22.50373,-173.654
1.031,0.5717,0.5955,0.5082,-0.4646,0.9538,0.11535,-0.09942,1.09371,-44.60021,2.93651,133.98058
1.2307,-1.2196,0.3079,-0.5207,-0.0209,-1.8791,0.30902,0.42351,0.51477,-42.40844,-35.9214,-52.94195
2.7446,0.1104,-0.004,0.4065,0.7156,2.3584,-0.3141,0.29439,1.15092,-35.101,32.96325,-54.10151
1.0924,-1.3823,1.3575,1.4399,-0.1788,0.9564,0.18472,0.03027,0.67884,9.35974,4.83227,-159.5901
0.4437,0.0426,-1.2044,-0.8726,1.0533,-0.1408,0.81916,0.22322,0.84332,-44.13873,-8.73868,-2.66897
0.9611,0.3808,0.3463,1.0431,-0.0803,-2.4904,0.19689,0.01985,1.16841,38.90477,-7.49285,-32.00837
2.3324,0.1876,-0.5057,0.5275,-0.1511,1.3653,-0.29066,0.52227,1.15615,25.76738,-4.03887,-118.13027
0.2946,0.0414,-0.1027,1.2021,-0.0125,1.3412,0.50111,-0.00475,1.11945,2.67697,-2.73871,162.55617
0.1498,0.2834,1.0783,-0.2485,1.3954,1.29,0.01883,-0.14891,0.90206,-162.16742,-19.49122,111.33868
0.1158,-1.3561,0.8955,-0.077,-0.1915,0.2516,0.31742,-0.11414,0.62772,8.41678,36.51335,19.21662
0.1067,0.6354,-0.8259,-0.8144,-1.0924,3.0047,0.46265,-0.10136,1.34825,38.05428,-64.68774,101.93266
1.3463,-1.3876,0.0322,1.3619,-1.4889,2.0922,0.25867,0.45875,0.31972,-123.66243,-70.56623,102.01397
2.7642,0.5791,0.6294,1.4689,0.1469,1.328,0.088,0.12653,1.08016,-47.3371,60.21057,-64.07435
1.7741,0.5838,-1.4917,-1.2652,0.2708,-2.8032,0.00298,0.72873,1.15957,46.34008,-18.04703,-132.11728
2.2591,0.6619,0.3177,1.1198,0.7561,1.1063,0.12007,0.09023,1.19474,-80.22029,22.26186,-98.12553
0.6293,0.195,0.4145,-0.2698,0.6844,-1.7636,0.2444,-0.00767,1.12117,72.32751,19.32906,-70.09363
1.412,0.9964,0.396,1.2051,-0.593,0.2878,0.11863,-0.20811,1.13094,-69.82865,4.36565,138.73885
1.7018,0.28,1.3464,0.3922,-0.5387,0.9678,0.15102,0.00247,0.78743,-64.49652,-8.68377,170.87126
2.7151,0.5058,0.1156,0.0868,-0.4535,-2.7598,-0.06799,0.19571,1.24394,6.27829,7.72667,2.15119
0.137,0.7458,1.1121,0.2157,-0.9674,-0.7618,-0.08124,-0.16267,0.86203,31.84536,-44.03281,-46.79451
0.9496,-0.4325,-0.9115,-0.2779,-1.4541,-1.1022,0.59772,0.57732,0.56816,-155.23127,-5.06936,-64.44925
0.7971,-0.9421,0.0794,1.0657,1.2259,-0.0352,0.52321,0.32087,0.58801,50.29903,-27.65316,64.00733
1.9326,-0.45,1.0694,-1.3303,0.5496,2.7925,0.08559,0.19776,0.84738,-49.00015,18.51775,175.7762
2.3452,1.3659,-0.1779,1.1818,0.1111,0.1434,0.32062,-0.11318,1.27471,-69.85095,-15.33,-134.92644
2.9765,-1.5286,1.5448,1.4488,1.2545,1.5712,-0.00643,0.15319,0.67249,-71.9904,0.94329,-16.44274
1.6776,-0.3244,0.7995,0.3247,-1.4798,-2.2353,0.1247,0.2445,0.92746,-48.3433,-39.5453,-1.69255
2.6478,1.5629,1.2259,0.0936,0.3387,0.036,0.21626,0.054,0.70542,-178.12434,-0.65864,-35.41174
0.1764,0.3962,0.665,1.2107,0.3733,-0.7898,0.05716,-0.14223,1.06683,-35.65295,-65.10516,69.74159
0.3966,-0.8448,-0.5159,0.3497,-1.1369,2.9471,0.71581,0.1371,0.41911,-163.74302,-39.00719,25.69246
0.4624,-0.7912,1.2651,-0.5695,1.41,2.7605,0.17842,-0.07873,0.75821,-112.28868,51.34312,65.52439
0.4595,-1.491,0.838,-0.8574,0.1591,-0.9402,0.34698,0.00428,0.57203,-29.8566,-12.34383,-71.06657
2.7378,0.0946,0.3149,-1.3395,-0.5206,2.4024,-0.19537,0.24665,1.1168,-2.20283,-32.66772,-135.50412
0.7591,-0.9125,0.2519,0.0727,1.4027,2.1854,0.49875,0.26635,0.65876,-38.16811,20.69877,163.77238
0.5241,-0.6249,0.42,-0.7445,-1.3073,-0.3862,0.47156,0.09926,0.83786,-77.49657,59.29824,-90.34257
0.8985,1.2907,-1.161,-1.0848,0.6257,1.0527,0.1695,-0.028,1.5176,-32.54956,-24.28045,54.67885
2.45,-0.6419,-0.3823,0.8146,-0.8528,0.8376,-0.46295,0.57814,0.6204,95.72118,3.34239,-95.88281
0.199,-1.5646,-0.0297,0.0449,-0.1047,-1.4678,0.45498,-0.06132,0.2096,-97.41995,8.42428,-79.42018
2.8106,-0.9242,-1.424,0.7483,0.0991,-0.2949,-0.47485,0.32184,0.00985,155.63008,44.80325,-56.75978
0.5369,-1.3188,1.2808,-0.9037,0.9014,2.0585,0.20079,-0.0551,0.68438,-46.18185,22.75181,87.9447
2.1249,-1.0129,1.185,-0.5485,1.05,-2.1107,0.0357,0.22747,0.7344,64.12977,33.5925,-12.31539
2.5566,-0.6936,0.6257,-1.4178,0.5206,-1.0669,-0.23527,0.33581,0.8252,24.36673,-17.09769,1.4248
2.7314,-1.4166,0.4593,-0.7172,-0.8288,-3.0399,-0.33547,0.3095,0.47716,98.25317,-63.00029,-149.91328
2.9367,-1.1799,0.2045,-0.063,0.1383,2.3196,-0.49172,0.25544,0.49796,40.8256,-27.79546,-72.71235
0.7026,1.2922,0.184,-0.6718,0.6436,1.2947,-0.13901,-0.31432,1.14798,-128.92919,-51.3995,138.56583
2.4921,0.0007,-0.8451,-1.5359,0.3108,-0.4324,-0.52095,0.58402,0.94375,-43.31053,-28.35665,49.49425
0.2983,1.4604,1.3169,0.8854,-0.2675,-1.8284,-0.07561,-0.18023,0.70477,148.31575,-8.53384,-108.68635
0.9008,-0.4613,0.5751,-0.4544,-1.4019,0.8867,0.3398,0.18728,0.91094,71.00226,34.71433,103.83614
2.2563,-0.4606,-0.3078,0.8786,-0.632,1.7543,-0.32793,0.63802,0.77627,64.66472,-41.97949,-94.48523
1.3071,0.4981,0.972,-0.0933,-0.8186,-3.0815,0.13229,-0.08568,0.94173,-4.06499,37.43788,-105.37886
0.6366,0.5516,0.5173,-0.2011,1.4429,-0.8384,0.08838,-0.12127,1.12365,145.01169,-15.19503,-92.93424
0.5834,0.6239,-1.4836,1.2647,-0.7561,-1.115,0.65924,0.25534,1.19053,-36.23988,66.76509,38.48363
2.7321,0.4816,0.1057,0.8699,1.081,0.1883,-0.08732,0.20147,1.24253,-82.5705,-53.84794,-76.91151
2.0128,-1.2827,0.612,-0.9735,-1.0413,-2.5846,-0.03845,0.43204,0.58348,-8.77579,-84.54222,-101.65118
1.2896,-1.341,1.1662,1.5517,0.4542,-0.0416,0.19784,0.1442,0.67307,12.19581,-24.92749,155.38695
1.0952,-0.2233,0.1416,-1.1746,1.1252,0.9835,0.35159,0.35496,1.00491,-59.55081,-25.34983,69.16269
0.7683,-1.0135,-0.8147,0.2579,-0.6427,1.628,0.56505,0.33739,0.17581,142.76316,-16.279,127.48667
2.6837,-0.1106,-1.2006,-1.1579,-1.5065,0.3241,-0.69764,0.5111,0.71539,-116.30086,33.25489,-31.17433
1.7804,0.6901,-0.807,-0.4957,0.4296,-1.3073,0.0628,0.42591,1.37321,17.319,-7.87489,-1.80797
2.0573,0.7678,0.1524,-1.4592,1.5076,-0.0469,0.14229,0.05191,1.24942,93.50884,-34.91105,-57.37488
2.3939,0.4054,0.5995,-0.0005,-0.1088,-0.6511,0.07035,0.1394,1.09078,37.16881,-38.38065,86.47869
1.8775,-0.6487,-0.8985,0.0937,0.9612,-0.3723,-0.09132,0.78533,0.40085,-7.76557,33.14997,85.67403
0.4543,0.7534,1.1328,1.0017,-0.1399,-1.6193,-0.02568,-0.17953,0.85259,111.82202,-50.6421,-88.11565
1.604,0.7533,-1.3208,-0.2716,1.2017,2.286,0.13124,0.56886,1.32041,-24.46427,30.13876,-154.21336
2.2132,0.1107,0.0321,0.134,-1.0776,-1.7278,-0.1122,0.40039,1.14983,-53.19038,-8.3177,39.03087
2.4985,0.2962,-0.7045,1.3246,-1.4584,-2.0688,-0.39263,0.48172,1.18611,-89.60931,-5.88429,127.6389
1.2201,0.1376,-0.0195,-0.4745,-1.2358,3.0028,0.27731,0.32129,1.16224,9.56108,-64.44031,-149.14616
0.1003,-0.6379,-1.5443,1.4055,-0.176,0.6599,0.70037,-0.08032,0.15021,131.82816,-28.01746,85.28123
2.9019,-1.2269,-1.5215,-0.7501,1.5072,-0.304,-0.2483,0.21515,-0.14131,-67.37949,54.92176,139.32977
0.1248,-1.0986,0.5557,1.4366,0.5183,2.1197,0.45214,-0.0945,0.64651,-36.59838,-14.28706,-152.62466
2.5034,0.6664,-1.3958,1.4146,-1.5021,1.4482,-0.4265,0.50317,1.24716,93.62022,-34.16219,-47.90462
1.5697,1.3921,1.3081,-1.2774,-0.3917,2.9976,0.14991,-0.12623,0.71501,-149.1689,23.32378,-177.16541
1.6489,-0.0749,-0.5154,0.513,-1.0807,0.0238,0.09593,0.69741,0.98695,97.09139,72.64684,-143.0752
0.9513,-1.4188,0.7728,1.5575,-0.9415,-2.4293,0.32047,0.19094,0.57758,-62.23915,-5.66656,27.35343
1.0556,-0.9519,-0.3469,0.2593,-0.7133,1.433,0.46161,0.51074,0.41657,114.15428,-7.11034,157.88308
0.823,1.1849,0.8368,-1.4314,0.7752,3.0441,-0.04977,-0.27431,0.90198,-114.72352,-17.54128,95.9627
1.1172,-0.0878,-1.5525,-0.7655,-0.382,2.3166,0.5115,0.70682,0.58373,109.47854,4.15158,139.58193
3.0158,1.2346,0.6186,-1.5227,-1.004,1.3905,0.29453,0.114,0.97862,-142.91661,-82.02578,13.42055
0.975,1.176,-0.2504,-0.4663,-1.5175,1.711,0.03064,-0.22219,1.3463,34.23508,-25.74006,136.13483
2.3829,-1.3142,0.58,-1.5469,-1.448,2.9892,-0.1972,0.39369,0.56112,84.46353,-38.9394,145.75277
0.601,0.2885,-0.6139,0.0824,-0.9649,-0.7718,0.55598,0.19926,1.19733,-66.89258,44.95543,-34.74977
1.014,-1.0227,1.1692,1.215,0.8599,0.4375,0.22359,0.07525,0.73342,-36.89243,-40.62713,170.51316
3.0696,-0.152,-0.5801,1.2062,-0.9602,0.3109,-0.71786,0.20221,0.91404,74.30669,31.28027,-50.54082
0.8643,0.4133,0.794,-1.4078,0.8622,1.877,0.11353,-0.09811,1.01775,-79.54041,-50.1963,82.48231
0.347,-0.7567,1.2787,1.1404,-0.6563,3.0168,0.16036,-0.10157,0.7598,31.31067,-17.75061,-116.04446
1.7493,-0.3186,-1.407,0.9442,0.1602,2.6559,-0.00034,0.84697,0.44994,-97.92902,-64.31375,9.9441
0.6098,-1.4883,0.9431,-0.7024,-0.6977,-2.4578,0.3129,0.03556,0.60017,-34.82852,-60.7641,-133.43543
2.2465,-0.6764,0.2698,-1.142,-0.3698,-1.6994,-0.212,0.50438,0.79009,-28.63506,-24.76836,-31.75226
1.6905,0.295,0.4578,-1.4886,-1.2794,2.9143,0.13312,0.14972,1.12637,-62.68141,-54.97126,-114.35506
0.2415,1.1378,0.6433,0.0925,1.3947,0.641,-0.20234,-0.20437,0.99349,-177.03729,4.70456,156.21364
2.5398,-0.8624,-1.1016,-1.2561,-0.0865,2.648,-0.469,0.50413,0.15972,114.47688,11.21292,-124.57975
0.9366,-0.5291,-1.4449,0.6582,0.0632,2.6665,0.57236,0.52489,0.26578,-155.59586,-67.69501,25.1803
0.4315,-0.8015,-0.6511,-1.4049,0.755,-1.6248,0.72726,0.16966,0.39238,4.12736,-78.53491,-115.89207
2.9547,-1.5616,0.4233,-1.1801,0.7119,-2.6692,-0.3696,0.2226,0.4026,54.19437,-21.79471,-39.70515
2.9076,-1.4996,-0.8884,-0.26,-0.4041,-1.4975,-0.2681,0.21816,-0.08765,-160.29311,-8.7377,83.55586
2.9368,1.3205,1.3884,0.0046,-1.3664,1.4392,0.12112,0.1281,0.70668,-76.81304,-7.23273,-103.6884
2.7626,-1.4112,-0.8545,1.4997,0.33,-2.4822,-0.3043,0.2827,-0.04656,-127.57612,15.343,33.2224
3.0077,-1.281,1.4545,-0.5987,-1.3128,-3.0109,-0.0482,0.1579,0.68686,-29.01101,-63.57417,-12.17063
1.8056,-0.2683,0.3323,-1.0139,-1.3674,2.2574,0.05078,0.43268,0.98958,71.85689,-41.08949,146.81552
0.5436,0.6666,0.1788,0.4563,-0.5256,-2.204,0.10306,-0.11304,1.24048,23.45093,-6.83078,-75.91636
0.5287,0.3077,1.4058,-0.5016,0.3165,-1.5656,0.05947,-0.13903,0.76129,117.36651,28.15635,-55.40382
0.8232,-1.0504,-1.0295,-1.3995,0.5742,-2.4843,0.50562,0.32467,0.06901,126.54637,-56.53225,139.95268
0.5502,-0.2578,1.1987,1.0898,0.8484,0.8842,0.14712,-0.08579,0.8325,-83.69929,6.73201,164.26216
1.0067,1.1683,-0.3156,-0.2836,-0.9564,1.7347,0.05052,-0.20079,1.36851,4.99909,-13.15654,146.39598
0.8428,0.9942,-0.9091,-0.8094,-0.3813,0.3593,0.25768,0.06359,1.46578,10.11231,15.93309,24.59657
0.0146,0.7321,0.863,1.4923,1.1894,2.4842,-0.1088,-0.15165,0.97026,95.95031,37.89649,-17.3137
2.3209,1.3007,1.4073,-0.2817,1.3265,0.6233,0.16747,0.04038,0.70466,137.91702,34.57677,-84.95166
0.6841,-0.3221,1.0096,-0.33,-0.7872,-0.2512,0.21205,-0.02069,0.88173,9.84326,9.84228,11.5817
2.3539,-0.759,-0.8741,0.3555,-0.7905,-1.6662,-0.41781,0.63243,0.32752,-137.7294,16.69744,47.85532
0.9789,-0.7111,0.7722,0.3072,-1.1243,-2.2101,0.30365,0.18271,0.82224,-55.03085,-32.47724,-36.34222
0.3397,0.7498,-0.4027,1.0162,-1.1571,-2.4736,0.22745,-0.07876,1.37905,-25.77134,-52.99286,-61.51767
0.528,-0.8194,-0.0922,1.0486,0.7831,-2.1842,0.63581,0.19712,0.60472,-20.73108,40.39889,-60.61965
2.9296,-0.9519,-1.4704,-0.1517,0.4701,0.1219,-0.47652,0.25605,-0.01809,177.98536,67.92107,-10.08433
0.7745,-1.1274,-0.6179,-0.7527,-1.211,2.024,0.53878,0.31723,0.18682,152.85959,34.44495,111.81328
2.3373,1.1111,0.9599,1.4255,-0.778,-0.5678,0.24477,-0.03787,0.86952,-116.68426,-55.793,-159.37763
2.0572,1.4568,-0.7398,0.7686,-1.3371,-2.8181,0.23517,-0.12375,1.43965,20.31631,-47.45427,-27.82088
0.3298,-1.164,0.615,-1.528,0.2048,2.1094,0.4398,-0.00805,0.63302,9.28325,31.68984,58.15598
0.6642,0.9493,0.0097,0.4367,-0.5594,-1.7075,0.02131,-0.17388,1.2875,22.68881,-17.38915,-44.63943
1.4266,0.1743,-1.4153,-1.2479,-0.9428,1.5945,0.26925,0.81008,0.86734,96.53712,62.44534,127.32396
1.8661,-0.7815,1.1909,-0.196,-0.2675,1.3193,0.09895,0.19029,0.77189,-6.38568,-6.2258,172.2344
0.4386,-0.7696,-0.7456,0.9609,-1.2074,-2.4256,0.73583,0.17942,0.37509,-123.25714,20.16033,-14.26471
0.5547,0.365,-0.4993,-1.4283,0.6886,-2.56,0.48815,0.12594,1.25115,29.99312,26.17533,173.12206
0.6502,1.1065,-1.2205,0.4355,-1.1909,3.1328,0.29989,0.03956,1.48461,-8.25152,-74.00896,-110.13762
1.8098,0.5043,-0.9368,-1.1352,-0.8408,2.7095,0.00908,0.59657,1.26401,55.05236,-34.21821,165.05369
0.019,1.2628,0.0296,0.5775,1.1077,-0.0932,-0.27579,-0.15532,1.22149,-142.05453,-40.68925,168.53207
0.5786,-1.3527,-0.827,-0.2652,1.4649,-1.7055,0.4471,0.11281,-0.01337,-40.36224,-17.49775,-54.03309
2.141,1.563,-0.6012,0.8352,-0.9028,-0.0624,0.30941,-0.20453,1.36728,-37.96724,4.01608,147.34958
0.529,0.3139,0.9368,-1.5636,0.0103,-1.0293,0.08196,-0.1259,0.9603,57.7132,53.92027,-87.36386
0.834,0.8594,1.1331,1.2879,0.5511,0.6446,0.03026,-0.18996,0.84068,-124.48124,31.62299,153.00298
1.6066,-0.833,1.0798,-0.4384,-0.6144,-0.3246,0.14263,0.20989,0.77599,-1.39172,23.0526,49.89888
1.2825,0.0694,0.0254,1.5071,1.3678,-2.236,0.26046,0.35051,1.13356,76.737,31.8877,61.63844
2.8973,-1.3341,0.9365,-1.1496,0.0644,-0.1433,-0.24235,0.21505,0.64233,-21.36059,2.70375,92.09216
1.1061,1.4801,-0.1675,1.4905,1.5141,0.7153,-0.03311,-0.40087,1.23174,-94.01218,25.86806,-122.70131
1.4881,-0.7372,0.8273,-0.3132,1.5615,2.136,0.1744,0.28763,0.81344,-95.09302,30.69096,154.65872
1.0512,0.7506,0.3497,-0.4789,-0.0012,-0.7545,0.1005,-0.12651,1.18019,61.61561,-17.1375,-20.68833
0.3622,-0.716,-0.4227,0.55,1.5591,0.6529,0.73242,0.11707,0.5508,9.34089,-37.86284,62.21683
0.3136,1.0049,-0.3148,-0.27,-1.2146,1.9169,0.01992,-0.15128,1.38224,26.51439,-19.41126,113.86048
0.3389,1.3982,-1.0155,-1.1674,1.0001,1.5476,-0.01449,-0.16421,1.50536,-66.07821,-21.30322,43.55021
2.9067,-1.3454,-1.3417,-1.4203,0.5261,2.4222,-0.22555,0.20826,-0.14593,138.36545,-5.52018,-61.65039
1.6403,-0.2378,0.3918,-0.3877,0.0879,0.37,0.12375,0.38299,0.99992,-1.67711,-13.51703,93.01944
1.5985,1.4705,0.496,1.0193,-0.12,-2.4945,0.16005,-0.35873,0.95375,108.98273,-3.09739,-5.66657
1.9713,-0.7844,-1.1554,0.5904,0.1513,2.8406,-0.13515,0.70407,0.19213,-133.49998,-69.61383,59.64296
1.4094,1.3115,-1.3082,-1.2883,0.1964,-0.2557,0.16892,0.10379,1.52106,3.07334,-10.88658,-8.02283
2.8096,-1.4784,1.075,0.4392,1.0367,2.2997,-0.16666,0.21617,0.63104,-36.21272,16.39768,-52.62575
2.2144,0.9778,0.3088,-0.5855,0.1465,2.2949,0.22053,-0.04393,1.17047,-80.64558,8.86204,-146.3585
2.7242,1.2359,-0.481,1.3413,1.2291,0.4001,0.18805,0.08075,1.40805,-83.85142,-24.84987,-49.30906
2.0517,1.1575,-1.0891,-0.947,1.4007,0.738,0.05709,0.21495,1.49945,-78.2919,-50.33213,144.71052
1.3916,1.1916,0.977,1.1906,-0.0302,-1.8581,0.11048,-0.2319,0.84671,136.34987,-40.12007,-46.23498
1.2391,-0.0597,1.1319,-0.5366,0.4458,-0.7943,0.1619,0.00929,0.87038,83.61739,-17.54592,-29.88081
2.8818,-1.0149,0.2267,1.1797,-1.1946,-1.7532,-0.49141,0.28588,0.59512,-89.49125,30.51037,134.67481
1.4663,-0.4633,-0.8641,0.466,0.3771,-2.7111,0.23375,0.79017,0.56322,-52.009,-28.03054,-37.50847
0.2719,-0.4923,-0.8367,1.3082,-0.4192,-0.9257,0.81536,0.07155,0.55142,68.96323,71.12493,108.89432
1.0534,0.1495,-0.6307,-0.5098,1.1581,-1.0044,0.44936,0.48621,1.10951,30.49233,-32.64113,-27.67145
0.5392,0.1338,-1.0884,1.4399,1.3752,-0.5088,0.75672,0.27792,0.96242,77.43438,-4.75454,36.92456
2.8004,-0.6958,1.3236,0.2043,0.5631,0.5691,-0.03859,0.17293,0.75643,-57.62924,-45.18694,-127.04637
0.1659,1.1149,-1.4543,0.9687,1.2436,-0.3658,0.37294,-0.08969,1.45994,48.99573,-42.77457,13.0013
1.4372,0.0869,-0.2112,0.3189,-0.7092,2.2284,0.21583,0.47937,1.13526,39.54272,-28.70799,-141.36986
1.8251,-1.1322,0.4946,-1.2814,0.2779,3.08,0.03033,0.47978,0.61578,34.63419,5.28382,-145.72838
1.0724,1.5356,0.1314,-1.4944,-1.0328,0.7716,-0.06733,-0.43761,1.08209,88.53605,-51.17491,31.49294
2.0835,-0.9885,-0.7628,-0.87,-0.3217,-0.1985,-0.19231,0.64753,0.2137,-113.70671,22.70997,4.67074
2.0687,-0.546,-0.8772,1.0325,-0.2743,0.1767,-0.24981,0.77375,0.49103,89.74071,21.74481,-138.1199
0.5254,1.495,-0.5429,1.0453,-0.519,-0.9362,-0.19058,-0.28394,1.36936,-27.24594,-37.39742,33.08659
1.0865,-1.06,-1.4387,1.3096,-0.0881,1.2395,0.34404,0.33168,-0.06262,161.73483,-31.36096,102.98563
0.9827,1.0931,-0.4719,-0.224,0.4561,2.5606,0.10471,-0.11344,1.41824,-50.58907,40.86723,168.16617
0.6749,1.2957,-0.7165,0.5157,-1.0044,-0.2169,0.01407,-0.18093,1.45988,-22.96643,22.46081,43.08778
0.0261,-0.2515,-1.4973,-0.7275,-0.5225,0.796,0.84323,-0.12809,0.46794,-172.78568,58.37138,167.08384
1.4932,-0.5134,-1.2321,-1.2089,-0.2903,1.1376,0.21145,0.7838,0.36471,-154.23522,72.7978,-83.76503
0.8372,-0.4641,-0.5767,0.9433,0.7065,-2.035,0.6263,0.47069,0.67932,-27.01973,36.7948,-41.0248
0.9941,0.1725,0.6165,-1.0272,1.2194,0.9057,0.19845,0.0299,1.06458,-112.61493,-74.60253,114.95953
0.9977,-1.0345,1.4969,0.9623,-1.06,0.9989,0.15111,-0.04257,0.69616,28.1795,41.51925,168.42501
1.4682,-1.3281,-1.0495,-0.6243,1.0283,-1.9663,0.18898,0.37043,-0.07315,-81.01088,-46.30857,17.83126
1.8105,-0.2383,-0.4361,-0.5376,-0.7316,-1.8207,-0.02164,0.72055,0.8945,-74.6723,-32.51857,-15.19179
1.1142,1.421,-0.4454,0.4742,-0.3084,-0.7826,0.01047,-0.31902,1.3577,8.02412,-40.06478,39.22053
2.8095,0.7208,0.8915,-1.4242,-0.1457,2.043,0.15089,0.10668,0.95918,-91.9495,-54.2758,-99.18516
2.5997,-0.1734,-0.2599,1.1478,1.4789,1.193,-0.45811,0.45093,0.9807,-69.56319,-43.10987,-65.44457
0.3624,1.1002,0.5222,0.3291,0.7761,-0.1013,-0.16793,-0.22414,1.05469,-159.84091,-41.88887,-169.58733
2.8196,0.5593,1.3279,-0.6469,-0.7401,-0.0892,0.09556,0.1263,0.78588,66.21717,-45.70104,114.11869
2.7201,1.1971,1.553,-0.4941,0.0523,2.3658,0.08502,0.12632,0.68244,-160.65348,4.48902,-130.90528
1.7373,-0.5275,-1.1245,-1.5067,-0.9036,-2.4923,0.01508,0.81561,0.39921,97.08876,-35.59873,133.40774
2.6294,-1.1678,0.449,-0.866,-1.1951,3.1085,-0.33523,0.36062,0.58623,102.83924,-57.09514,-175.72688
1.0972,-0.9765,-1.2506,1.0689,0.4783,-1.1034,0.39418,0.44015,0.0345,-146.78009,64.03378,-106.76415
1.9579,0.8987,-0.0773,1.4738,0.7318,-2.1945,0.15157,0.02568,1.31872,61.26334,-17.14636,79.84541
1.2698,-0.3895,-1.4374,1.2094,0.5636,1.5088,0.38405,0.73104,0.37885,93.74511,-61.2656,129.47115
2.5466,0.1204,0.4585,0.0875,-1.2484,-0.6236,-0.08933,0.24165,1.09624,-27.17873,28.45091,106.40992
0.4758,-0.4729,-1.3921,0.3182,-0.2079,2.7181,0.77256,0.22929,0.33052,171.79773,-61.56081,40.76965
0.5366,-1.4146,-1.0426,-0.9425,-1.1778,0.8622,0.35554,0.03689,-0.10211,-129.79563,0.86948,-163.41811
0.5185,-0.1256,-1.0988,0.0633,-1.1109,2.0531,0.80521,0.28667,0.74524,138.49233,-22.77275,100.57826
0.5595,-1.5572,-1.3374,1.1465,1.0681,-1.5033,0.15741,-0.07847,-0.18359,-113.27268,16.43221,-124.52982
2.0785,0.5126,1.2221,0.5837,-0.2039,-2.5892,0.1569,0.02661,0.83317,89.56177,25.41085,22.49379
0.1339,-1.1225,0.413,0.6843,-0.7311,-1.8917,0.49956,-0.08411,0.59707,-76.74936,6.45756,-55.12377
0.7811,-0.3758,1.5142,1.4344,0.4581,1.1988,0.11851,-0.0938,0.71273,-61.94454,46.91986,-176.41806
2.849,-0.5211,0.1883,-1.4315,1.415,0.7159,-0.46873,0.29791,0.85834,-77.33844,-29.13229,161.60772
2.653,0.9965,0.4854,0.7229,-0.9394,1.6924,0.24148,0.04156,1.09291,-23.6193,44.33663,-105.01884
0.0662,-0.4181,-1.2487,-0.5271,-0.9348,2.743,0.8306,-0.09531,0.43491,139.93926,-11.86051,42.41154
1.8103,-0.7773,-1.3746,-0.8548,0.7114,-2.4808,-0.01022,0.6744,0.11498,158.3615,-86.44725,154.96242
0.257,0.6954,0.6152,-0.8658,-0.3411,1.418,-0.03972,-0.16559,1.07919,-40.51458,-53.52581,78.06061
0.1964,-0.3127,-0.0827,-0.2434,-1.4723,-2.7496,0.61374,-0.03088,0.92966,-135.22099,-66.65668,-50.44342
0.8578,0.4654,1.1179,0.9161,-0.7603,1.4574,0.08331,-0.13305,0.88051,-52.58579,47.49156,131.73332
1.8153,-0.4759,1.3213,0.5387,1.0835,1.0491,0.12763,0.10831,0.77566,-104.9758,-6.26993,-136.34537
1.2922,0.6396,-1.4848,0.4973,0.4978,-0.7111,0.33208,0.61535,1.20091,6.37093,25.50244,57.55761
1.6043,0.0139,-0.4418,-0.7727,0.9647,0.0463,0.12888,0.63408,1.06228,-22.51918,-34.36683,65.74574
0.8671,-0.0805,1.3605,1.0263,0.2059,0.4201,0.129,-0.07989,0.78036,-79.53544,-9.37047,148.198
0.4277,-0.8852,0.3666,1.5112,0.701,-2.5422,0.52179,0.07295,0.70256,-8.76277,46.30485,-49.31567
2.1878,1.2147,0.1023,1.0018,1.3259,1.3726,0.27417,-0.12715,1.20461,-130.37963,46.6047,-110.4824
2.6023,0.0382,-0.272,-1.5703,0.5888,-2.342,-0.39597,0.41185,1.10367,34.1507,12.14353,-67.23611
0.8027,1.2767,1.2549,0.4475,0.544,2.3654,0.01146,-0.2041,0.74279,170.36145,10.7355,67.94915
2.0574,-1.3622,-0.6652,0.1725,1.0227,1.4531,-0.08623,0.48387,0.04079,58.28064,-3.13588,-160.0948
1.8908,-1.2695,-0.7771,1.5021,0.9882,-0.7231,-0.0157,0.52436,0.04365,117.2979,63.99704,164.96
2.5818,0.4958,0.7006,0.2252,0.8944,0.9879,0.0921,0.11936,1.05406,-120.06746,-17.22191,-100.90875
2.3894,0.6095,0.8893,0.4749,-0.5658,-3.1278,0.15741,0.0582,0.97033,40.97915,44.73898,-8.99869
3.05,0.415,-0.7594,0.2519,-1.1417,2.82,-0.54397,0.20065,1.24552,68.02918,-75.40368,-60.76204
2.8314,0.9778,1.5409,1.0169,-0.133,-0.5372,0.07159,0.13462,0.69105,-164.25353,-37.42676,-52.73445
1.0087,0.9269,-0.8452,-0.7571,-0.4624,2.5864,0.25712,0.12666,1.44918,9.80588,-21.23905,161.5145
2.5148,-0.1655,-1.5644,-0.1351,0.5081,1.6145,-0.59963,0.61953,0.51224,70.18282,5.28723,-123.82258
1.8998,-1.4026,-0.8005,-1.1817,-0.1927,0.8111,0.00998,0.43517,-0.02545,-149.35906,42.07119,-42.98453
0.9161,-0.1792,-1.3243,1.0409,-0.2848,-0.7487,0.64091,0.58849,0.60365,104.97856,72.63142,170.88603
0.26,-1.0534,1.4697,-0.0574,-0.9212,1.4924,0.09417,-0.13022,0.69968,28.98009,0.84728,97.95901
2.9079,0.8851,1.304,-0.7575,-1.3445,2.4697,0.1225,0.12508,0.77228,-62.87873,11.39323,-49.15248
0.0446,-1.483,-1.4815,-1.3923,0.6835,-1.4747,0.10055,-0.14571,-0.18693,-138.42407,-6.34977,-12.01013
2.683,-0.3387,0.5323,-1.5113,0.8232,0.6017,-0.24213,0.28688,0.956,-21.04052,-45.10186,105.56943
2.476,-0.8945,-1.4282,1.4461,1.4514,-3.1347,-0.35708,0.47111,0.02531,-89.30594,-43.15517,-28.74397
0.3557,0.4925,-1.3304,-0.2772,0.5608,-0.1439,0.72249,0.10834,1.1498,-14.05845,12.57945,-1.72545
0.7479,0.0976,-1.0046,-1.2397,1.3932,2.1385,0.67561,0.42208,0.96395,-11.38071,68.40105,124.20087
0.0725,0.9096,-0.6536,1.1262,-0.2774,-2.1135,0.18586,-0.13695,1.4355,-1.14028,-16.16958,-54.09645
1.9172,0.2619,1.0664,-1.268,1.2567,2.7794,0.14019,0.05356,0.90702,-101.60788,-1.78323,132.28093
1.1947,-0.4299,1.1383,-0.1955,-0.0658,-1.2476,0.1862,0.063,0.83298,36.72616,-3.81636,-15.23177
0.1135,0.5821,1.44,0.2681,-0.7909,-2.0943,-0.0195,-0.15324,0.73917,71.29253,14.69142,-99.83228
1.3799,-1.1482,1.426,0.6596,1.2296,-1.9962,0.16216,0.04831,0.69883,83.02444,14.52717,22.86127
2.0727,-1.0883,0.5694,0.1783,-0.0909,1.6178,-0.07635,0.45101,0.65422,34.32031,-6.56902,-140.11624
1.7131,-0.8293,1.1078,-0.9607,1.3811,2.4384,0.12124,0.21178,0.77414,-88.09885,36.66868,135.66178
1.1454,-0.7949,0.3283,0.7693,-0.4302,1.6871,0.34912,0.40699,0.74012,42.73272,-22.83785,-158.37129
0.0516,0.9963,-1.3297,0.4257,1.2452,1.5696,0.40235,-0.12947,1.43569,-53.83294,-7.82227,116.10878
2.6823,1.3231,1.2648,-0.6411,1.5636,0.221,0.19063,0.07312,0.73384,130.95366,49.28673,-41.55752
2.7828,1.0755,-1.4654,-1.4059,-1.3738,-1.5851,-0.31073,0.27679,1.44342,-82.52815,-22.83323,-10.47328
0.8412,1.2295,1.461,1.2428,0.5311,-2.28,0.07054,-0.14622,0.69897,179.00238,-32.08519,-65.45976
2.1119,1.1379,-1.1363,0.0907,0.4389,-0.7728,0.02521,0.24936,1.49563,18.21008,-17.78078,79.05124
2.1094,1.396,-0.7559,-1.089,0.0021,-0.9672,0.21423,-0.06599,1.45549,33.46013,16.12373,7.88866
1.6935,0.5303,0.3723,-0.8823,0.6738,2.2958,0.14328,0.06415,1.1737,-80.02011,3.50425,158.35876
3.1067,-0.5522,-1.0447,-0.6853,1.1432,-2.0987,-0.79302,0.17782,0.41376,1.72831,-46.07043,48.66876
1.8109,0.9479,-1.181,0.7308,0.9115,-2.3262,0.05742,0.39643,1.43797,27.27918,34.55876,16.77297
0.2419,-1.5358,0.7742,-1.4651,-0.3285,2.924,0.35418,-0.06716,0.53879,48.02367,-8.46064,86.07088
3.1104,-0.563,-0.8963,-1.2546,0.4123,-0.1074,-0.79147,0.17482,0.46924,-76.82728,7.81182,113.04824
3.0427,-0.2332,0.9838,0.1504,0.2732,0.4392,-0.12494,0.16318,0.90166,-40.91087,-46.29144,-132.78315
0.1651,0.0252,1.0049,-1.2446,1.0486,1.0856,0.09559,-0.13619,0.92238,-82.2634,-82.04768,36.59496
0.9392,-0.4036,-0.8885,0.6552,1.1098,-2.4972,0.60398,0.57146,0.60152,-33.05908,16.12695,-80.01731
0.4564,-0.1444,0.1087,-0.6662,-1.3424,1.9496,0.48174,0.06936,1.04049,77.77849,-19.98848,82.48821
0.532,-0.9538,0.9575,-0.7199,-1.4151,-2.3871,0.30754,0.00691,0.75152,-76.8989,-45.87442,-110.27202
2.573,-0.5138,-0.818,-0.4969,1.3297,3.0706,-0.59365,0.5574,0.5421,27.44786,3.36762,-42.72607
2.5067,0.9918,1.5154,-0.6041,0.9019,0.5359,0.11798,0.09946,0.6975,152.58001,6.39016,-43.16006
0.9818,-1.2607,1.3873,0.6242,0.9111,-2.5386,0.17886,-0.00238,0.69153,45.74596,40.95635,-33.39474
3.1312,-0.272,1.0227,-0.8817,-0.2684,2.5445,-0.13465,0.15146,0.88541,-34.40037,-6.34578,-78.80907
1.1462,-0.2412,1.1022,-1.0467,-0.8277,1.9042,0.17999,0.03387,0.86548,-0.32758,-43.91009,132.96156
1.1915,-0.0566,-0.2135,-1.2087,-1.4995,-0.899,0.34892,0.47011,1.05813,-91.60781,24.0284,-91.30815
0.6488,0.6874,-1.3499,-1.154,-1.1859,-2.6011,0.58097,0.25225,1.27379,41.69815,-84.98689,117.23054
0.7985,0.6984,0.7503,-1.3325,-1.1187,-0.5216,0.04091,-0.17305,1.02221,72.41111,29.13255,11.97035
1.6119,-1.4889,0.3941,-0.902,0.5608,1.0265,0.13232,0.43423,0.4213,-14.03994,45.40173,107.75088
2.9822,0.7055,-1.032,0.0214,1.0341,-2.5584,-0.45646,0.22536,1.35429,24.87098,33.11911,32.80093
1.1441,0.425,0.5289,0.3813,1.0419,2.4708,0.1585,-0.01392,1.11623,-139.39002,61.54217,129.99277
1.4657,1.361,-1.5129,-1.0195,-0.6524,-2.6505,0.16761,0.15862,1.51792,-15.10608,-40.20379,-123.28733
0.3638,0.0223,-0.4047,0.8883,0.9913,-1.4179,0.62501,0.07741,1.0745,44.13324,10.81172,-13.81898
0.8358,0.745,0.2686,0.7633,-0.0572,-2.3242,0.0856,-0.12906,1.21015,55.71893,-1.7058,-43.69067
2.4384,0.3334,-0.0705,-0.3779,-0.317,2.0776,-0.14356,0.31842,1.23538,0.92137,-6.80779,-122.08285
3.0303,-0.5687,0.5848,1.0169,-0.5417,-2.0847,-0.35818,0.19101,0.87136,-26.84877,-15.17567,115.86765
0.7867,-0.6702,0.0236,0.8822,-0.6369,0.1172,0.54037,0.3293,0.73603,53.20613,46.27614,136.97772
1.6942,1.3649,1.0584,1.4412,0.9841,-3.0023,0.1749,-0.1911,0.78275,130.76075,-41.67665,48.31582
2.6005,0.4322,-0.633,-0.4661,0.3642,2.8702,-0.34967,0.38518,1.27177,2.18851,11.5312,-72.09684
2.0544,1.0834,0.5793,-1.4723,-0.8339,0.2348,0.23961,-0.13352,1.03394,89.33376,-21.13954,75.42621
2.3945,-0.613,0.9188,0.6333,1.439,-2.289,-0.07599,0.2749,0.84128,97.69413,30.58991,87.32812
0.613,0.4034,-0.1862,0.1044,0.2231,0.8085,0.35126,0.06362,1.26736,-19.64069,-16.09926,90.3799
1.5753,-0.8352,0.8935,-1.2561,-1.3878,1.6778,0.14877,0.28553,0.78393,78.34665,-9.18229,109.55552
1.7301,-1.3332,1.1414,0.3567,0.566,-1.9884,0.11581,0.22509,0.67217,18.89423,12.30986,6.60317
1.886,1.0206,-1.2511,0.2387,-0.6444,-2.8572,0.03596,0.37374,1.45565,-22.39203,-45.76829,-31.32984
2.5142,0.7646,0.0546,0.6555,-1.2231,-0.238,0.07999,0.12735,1.28041,-34.67337,19.09138,144.95917
2.4204,-1.3913,1.1997,1.3119,-0.3058,2.3433,-0.03554,0.23104,0.667,7.20419,-21.74972,-11.63306
0.0345,1.1666,0.0682,0.6845,-0.411,-2.1246,-0.22583,-0.15793,1.23037,52.40893,-12.96471,-96.5336
2.139,-0.774,-0.0034,1.2079,1.1952,1.8102,-0.21046,0.60849,0.66352,-55.25438,-30.09778,-75.17911
2.7395,-1.34,-1.564,-1.0699,1.4386,1.1045,-0.10754,0.20879,-0.17297,91.1787,38.62684,-51.88883
2.946,-0.8066,-0.4335,0.5687,0.6407,-1.665,-0.67101,0.28591,0.4811,-33.66947,27.72698,85.29802
2.9853,0.3698,0.946,1.0019,1.4511,-0.7846,0.03334,0.14665,0.95646,-143.85671,-52.87191,21.88418
2.5963,0.3002,-1.5204,0.5147,0.7313,0.937,-0.62752,0.55619,0.92876,35.85331,-8.5132,-143.0244
3.0398,-1.1991,-0.6394,0.9121,-1.1754,0.3159,-0.54969,0.20698,0.13572,131.93923,-14.64584,-35.55399
2.8238,-1.018,0.9659,-0.6512,1.5237,-0.9689,-0.2091,0.22674,0.7345,83.71666,-36.13754,38.0729
2.4137,0.7163,0.1979,-1.4412,-1.5064,1.3059,0.10277,0.1094,1.23501,79.81444,-36.88976,146.05688
0.0959,0.4199,1.1708,-1.2299,-0.7859,-0.906,-0.02329,-0.15298,0.85956,74.05169,35.95725,-50.88311
0.8037,-1.5009,-0.823,-1.5502,0.0523,0.2607,0.33796,0.13437,-0.06904,-134.60385,13.7127,-53.01162
0.6943,-0.8712,-0.4031,1.2783,-0.3966,0.5974,0.6316,0.33062,0.4482,80.40157,-12.20945,153.84623
0.2508,1.296,0.1713,0.7486,1.4634,0.2292,-0.26328,-0.22235,1.15223,-135.53079,-1.27736,-179.37288
0.5221,0.4945,0.309,-0.0804,0.6821,-0.4206,0.14708,-0.08849,1.19112,79.3173,-62.16327,-53.52871
3.138,0.2926,0.4259,-0.3798,0.8947,1.0759,-0.14395,0.15057,1.1348,-90.45072,-42.47985,-106.71068
2.16,1.0988,1.5282,-1.5227,-1.5254,-2.118,0.14357,0.05522,0.69053,91.863,60.79016,121.70696
3.1399,1.4384,-0.4413,-1.0852,-0.6583,-2.2444,0.2949,0.14955,1.35126,-35.68209,34.53259,-5.08422
2.8969,0.0461,-0.4755,-0.3602,-1.5198,2.1144,-0.57446,0.2981,1.07588,111.50224,-20.75313,-133.97253
1.8883,0.6228,1.3968,0.7636,-0.9629,-0.8519,0.15726,0.00208,0.75464,25.6342,-71.47745,45.01728
0.5916,-0.8134,1.2615,0.0191,1.386,-2.3208,0.18983,-0.05323,0.75604,110.07182,40.69896,-41.588
0.5371,0.5766,-1.368,-1.0088,1.4305,-1.5073,0.66396,0.22074,1.19629,51.87348,-39.90473,-104.55497
1.7174,1.1895,-1.2736,-0.7428,-0.3692,-0.7033,0.11671,0.23677,1.50119,-19.05155,16.3518,12.16974
2.2891,0.6833,1.5645,-0.1988,1.2461,-0.1226,0.12247,0.08789,0.68977,173.21226,21.47902,-37.53934
2.3398,-1.0442,0.3287,-0.455,0.8041,-2.8374,-0.25073,0.47486,0.61112,18.40326,2.42145,-47.19155
1.2274,0.9611,-0.3413,0.3241,-0.0804,2.6968,0.14565,-0.03832,1.3891,-2.74639,31.06615,-117.81816
2.9173,0.7605,0.2548,0.4088,-1.0816,-2.2886,0.07562,0.13665,1.21443,8.95267,-18.63977,46.36551
2.5226,-0.651,-0.2615,1.4064,0.5812,1.0621,-0.48101,0.5269,0.65827,17.28443,-52.41482,-98.68476
1.4067,0.8532,0.0156,-1.0775,-0.6564,-1.4333,0.1427,-0.05673,1.29148,-1.13069,42.91623,-48.95133
0.847,-1.351,-1.5603,0.3839,-0.3687,2.7098,0.22696,0.03022,-0.17462,-171.79943,5.94651,52.60768
2.3738,0.4717,-0.5381,0.7936,-0.4311,0.643,-0.2077,0.40908,1.29754,19.44718,19.82542,-137.65258
1.7202,0.9151,1.4295,1.5393,-0.7983,2.5452,0.15727,-0.03676,0.72684,147.40608,55.9593,6.63773
2.4012,-0.3789,-0.4972,0.1943,-0.0764,1.6732,-0.4494,0.61393,0.77293,53.36892,-13.26071,-121.70559
2.684,0.6411,0.7617,1.063,-0.5631,1.6394,0.13471,0.10092,1.02229,-32.82921,61.78269,-92.9795
0.0148,0.4643,0.9392,1.4546,-0.5812,-2.8537,-0.03408,-0.15057,0.95711,77.87869,-15.90995,-119.61718
0.1305,-0.2629,1.5138,-0.9267,-0.4874,2.6713,0.03286,-0.14702,0.71467,-56.97587,-1.50701,123.02306
2.2934,-0.3155,0.7544,-0.2585,-0.3871,1.2252,-0.04972,0.28328,0.93735,0.02218,-6.62189,-171.98268
1.5024,-0.6594,-0.8807,0.7819,-1.1756,0.5273,0.20256,0.76143,0.40025,130.21177,-5.39167,-130.36844
2.5226,1.0824,-0.4949,1.1096,0.0639,-0.5069,0.10322,0.1107,1.4238,-19.5052,-30.17535,-174.63111
0.0386,-0.0362,0.9555,-1.3472,-0.2093,1.7992,0.10618,-0.14606,0.93418,-19.32387,-48.13508,42.54481
2.3649,-1.1874,-0.9318,-0.0993,-1.3409,-1.8446,-0.2653,0.4711,0.02895,161.01723,0.19969,63.34099
1.2205,0.4128,0.7617,-0.2149,0.2226,-1.9139,0.14266,-0.04677,1.03046,78.09363,30.64007,-28.94581
0.6196,-0.9442,0.7933,0.9816,-0.645,-0.0772,0.36246,0.07423,0.7459,5.68307,41.97375,91.94081
0.0224,-0.0825,-0.4999,-1.3013,0.4123,2.5783,0.68798,-0.13467,0.9857,22.49786,26.91133,86.70058
1.2591,-0.979,0.4856,0.0287,-0.8444,-2.8132,0.28489,0.39493,0.68415,-54.72657,-66.41662,-49.54941
0.0289,0.372,-0.8104,0.9769,0.5904,0.868,0.60803,-0.13254,1.21113,-0.43058,-27.81949,101.27488
1.0159,-0.6705,0.2343,-1.2885,-1.5182,-0.2913,0.41159,0.3792,0.78631,-96.13237,49.14506,-110.47634
2.0139,0.2006,0.0938,0.5534,-1.0544,0.1588,-0.00047,0.35097,1.17698,-3.18713,46.50917,149.98393
1.6737,0.4789,-0.3071,-0.1883,1.1556,0.5232,0.11542,0.34308,1.29972,-61.90345,-58.82901,151.1727
1.7507,0.0981,-0.786,-0.312,-1.0284,0.6062,0.01887,0.7348,1.03483,106.74909,65.66795,-169.7116
1.3497,-1.4832,0.8083,-0.4294,0.2795,0.7421,0.21732,0.28264,0.56614,2.00387,24.80389,97.94242
2.5779,-0.6844,1.3415,0.7027,1.042,0.7284,0.00674,0.17325,0.75313,-90.19046,-25.01432,-88.29834
1.3544,-1.2317,-0.6114,-0.8624,-0.595,2.3736,0.26551,0.50892,0.12893,126.28106,14.07923,146.40703
0.4767,1.5459,-0.1361,-1.2196,-0.7158,2.1508,-0.29741,-0.32247,1.19275,-61.54055,-43.82637,137.74721
2.6938,-0.9235,1.13,-0.7887,-1.3689,0.9214,-0.10785,0.21827,0.75416,67.81785,26.51697,-173.57259
0.5618,0.7766,-0.9176,-0.4687,0.0023,-1.0333,0.40896,0.08012,1.39912,-7.94656,0.4867,-53.89909
2.1561,0.0591,-0.4474,0.5016,-1.3172,0.5229,-0.21376,0.59413,1.0893,97.84823,49.24201,-112.64398
3.0201,-1.3157,1.0755,0.9513,0.2886,-1.8122,-0.21151,0.17699,0.66858,5.50587,12.85611,122.71436
2.2527,-0.2035,0.5344,0.9151,0.9629,0.1606,-0.07372,0.32888,0.99953,-46.39771,-56.80718,-134.84521
1.4508,1.0362,0.4928,0.6785,0.6934,-2.1328,0.12376,-0.22702,1.08171,118.31883,-11.3976,13.99058
0.3088,0.5717,-1.0936,-0.8816,-0.2457,-3.1391,0.61341,0.03818,1.26966,26.66013,-31.2862,136.75429
2.9603,0.1421,-1.2733,-1.0602,0.7814,-2.6798,-0.78623,0.29667,0.89838,48.78287,-21.37736,-31.5884
2.176,-1.2781,1.2596,0.9332,-1.5133,1.2068,0.03642,0.21109,0.68975,87.16632,19.98031,-92.86923
1.5839,-0.2211,1.484,0.9287,1.3536,1.7296,0.14983,0.01791,0.72734,-149.22829,55.06724,-169.32677
2.0952,-1.0205,-1.1183,-1.1617,1.3831,-0.5025,-0.15996,0.57622,0.05438,-76.61372,8.36701,99.84672
0.528,0.0269,-1.375,-0.2868,-0.521,0.9407,0.81612,0.30228,0.75901,115.22366,49.97463,131.66883
0.6831,-0.0028,-0.5487,-1.077,0.8151,-2.414,0.61852,0.30989,1.02777,40.07676,1.65536,-148.66539
0.268,0.5543,0.3676,-1.111,-0.3669,-1.9132,0.07385,-0.13533,1.17622,-10.89944,45.28232,-153.40466
2.1407,-0.7695,0.8801,0.4095,-1.491,2.3193,-0.02617,0.31895,0.8028,76.49173,-39.53437,-114.85653
2.7454,1.0621,0.4892,-1.4736,1.0904,2.3658,0.2618,0.05313,1.07767,-95.83449,-40.72993,-171.16877
1.3208,0.0275,1.417,1.2763,-0.2952,-3.0521,0.14683,-0.03147,0.75823,78.06979,8.8034,-32.69901
0.3007,-0.2864,-0.0135,-1.3467,-0.7601,2.4799,0.58043,0.0229,0.95638,45.6026,-22.32598,65.8453
0.4014,1.3603,0.8938,-0.4672,-1.1492,1.8455,-0.17836,-0.23871,0.83722,-67.95144,-5.91489,136.90343
0.9904,0.6001,0.0041,-0.9482,0.3387,1.4489,0.19553,0.02455,1.28256,-38.26618,-31.96001,91.66492
0.3799,-1.0033,-0.4337,-0.8682,-0.4891,-0.7157,0.67114,0.10641,0.3452,-100.55508,-1.28081,-89.38556
1.1772,-1.5393,-1.5377,1.3196,-1.3926,1.2305,0.14671,-0.03796,-0.19197,-102.05449,-22.6924,85.87476
1.1792,-0.8131,-0.7325,0.2495,0.241,-2.1278,0.4169,0.61648,0.34875,-74.53169,-16.53526,-30.43493
2.5197,1.3017,-0.6528,-0.861,0.1473,-2.4289,0.19305,0.04624,1.44439,-1.2254,43.07264,-46.80494
0.9495,-1.3402,0.3865,-0.7724,-1.4297,0.8118,0.39128,0.28881,0.48477,170.45246,59.73936,170.61464
1.4873,-1.4926,-1.4348,-1.0132,0.7403,1.2946,0.15834,0.0928,-0.1849,134.15657,22.08023,-116.19381
0.4711,-0.6514,1.3455,-1.5457,-0.5516,-1.1132,0.14185,-0.09614,0.75491,-5.73342,48.21188,-116.26304
2.8257,1.3008,-0.4701,-0.6802,1.5442,-2.8347,0.2272,0.08361,1.39416,-157.13315,52.88978,140.62585
0.0522,1.4661,0.7084,0.7322,1.1016,-1.9444,-0.31361,-0.16664,0.87285,-179.08546,-36.59402,-88.12709
2.6502,-0.7846,-0.5273,0.7201,-0.5415,2.7642,-0.57122,0.47589,0.45767,-116.25831,-69.46897,106.76664
0.0123,-0.5038,1.5647,-0.9031,-1.0994,-1.8261,0.01303,-0.1499,0.69185,-26.87771,37.97431,-139.07183
2.8543,-1.3515,0.1346,-1.545,-1.4591,-2.8518,-0.44275,0.28728,0.38097,88.95486,-36.91116,170.68142
1.5306,0.5381,-0.1434,1.3161,-0.8535,0.9178,0.15891,0.21727,1.29954,22.08594,42.80658,-145.39367
2.409,-0.7915,-1.5281,-0.4685,0.0525,0.2414,-0.35013,0.5168,0.05582,-166.36388,48.37506,-22.21648
2.2783,-1.3854,0.4273,1.461,0.1278,1.8364,-0.17488,0.43536,0.47914,-18.82792,-52.06971,-35.04574
2.5723,0.7233,-0.3199,-0.0467,-0.6967,-0.7816,-0.06471,0.21956,1.36273,-11.27975,12.61216,99.04315
2.2951,-1.5574,0.606,0.9541,-0.382,0.0368,-0.13222,0.37591,0.47422,62.16716,38.9391,-137.80777
1.9436,-0.1744,-0.5815,-0.5572,1.5617,-0.3104,-0.12841,0.74029,0.89718,-11.96493,-52.99694,85.36201
0.8616,-1.4553,0.0715,-0.5243,1.4453,-0.2936,0.42503,0.26488,0.30324,-27.33585,-12.53256,30.81898
3.1022,-0.2991,0.9635,0.0425,-1.0731,1.3566,-0.15633,0.15633,0.89706,22.66672,6.32285,-101.65501
1.5855,0.6623,-1.2391,-1.4796,-0.3585,-1.6563,0.14131,0.59515,1.28823,-20.89409,-34.76294,-88.3834
2.7307,-1.0617,0.5577,1.1286,-0.8748,2.6356,-0.34047,0.31201,0.66309,1.15637,-66.23933,24.46547
2.3189,1.4538,0.6388,0.4756,1.1048,2.5043,0.33722,-0.14278,0.90305,157.5016,9.0104,154.46679
1.6423,-1.0843,1.5352,0.3828,-1.0376,-2.3806,0.14738,0.04262,0.68762,-18.84648,-31.65239,-19.97632
2.7537,-0.0991,1.4713,0.8588,0.9915,2.3757,0.04715,0.14283,0.7342,157.48266,62.39835,177.21154
2.2678,0.0194,0.6185,0.3303,1.121,-2.4045,-0.00748,0.24269,1.03918,101.25661,35.95755,63.80576
2.6357,0.4545,0.3177,-0.8795,0.065,-0.9159,-0.01584,0.18031,1.18489,46.24091,7.33239,50.10314
0.2154,0.3252,0.1336,-0.7683,-0.6357,-3.0612,0.26275,-0.09611,1.20592,-19.86263,-14.5057,161.27291
0.625,1.2828,0.904,0.4657,-1.4047,-2.6426,-0.10807,-0.263,0.85293,46.27925,25.51998,-111.09403
1.2247,-0.7821,-1.3825,-0.9615,-1.1024,-1.1708,0.36262,0.56325,0.10909,-179.82499,-47.48076,-13.17439
0.3315,-0.3315,1.4419,1.0943,-1.0508,-0.8001,0.07765,-0.13196,0.74133,-49.86229,-26.40785,17.61955
0.534,-0.0908,-1.4682,1.1677,-0.968,1.1729,0.81839,0.3096,0.61747,119.02029,-49.28805,150.80144
0.0528,-1.4346,-1.2001,1.5176,1.2778,2.9776,0.25807,-0.13662,-0.14333,-123.78943,-65.8207,-134.63659
1.4071,0.7044,0.4062,0.9333,1.4234,1.8244,0.14009,-0.07263,1.16141,-145.27102,55.7742,-175.71562
1.0711,-0.4352,-1.0684,0.6929,1.4824,2.1621,0.5264,0.65112,0.49853,-24.70658,-31.97941,-164.3548
2.2549,1.2192,0.456,1.1923,0.9517,-0.1121,0.29504,-0.12438,1.0524,-111.70183,-13.3542,-81.35093
2.9471,-1.4471,-0.2133,-0.3896,-0.1388,-1.8301,-0.44345,0.24029,0.18447,-105.61826,-36.61553,85.23727
1.1302,0.1949,-0.8266,0.8835,0.2983,-1.1265,0.43212,0.56463,1.09194,5.63697,27.6527,48.00499
1.8508,1.343,0.2892,0.3553,-0.9637,-1.3375,0.23671,-0.28021,1.08624,33.64203,-28.22135,26.58188
0.7853,0.8711,0.0563,0.7675,-0.9687,-1.7444,0.06704,-0.14515,1.27746,-4.90205,-35.18647,-26.88778
2.3045,-1.4926,-0.3268,-1.4948,-1.5695,2.9597,-0.18806,0.43266,0.11543,94.66352,24.62779,132.98393
1.549,-1.1489,-0.5896,-0.8835,-0.4579,-1.2729,0.16307,0.59576,0.1858,-121.72319,-35.83979,-3.5445
0.0306,1.3238,0.8568,1.2836,-0.8929,0.0252,-0.25531,-0.15794,0.85987,-102.5523,-34.86964,49.61759
0.4712,-0.6462,-1.0181,1.4397,0.4613,-0.2558,0.75666,0.2171,0.35129,91.60747,23.7479,91.44955
1.1879,0.8419,0.8482,1.3972,1.4649,2.8559,0.08555,-0.18921,0.96268,100.72755,10.33765,65.07766
0.6946,-0.4632,1.5478,1.0464,-1.0253,-0.3911,0.10682,-0.10631,0.69861,-51.20179,-7.74621,52.88348
1.7277,0.8841,0.791,-0.3378,0.8886,1.0705,0.17287,-0.13243,0.98099,-159.92881,-32.29292,-140.41152
1.0514,-0.7372,-1.2881,-0.6375,-0.5212,-2.0341,0.47708,0.53211,0.17376,-170.37054,-41.33981,19.68168
1.142,1.2172,-0.1295,1.5351,0.653,-2.0232,0.04357,-0.26559,1.29547,62.19674,-41.4236,35.0646
2.9855,0.9559,-0.5381,1.0883,0.1954,-2.4471,-0.06799,0.1626,1.42743,30.56652,2.7643,96.08798
2.5645,0.1967,0.8488,1.1372,-0.2131,-1.613,0.03152,0.15852,0.99032,26.45306,-50.70531,100.72374
2.5199,-0.9273,1.1082,-0.3763,1.5273,-1.6687,-0.07629,0.23925,0.75479,97.24268,9.35618,33.84711
0.6687,-0.8037,-0.0571,-1.2896,-1.5162,2.4984,0.59549,0.27928,0.62703,100.09768,-5.33795,50.3946
2.788,-0.0136,0.5018,0.3894,-0.6472,-1.9325,-0.17991,0.22635,1.05684,-6.56963,-13.44322,68.73031
0.135,0.4113,-1.3349,-1.3122,-0.0673,0.0532,0.76586,-0.0474,1.08862,-52.17457,16.54467,-74.40789
1.6415,-1.1364,0.015,-1.3099,0.2443,-1.9798,0.10874,0.58863,0.44943,26.25666,-57.81327,-100.75858
0.776,1.385,0.5296,-1.1837,0.4122,-2.8309,-0.133,-0.34076,0.96976,-120.31199,26.61588,95.22032
2.5335,-0.1348,0.7499,0.0373,0.4647,1.6458,-0.07456,0.23473,0.97817,-61.73819,5.0205,-121.06163
2.7446,0.4396,1.4731,0.9797,0.4522,-0.3659,0.07911,0.12954,0.72994,-130.85607,-35.73732,-60.59479
2.1132,-0.5868,-0.0848,0.3682,0.2074,-1.2277,-0.20399,0.62914,0.75814,-19.16783,20.35253,66.91069
2.7707,0.9815,1.3185,0.84,0.5196,0.4157,0.14343,0.10522,0.75824,-146.37988,7.56492,-81.52561
1.0922,0.0193,-0.5901,0.4433,0.5352,-0.9342,0.44732,0.53636,1.03254,8.49384,10.41687,31.54277
2.2177,1.4949,0.9733,-0.9876,0.8284,-2.636,0.27187,-0.11098,0.7775,-141.48717,-2.79059,140.20065
1.2228,-0.7566,0.8737,-1.1637,-0.1768,2.3748,0.2378,0.21553,0.80663,0.71716,-9.63867,139.93729
2.7853,1.5389,0.927,0.5024,-1.0152,-2.0166,0.30738,0.04571,0.77918,86.86574,7.97656,44.96442
2.0781,-0.4297,-0.8677,1.2925,0.1989,0.7555,-0.2642,0.7842,0.58898,68.75265,-29.00394,-151.81246
2.5527,1.3559,0.1529,1.0069,0.7713,-0.5206,0.3641,-0.06276,1.14071,-122.19427,-52.08008,-58.75538
1.3996,-1.4552,-1.3182,-1.4185,1.5523,-0.0786,0.17959,0.158,-0.16726,-85.01393,64.5569,76.16867
3.1248,-0.2418,-0.5651,0.5038,0.8085,-2.4167,-0.74248,0.16254,0.85247,-13.1707,16.18474,58.86315
0.3164,-0.9093,0.5977,0.1317,1.2056,2.4642,0.44295,-0.01287,0.73589,-39.84515,35.65927,152.0949
2.593,-0.5695,1.3636,-0.3647,-1.4976,-1.5942,0.0186,0.16449,0.75614,-42.50812,13.83343,42.5646
0.1929,-0.7327,1.4359,1.1051,1.1647,-1.7411,0.08495,-0.13629,0.7255,87.8052,-25.54603,-22.7826
1.7676,-1.3176,-0.7635,0.9638,1.3716,0.664,0.05427,0.49521,0.02517,66.96657,0.74083,129.93292
0.4364,-1.3651,-0.0468,-0.0477,0.9837,1.115,0.53266,0.08286,0.29741,21.14891,12.9898,90.30436
0.6965,1.5254,0.3401,1.2383,-0.6124,-2.3272,-0.21018,-0.37139,0.99719,93.58427,-21.58281,-84.38823
0.797,1.4621,0.0438,-0.1036,-1.371,-2.8824,-0.16015,-0.37862,1.14934,-3.80485,8.94126,-120.56798
0.0085,-0.8934,-0.077,1.4837,-0.3799,2.0059,0.63964,-0.14462,0.56257,-10.91386,-59.51936,-141.68564
0.7457,1.306,-0.9279,-1.1227,-0.2713,3.1339,0.08158,-0.12891,1.49737,-19.48497,-5.5967,161.58686
0.138,0.2985,0.8825,1.1886,0.1838,-2.0692,0.04145,-0.14573,0.98168,68.01401,-33.95258,-59.10935
2.0994,1.3549,-0.6989,0.8973,0.0854,-1.2402,0.20763,-0.05799,1.44816,19.47276,-36.57921,95.46238
0.1148,1.5601,-0.2075,-0.7351,-1.3883,0.6984,-0.39265,-0.19632,1.2169,36.39138,-21.01595,30.84996
0.5719,0.2748,0.8198,0.1688,1.0074,-1.7676,0.11581,-0.1039,1.00498,119.73571,1.19441,-47.13666
2.0366,1.5516,-0.8734,1.0058,0.122,-0.6172,0.24492,-0.15312,1.45253,-14.1323,-40.98491,146.36768
0.0574,0.0994,-1.0438,-0.846,-0.5295,3.1243,0.79869,-0.1044,0.95137,69.25579,-48.50941,86.23571
2.4742,-0.0407,0.0497,-1.0802,0.4721,-3.0962,-0.25889,0.39505,1.08623,0.83012,27.28414,-97.43686
0.817,1.457,-1.1855,-1.3792,-0.0971,-2.8108,0.07709,-0.13712,1.52226,-15.25361,2.59335,167.13965
1.7989,-1.4809,-0.7972,1.2515,-1.031,-1.1142,0.06616,0.37856,-0.05423,127.24712,27.13444,-72.63929
2.9152,0.8227,-1.3736,0.2559,1.1209,-1.1498,-0.48967,0.26677,1.34562,33.80463,-5.89094,109.63139
3.047,-0.2405,-0.6875,-1.4019,-1.5297,2.8466,-0.75952,0.22278,0.81157,96.72883,-20.4231,179.94515
2.0493,-0.4192,0.7917,0.2993,0.9045,-0.7999,0.01524,0.29649,0.90565,63.43468,-47.47023,61.71686
3.0058,-1.5296,-0.0488,-1.3602,-1.523,0.0959,-0.42497,0.20951,0.21681,-102.13012,5.50982,-6.25528
1.5191,-0.8858,0.7747,-1.0813,0.7389,-1.7022,0.16748,0.33303,0.76432,39.66049,-0.82273,-70.58584
0.8925,1.1498,-1.414,0.0224,1.256,-1.0829,0.31061,0.14631,1.47744,53.60045,-22.78089,-21.47312
2.5163,-0.6107,0.2971,0.3106,-0.2918,1.2942,-0.32265,0.41799,0.8287,34.10051,3.48859,-121.97613
0.8779,-0.3095,-1.3476,0.5531,1.5625,-1.2788,0.65184,0.55024,0.48287,4.14489,31.87415,-23.05539
2.103,-1.477,1.1015,-0.6208,-0.1536,-2.0096,0.01884,0.26372,0.6362,-19.24804,-22.26155,-27.38234
1.0189,-0.2556,0.72,-1.1404,-0.9098,-1.4082,0.25493,0.12785,0.95782,-36.60941,29.82492,-86.26273
0.9561,0.2937,0.4867,0.1784,1.0768,-0.1286,0.19406,0.01471,1.11797,-179.6896,-74.17638,-116.1963
0.0849,0.1682,1.1516,-1.4467,1.3244,-2.3962,0.02516,-0.14845,0.87103,-96.07763,58.25951,15.14624
0.9794,0.9944,-0.0429,-0.4686,1.2419,1.2896,0.06631,-0.1704,1.30104,-127.5235,-34.812,140.21338
1.3586,-0.8808,1.0997,0.6456,1.3549,-2.1017,0.189,0.1648,0.76471,87.53106,22.8859,22.90885
1.6022,0.7331,0.5474,0.0116,0.2055,3.042,0.15271,-0.0823,1.10383,-46.09373,82.98386,-134.37346
0.9755,-0.3442,-1.0116,0.1363,0.7141,1.3894,0.59116,0.60529,0.59841,37.30971,-1.36523,139.24416
0.0484,1.0924,-1.1143,0.7457,0.0465,-0.4706,0.23552,-0.13882,1.48641,1.54909,-1.16668,18.49962
1.8542,0.0851,1.5252,1.3231,0.6913,0.2729,0.14463,0.04001,0.71176,-100.81393,5.94593,-125.90955
1.6896,-0.0811,-1.2615,-0.8921,0.7709,-2.5378,0.04759,0.86733,0.71476,38.29766,-41.43743,-91.10359
2.1805,-1.1465,-0.4764,-0.0356,-0.4284,-2.2305,-0.2251,0.58431,0.23556,-124.25104,-34.83497,55.23133
2.0457,1.3453,-0.3916,-0.0242,-1.4799,0.5523,0.24495,-0.14827,1.35912,17.96572,24.66053,152.31466
2.6814,-1.3825,1.5413,-0.4152,1.5353,1.6073,0.03744,0.14891,0.67724,-96.29259,-1.57831,-140.11933
1.4638,0.1836,0.6551,-1.1224,-0.0384,1.677,0.16168,0.10026,1.05439,-28.27443,-39.4227,126.83929
3.0226,1.3058,-1.0044,-0.2192,-0.4614,1.2751,0.01355,0.1495,1.50692,10.2134,-0.7718,-125.52931
0.1215,-0.9992,-1.5056,-0.6577,0.4494,1.763,0.48872,-0.09149,-0.05057,122.10638,12.07019,122.54659
0.8164,-0.2758,1.3288,1.5304,1.504,2.3327,0.14381,-0.06608,0.78561,90.47105,76.09499,42.76324
0.4035,0.4491,-0.9297,0.9752,-0.2876,2.4385,0.61681,0.10018,1.2328,2.32143,-38.97972,-138.67919
0.0841,-1.341,-0.1472,-1.2055,0.3189,-2.7891,0.54109,-0.10497,0.26677,76.06914,-37.90518,120.83666
0.3951,0.4576,1.0052,-0.9951,1.0103,2.1167,0.02109,-0.15378,0.92932,-117.92198,-31.06005,77.07033
2.9844,0.8618,-0.9931,-0.2541,0.8802,-0.1418,-0.32989,0.20421,1.425,5.0172,-42.94549,147.20132
1.1877,-0.9974,-0.8381,-0.4505,0.5168,-0.957,0.38053,0.5428,0.17653,-78.18834,9.5558,-7.2724
1.6514,-0.3957,-0.908,0.8192,0.3417,2.5035,0.08352,0.8297,0.59978,-27.95524,-57.90237,-69.41228
0.5078,0.6577,0.8551,-0.9922,-0.7387,-1.9569,-0.00408,-0.17399,0.98108,3.20801,65.72674,-109.20179
0.46,-1.1429,0.6922,0.7225,0.1228,-1.4377,0.41208,0.03671,0.6588,-10.55534,18.29441,-17.38291
1.1159,-0.6063,-1.2985,-0.3375,-1.0125,-0.8536,0.46701,0.6133,0.26504,-159.26553,-6.20772,-59.83077
0.2511,-1.0371,-1.0108,-0.5675,1.325,-1.7435,0.61258,0.00223,0.08376,-41.09664,-35.32828,-67.77302
1.8768,0.1662,1.4099,-0.1646,1.1353,0.3749,0.1449,0.03943,0.76127,179.88185,-26.28103,-91.80494
1.8307,-1.2728,-0.2709,-0.6622,0.4757,0.5144,0.00136,0.57876,0.25047,-27.01775,64.38653,93.16882
0.4233,-0.7038,0.9695,-0.7382,0.2817,-2.0375,0.27626,-0.04011,0.81438,20.51739,21.25066,-132.37519
0.2025,0.2454,1.336,-0.9772,0.1718,2.7339,0.01732,-0.14962,0.79245,-96.18504,10.11364,92.31876
1.2907,0.1432,-1.4416,0.4929,0.9893,-2.9227,0.37883,0.77416,0.83007,-30.12862,-7.84596,-79.35525
1.3375,0.6413,-0.0126,-0.4405,0.003,3.1074,0.17107,0.07086,1.29132,-18.42317,31.70142,-135.86128
1.8646,-1.5059,-0.0759,-1.3602,0.3181,2.9435,0.01054,0.48331,0.21589,86.85137,-0.32058,-145.31137
0.3534,-1.2099,-1.2214,-1.1403,1.1224,0.7879,0.4447,0.00411,-0.07277,119.09548,80.11637,-165.75444
1.806,0.272,-1.4309,-1.5089,0.2621,2.287,-0.04511,0.83214,0.9421,54.53964,46.22426,-177.33904
0.956,0.1456,0.1678,1.3555,-0.0301,2.5622,0.30335,0.16948,1.1515,13.66459,11.30497,-79.66479
0.8122,0.647,1.0683,1.1258,0.0267,0.2296,0.04996,-0.16541,0.89003,-99.13619,-11.98266,139.84573
2.5561,-0.0283,0.1725,0.6832,-0.2842,-1.3504,-0.24184,0.34039,1.08985,-10.74595,-2.93748,107.76082
0.7845,-0.3051,-0.2357,1.1965,-1.4162,2.2721,0.56714,0.35411,0.90185,98.52378,-68.64422,-165.92395
1.6944,-0.2922,-0.222,1.4803,-0.2034,0.0741,0.06956,0.65714,0.91342,30.88729,10.51813,-167.87533
0.2204,-0.1036,0.3169,0.2458,-1.0132,0.6397,0.38206,-0.06817,1.05349,29.35594,37.51082,71.96256
2.367,1.292,-0.0951,-1.0022,-1.093,-0.7399,0.30201,-0.08561,1.26357,40.08968,36.7408,81.51095
0.3238,-1.2949,-0.4837,-0.1324,-0.8817,-2.247,0.55584,0.02827,0.14741,-162.58438,-22.77151,-32.84665
1.9425,1.1107,-1.5083,-0.8262,0.1978,-2.4105,0.00264,0.40636,1.44898,9.57293,-14.28627,-73.69282
1.1711,-1.4028,0.3363,1.0838,1.0483,0.2001,0.31725,0.3654,0.43698,50.2055,-21.33201,101.42346
0.7366,0.3268,-0.914,-0.4325,0.6143,-0.9695,0.59346,0.33563,1.15867,-4.39961,-13.32063,-33.37547
1.3516,-0.0957,0.4782,-0.1476,-0.8452,-3.0129,0.20897,0.24799,1.03874,-7.1624,-25.99552,-100.63612
1.6891,-0.9721,-0.5868,-0.6603,0.9627,-2.2727,0.06929,0.68835,0.29997,5.14016,-48.88139,-48.25767
1.5167,0.0521,1.0171,-0.1958,-1.1208,-2.2461,0.1532,0.05416,0.91974,-8.81803,5.52885,-47.37149
2.6787,-0.2643,-1.4846,-0.4001,-0.6467,1.7263,-0.68297,0.50854,0.46255,135.8018,16.45219,-119.14182
1.9943,0.6894,0.4686,-1.2608,-0.1452,2.6795,0.15907,0.01225,1.13831,-63.52571,-11.14976,-152.4219
2.4295,-0.0821,-1.2141,-0.153,-1.4549,0.2785,-0.54652,0.66996,0.73397,-177.69607,23.8946,-56.97892
2.8062,1.3346,-0.3514,1.4965,-0.6541,-0.7417,0.2827,0.06037,1.34791,-59.37653,-20.37342,-164.5382
2.5055,1.4489,0.6775,-0.4596,-0.9644,-1.8219,0.35062,-0.0724,0.88992,66.46973,35.49005,62.03803
2.8717,0.0346,0.909,0.2414,1.3807,-2.6393,-0.05043,0.16964,0.95662,141.88792,32.82929,127.41924
0.6802,0.7629,-1.462,0.4017,0.54,-2.0414,0.56514,0.26419,1.28766,-12.6747,9.92416,-60.21432
2.7817,1.4426,0.7735,-0.0683,-0.8661,-1.8269,0.33548,0.03409,0.8566,76.81688,17.43378,68.41877
0.8629,0.6974,0.3397,-0.4224,1.4312,-0.7855,0.0942,-0.1207,1.18629,135.97992,-10.59381,-86.35364
2.2583,-0.5953,0.762,1.519,1.2866,3.1037,-0.07816,0.33163,0.85888,25.79268,72.66637,60.5508
2.3218,1.5514,0.8909,1.1672,0.5266,1.6022,0.30423,-0.10602,0.78616,166.82627,35.90571,160.01713
0.9552,0.5558,1.4582,0.2016,1.198,-1.1696,0.10404,-0.11276,0.73282,-171.78573,-7.84259,-63.42099
2.5464,0.6089,-0.3689,0.4578,0.8489,-2.7664,-0.1405,0.27634,1.34305,40.84337,50.43732,36.41765
2.456,-1.1698,0.2765,-0.9947,-1.0153,-2.0968,-0.30573,0.44392,0.52914,-95.26408,-70.88279,10.22845
2.9494,-1.0602,1.2028,-0.3898,-0.1729,-0.6652,-0.13796,0.17971,0.72541,0.99397,3.75165,108.84168
0.6647,-0.5035,0.9343,-0.8409,0.3348,-3.0511,0.26284,0.01534,0.86431,-18.67871,35.97097,165.74069
0.9292,-0.7759,-0.7737,-0.1556,0.3491,-2.3189,0.56329,0.50332,0.35827,-57.8667,-47.73043,-58.43526
1.3311,0.4803,-0.3392,0.4658,1.3828,3.0784,0.22703,0.29691,1.3017,0.12356,86.46846,-77.37417
0.6397,-0.0213,-1.1017,1.3276,-0.6558,-2.0186,0.75523,0.37492,0.8313,-74.72509,36.85595,-6.78359
0.3336,1.1324,-1.1924,-1.2058,-1.1047,1.5464,0.26593,-0.06665,1.4926,64.48261,4.47272,39.458
2.5539,-0.6051,0.6175,-0.9303,1.3018,1.0511,-0.22479,0.33006,0.85822,-72.76237,-29.23074,174.56444
1.0921,-1.0708,-0.9638,1.0203,1.3411,0.1423,0.40224,0.44934,0.08157,66.95369,25.37526,79.71254
1.9899,-0.0995,-0.2675,-0.443,-0.652,-1.7148,-0.10855,0.61238,1.0247,-55.50437,-15.69238,-4.59164
2.8318,0.9781,1.4662,1.1168,-0.4259,0.5479,0.09492,0.12717,0.71201,-126.32695,-10.87465,-127.01266
2.847,0.2371,0.5224,-1.0653,0.7853,0.3252,-0.08765,0.1834,1.10036,50.12788,-64.39171,70.03281
0.4,-0.8812,-0.6741,1.0655,0.6956,2.9233,0.70942,0.13703,0.32509,-67.45563,-32.85556,-116.09562
2.2285,0.3545,-0.0898,0.4071,-0.5428,-1.421,-0.07172,0.33831,1.24379,-17.79092,-3.36667,68.49312
1.8945,0.8104,0.0252,-1.4216,0.6874,-1.9355,0.14514,0.03915,1.28938,25.67763,60.15924,-87.04476
2.2171,-0.9972,1.4931,-0.9699,-0.8114,-3.1263,0.09165,0.12766,0.69858,-26.50894,-26.52681,-91.64891
1.9321,0.9848,-0.9321,-1.4472,-0.7626,-2.6776,0.05682,0.27411,1.46386,-25.93733,-36.10853,-115.84642
1.4835,-0.8518,-0.3097,0.4182,-1.3213,-0.778,0.20952,0.6729,0.50013,-168.09456,43.12883,-43.65524
2.3573,-0.2462,1.1301,0.5722,-1.514,-1.4776,0.03677,0.17528,0.85611,-42.72217,-21.18513,71.59771
3.1271,0.0776,0.9381,-0.0859,-0.1759,-2.039,-0.07205,0.15111,0.95013,43.30545,23.55683,67.34612
1.0926,0.1537,-0.4905,1.0128,0.2727,2.8277,0.40406,0.45349,1.13877,-17.04397,-0.28984,-79.5503
2.5047,0.7011,0.7314,-0.1736,0.8999,2.8321,0.16555,0.06418,1.03,-150.7096,38.93382,174.65023
0.8815,1.416,1.5368,0.7221,0.1329,0.558,0.09391,-0.12198,0.67815,-173.66106,3.30637,157.82
2.6464,-0.9076,0.5079,-0.3203,-1.1723,-0.6486,-0.3269,0.34708,0.72142,-88.59993,45.79071,45.75988
1.9221,-0.8241,-0.1196,-0.8245,-0.9457,-0.3786,-0.08446,0.66648,0.59186,-96.89293,31.42035,-20.24193
2.0275,0.0086,-1.2301,1.4001,-0.6334,2.813,-0.23773,0.82408,0.80425,-76.73748,-37.75685,54.33393
2.1267,-0.0027,-1.2636,-0.2935,0.2624,0.1688,-0.321,0.80104,0.78076,-14.58437,57.04626,109.68731
0.7249,0.0106,0.6141,0.6552,0.466,1.682,0.24599,0.01744,1.03853,-54.89287,26.14108,167.38628
2.2317,1.4072,-0.4044,-1.1714,0.186,-1.0538,0.29202,-0.13111,1.34726,58.04691,27.82252,10.51982
1.9688,0.4736,-0.9187,-0.181,0.683,2.509,-0.08977,0.60066,1.24976,-4.73038,13.90333,-112.85117
2.7707,0.0191,0.042,1.5556,0.9579,2.1209,-0.34229,0.29411,1.11231,-49.2105,28.62999,-2.11448
0.061,1.3459,0.0141,-0.2062,0.7255,0.8761,-0.31195,-0.16938,1.20296,-132.15175,-44.51554,116.99603
0.2736,1.3209,-0.8354,0.9404,0.4705,1.2796,-0.03336,-0.16521,1.48159,-47.61472,10.1127,144.0904
1.3568,-0.7645,-1.564,-0.3622,1.3075,0.7085,0.27646,0.56555,0.06145,36.37609,53.6688,143.08622
1.266,-0.9126,-0.8323,0.9704,0.561,2.9953,0.34897,0.60924,0.23544,-78.30931,-42.51203,-51.78063
1.9693,-0.9638,-0.2625,-1.0304,-0.6781,-1.412,-0.11765,0.66613,0.44389,-93.29011,-44.73537,-7.42339
3.1353,-1.5568,-1.4155,-1.1877,-1.4787,1.8945,-0.05784,0.15042,-0.18898,-99.93747,27.29149,-25.7837
0.7397,-0.2994,0.473,-0.837,1.0925,-2.7161,0.36559,0.13048,0.97329,37.19153,63.88474,-142.1665
2.6838,0.594,-1.1237,-0.9308,0.4748,-2.6055,-0.4661,0.39692,1.27587,24.51142,-5.65642,-44.27488
2.6881,-0.3491,0.8881,-0.3871,-0.0217,3.038,-0.11543,0.22318,0.90513,-15.44657,25.72684,-57.51629
0.9051,-0.7624,1.2126,-0.1241,-1.4415,0.022,0.20611,0.01952,0.77121,7.5631,56.69741,52.47128
2.1867,-0.9925,-0.9979,-1.4261,1.0921,2.2328,-0.2369,0.59447,0.11579,94.55403,26.95214,-80.93756
0.4407,1.4921,1.4991,1.1699,1.2104,-0.5915,0.01804,-0.15739,0.67841,-123.09455,42.37445,-158.77981
2.7774,-1.2779,0.6024,0.7786,-1.0896,1.2578,-0.33014,0.28643,0.5827,91.93308,-8.12602,-72.61323
0.3916,0.4812,1.2426,-0.7222,-0.2056,-3.125,0.01375,-0.15666,0.82594,-89.80316,50.15842,120.34412
1.4079,0.7794,-0.043,1.0846,0.225,-0.4492,0.15328,0.00743,1.30887,-26.85701,-43.02524,132.33034
0.123,1.297,-0.1301,-0.7678,-0.9054,1.0209,-0.25186,-0.18233,1.27591,18.08222,-36.61154,36.05841
2.842,1.0803,0.2914,1.3654,0.6123,0.8477,0.25052,0.07966,1.15802,-86.81228,32.41319,-71.17175
3.0953,0.5888,-1.1816,-1.3783,1.0916,1.9036,-0.60956,0.17845,1.25842,-44.55323,47.95449,-153.26321
1.0395,0.5755,-0.3917,-1.1806,0.9516,1.8502,0.28303,0.18545,1.33508,-58.98672,3.98253,90.5491
1.8218,-1.2016,-1.389,0.6018,-0.6422,-0.0956,0.05479,0.39043,-0.1094,161.72016,-7.79849,-97.70879
0.0354,1.3394,-0.0898,1.3949,1.3083,2.0498,-0.29878,-0.16073,1.2477,122.78642,81.67206,17.05119
0.763,0.2269,0.7622,-0.429,-1.0854,-3.1169,0.15509,-0.05931,1.02318,-20.69335,-7.05691,-146.23795
2.9852,-1.0296,-1.0163,1.0063,1.2195,-0.274,-0.56648,0.24123,0.08617,62.79512,50.74708,-176.63011
1.661,-1.5418,-0.718,-0.5639,1.5566,1.3987,0.11945,0.34507,-0.04998,41.28235,31.12548,-161.05011
0.2054,-0.3867,-0.8982,-0.3652,0.76,2.5518,0.83328,0.02033,0.61128,33.21001,-10.82319,143.35581
0.2656,0.85,-0.2357,1.4091,-0.2426,-0.3922,0.09022,-0.13096,1.36079,-34.77459,-6.84989,71.28538
0.9262,1.1824,1.2505,-0.8788,-0.2157,2.2115,0.04007,-0.19641,0.75685,-130.84379,-3.56164,158.70556
2.588,-0.6705,-0.5148,0.9932,1.5058,-1.0266,-0.55574,0.51988,0.54707,52.70077,29.13714,118.11192
2.8204,1.035,1.2225,-0.5595,-0.7036,-1.146,0.16726,0.10249,0.78506,93.40502,-0.05958,91.71381
2.1231,1.3545,1.0577,1.1316,-0.6211,-1.6382,0.23803,-0.10024,0.78516,122.10979,-33.85246,-23.56719
0.498,0.8791,0.4092,-0.6593,1.1211,2.0985,-0.0457,-0.19564,1.14425,-125.1702,-12.4559,85.32384
0.0856,0.8155,1.0981,0.9899,0.1029,0.889,-0.10424,-0.15955,0.86019,-114.04092,18.00433,92.39864
1.8966,-0.6816,-1.5465,0.6938,0.3,-2.7108,-0.07061,0.67781,0.11989,-117.42678,-28.75009,20.76097
1.299,1.3214,0.3997,-0.9837,0.3951,-2.2492,0.05772,-0.35181,1.04568,-154.31205,67.21409,81.9835
2.1802,0.4782,1.3177,-0.3796,1.028,-0.2768,0.14712,0.05138,0.79394,154.59151,-9.63076,-28.71156
2.9825,1.1373,0.9668,0.5612,-1.224,-0.2258,0.22202,0.11635,0.86165,-28.98822,-54.10459,169.58981
2.8681,-0.9023,1.5204,1.0225,-0.8986,1.1123,0.00784,0.15364,0.69665,13.91445,39.9754,-82.14147
1.8255,-1.2728,0.1302,-1.1959,-0.541,0.3169,0.01217,0.54879,0.41989,-74.13461,47.58837,-2.73786
3.0637,0.0137,1.1577,1.4372,-0.1265,1.9278,-0.03003,0.15285,0.86436,32.02884,61.75263,23.07121
2.1839,-1.3849,0.5664,-0.5525,1.2466,2.4411,-0.11259,0.4208,0.5277,0.21634,36.21654,-111.85481
2.6136,0.4079,0.55,-0.0965,0.1992,0.4959,0.02822,0.15725,1.10811,-42.15297,-57.09409,-164.28937
0.7437,-0.6822,-0.1569,-0.812,0.1387,0.2787,0.59468,0.34317,0.67297,-28.9396,33.17407,5.78625
0.853,-0.7123,-0.1796,0.2612,-0.7558,-2.6074,0.5574,0.41022,0.64496,-95.00265,-47.66961,-27.20426
1.1734,-0.7222,1.0448,1.5352,-0.0944,2.2718,0.21822,0.13221,0.80236,15.60931,11.05241,-74.00448
2.8754,1.0601,0.5672,-0.814,-1.095,1.5717,0.25288,0.08658,1.04442,-32.01701,-46.51459,-101.76567
0.1226,-0.6911,0.26,0.069,1.3578,1.9514,0.54596,-0.08391,0.78042,-51.4866,15.68698,113.99763
0.9417,-0.0952,0.4144,0.781,-1.4872,0.5575,0.30586,0.16529,1.04714,45.18043,64.68766,149.39126
0.2271,-1.2446,0.6861,-1.4571,-1.3647,2.2399,0.40831,-0.05965,0.61823,83.37372,-6.29001,25.50996
0.9891,-1.1287,-0.6929,0.4244,-1.4785,2.4723,0.45393,0.4172,0.15471,-155.25509,-6.74678,89.31146
0.01,1.2972,0.9806,1.543,1.3948,-2.1339,-0.22331,-0.15229,0.82252,-135.55644,-79.13821,-141.07321
2.6671,1.0447,1.0461,-0.3666,-0.0869,-2.3201,0.21798,0.05673,0.8483,135.96494,53.79015,104.62792
0.561,-1.0743,-0.8015,-0.0412,-1.2773,0.9532,0.59757,0.19827,0.14314,-178.14713,1.44577,158.24799
0.7436,0.6683,-0.3543,1.5658,-0.7645,2.5146,0.26707,0.04177,1.35635,42.7584,-20.5485,-99.00373
0.4393,-1.4741,1.0327,-0.4683,-1.3668,2.9555,0.28511,-0.03181,0.62379,117.34969,-65.55194,63.19809
0.4764,-1.2543,-0.0483,0.2336,-0.7406,-0.5772,0.56302,0.12169,0.35633,-146.60562,58.40965,-104.96544
1.8292,-0.1898,1.4112,1.195,0.9791,3.0491,0.13861,0.06279,0.75726,96.57742,33.72182,69.32784
2.9616,-1.1923,0.9143,1.5273,-0.2895,1.9444,-0.26591,0.2009,0.68024,10.25745,-21.07711,9.02421
2.7064,1.4248,-1.4235,0.1881,-0.5623,-3.0337,-0.0116,0.17087,1.53086,-3.85477,-31.9369,-6.87617
2.3661,-1.1509,0.3512,-0.0354,-1.4036,2.9871,-0.25188,0.45707,0.56391,165.82708,-52.46338,150.75377
1.0394,1.515,-1.3812,1.1663,0.4764,-2.1748,0.12257,-0.08759,1.53361,29.37126,10.58421,6.27636
2.9605,-0.6286,-0.377,0.1612,0.3152,-0.6213,-0.68591,0.27813,0.63205,-18.33858,36.03417,135.77215
1.1485,-0.1421,0.6017,-1.5023,-0.6792,1.8992,0.24101,0.17028,1.00667,27.17589,-36.36029,88.84235
1.9065,-1.5229,-0.0161,-1.4674,0.1734,0.1459,-0.00753,0.47705,0.23396,-87.10036,13.8653,29.82339
0.4891,-0.1635,-0.5612,0.235,0.3379,1.1786,0.71269,0.20934,0.91138,23.06042,-0.28771,107.33484
1.1287,1.5592,0.6531,-0.5136,-0.3774,2.7402,-0.01544,-0.38335,0.86148,-113.08091,40.26681,150.20789
2.0141,1.2909,1.4738,-0.496,-0.6828,2.3747,0.16064,0.01151,0.6928,-126.16487,28.79883,-153.46046
1.0064,-1.0876,-1.2098,0.3273,-0.9716,1.9639,0.39951,0.35054,-0.01257,-166.51012,-9.48088,112.38711
0.8096,1.4468,0.3118,-0.0081,-1.2957,-3.0338,-0.14975,-0.37471,1.03964,2.56801,26.41057,-126.85541
0.2265,-0.4689,-0.1044,-0.2991,1.244,-0.9033,0.6539,-0.00329,0.82845,27.46087,-31.00091,-57.73669
2.7352,0.723,-1.3895,1.0511,-0.8576,0.8083,-0.49796,0.37765,1.28437,73.39435,9.28256,-72.86586
2.1204,0.0639,-1.0074,-0.8046,-0.9167,2.4735,-0.28597,0.75411,0.93642,95.27065,-15.80741,175.01547
0.4439,-0.2646,0.6812,0.873,0.7432,-1.4226,0.29979,-0.02359,0.96199,56.64197,-25.23317,-12.18683
0.6202,0.8751,0.198,1.3277,1.1294,-1.3324,0.01155,-0.17614,1.22726,87.61997,-72.17517,9.16
1.6781,1.0688,0.5358,-1.2109,-1.3348,0.1316,0.17323,-0.20711,1.05605,69.8723,-13.7039,86.02692
0.9463,-0.7223,0.4571,-0.8446,0.5143,-3.0382,0.38878,0.2828,0.79775,13.85154,17.53248,-163.16658
0.1459,-0.4007,-0.1758,-0.6555,-0.1723,0.0731,0.6649,-0.05396,0.85435,-21.07759,36.31364,-33.81793
0.1718,-0.2779,1.4499,1.4587,0.1835,2.912,0.05048,-0.14353,0.73975,66.93709,22.09207,-78.03287
2.2323,-1.1166,1.2583,0.2123,0.2199,1.9821,0.02714,0.2094,0.71415,-18.29852,9.64122,-107.7345
2.4647,-1.0166,-1.4751,-1.2664,0.4867,1.7338,-0.27423,0.41284,-0.0514,134.98088,28.89383,-68.39322
0.868,0.9845,0.7588,0.8322,-0.6837,-1.8401,-0.00829,-0.24194,0.9774,70.19755,-32.44791,-58.50322
2.9618,-1.274,-0.5496,-1.0762,1.2903,0.0748,-0.50376,0.24407,0.13125,-65.63703,25.48214,156.40955
2.4612,-1.0015,-0.6719,-1.5241,0.7089,2.3722,-0.4188,0.53197,0.24371,93.4655,38.17533,-86.22116
2.2166,0.8344,-0.3998,0.3965,-0.7824,1.8387,0.04363,0.19142,1.39195,23.25215,3.46569,-107.93383
2.4024,1.148,0.7939,0.5032,1.5543,-0.1219,0.27298,-0.04581,0.92794,-149.28512,16.97115,-36.43373
0.6781,0.5605,-0.9813,1.2763,-0.1892,-0.1313,0.53074,0.23485,1.28722,21.80981,19.68304,110.51926
0.8947,0.2959,1.0212,1.4232,-1.235,2.666,0.11714,-0.09378,0.92577,76.971,15.63011,-115.38309
0.6542,-0.8128,-0.9079,0.7806,1.1692,-1.3162,0.66327,0.31954,0.27369,-20.80728,51.00184,-41.79614
1.7471,0.1107,1.4227,0.7866,1.4237,1.7206,0.148,0.02476,0.75596,-177.25024,46.0954,-179.92884
0.2084,-0.6428,0.0516,0.7936,-0.3152,-1.1345,0.62114,-0.02202,0.76019,-31.04263,38.74945,-14.65741
1.838,-1.111,-0.4091,0.1082,0.3532,1.5974,-0.02,0.64137,0.28648,66.76882,-7.59249,-163.77027
1.795,1.4975,-0.865,-0.8126,1.2821,2.2351,0.19238,-0.16872,1.46274,-99.42137,12.1262,146.01051
0.0351,0.7616,-1.2471,0.7093,-0.7032,3.0706,0.5369,-0.13129,1.34224,-28.64582,-59.48248,-117.54529
0.0653,-0.8628,0.5049,-0.9953,-0.0841,-3.1229,0.45991,-0.1203,0.74113,17.47624,-15.90875,124.59059
0.9648,1.4279,-1.3191,1.3166,0.6129,0.7027,0.14314,-0.05687,1.53068,-30.20444,-22.67443,179.08952
2.6846,0.7127,-1.5265,1.2117,0.8934,-0.0936,-0.52114,0.42346,1.23595,48.54438,-18.04459,-170.74056
1.5355,-0.1682,-1.3088,-0.9293,-1.552,-0.7951,0.18022,0.85168,0.61977,-133.1568,-29.74099,-61.7461
2.1694,1.4526,0.5586,-0.9679,-0.4165,1.0132,0.32024,-0.20321,0.9349,-140.54103,-76.33877,-76.15943
1.5964,-0.8032,-0.9184,-0.6722,-1.0751,1.9042,0.13147,0.7273,0.27617,150.56528,30.30307,167.08129
1.7617,0.9135,0.6062,0.4028,1.0882,-2.9736,0.17889,-0.13489,1.05599,149.53202,23.54854,79.62603
0.9745,0.9689,-0.8864,-1.4597,1.3454,1.4217,0.25283,0.10533,1.45975,-77.32121,-13.03745,60.34697
1.8058,-1.0212,-0.7875,-0.6917,0.9345,-0.9994,-0.00319,0.65774,0.18213,-61.99891,-10.27518,43.38762
1.9818,-0.625,1.3671,0.4829,-0.428,-2.8409,0.10826,0.12715,0.75116,21.95325,7.75826,-24.23164
0.0757,0.3016,1.4729,-0.9428,-0.0414,2.9354,-0.00328,-0.15073,0.73262,-101.26625,24.12035,91.63383
2.5929,-0.3537,0.3252,-1.0525,-0.7803,2.5188,-0.29516,0.3563,0.95331,31.90773,-34.3948,-138.12259
2.3418,0.545,-0.4498,1.5548,-1.2021,2.4716,-0.13517,0.35444,1.32746,61.03701,-41.94298,-24.33185
0.1783,0.1405,-0.7792,-1.5085,1.2099,1.694,0.71676,-0.0233,1.06688,-64.23561,42.93638,18.46919
1.2981,1.2639,0.365,-1.1729,1.0694,2.8942,0.06322,-0.33106,1.07865,-111.64,-5.42088,106.16864
2.3465,-0.5736,-0.04,-0.9998,1.4047,-2.0282,-0.33256,0.55336,0.77885,63.61586,-5.81395,-20.36243
2.4828,-0.2932,0.8792,-1.5626,-0.3664,-0.8084,-0.05956,0.23587,0.91802,12.24313,37.09643,16.92285
2.8699,-0.29,0.7922,0.7826,1.3527,2.775,-0.17524,0.20458,0.93661,-173.50558,81.69126,-144.92674
2.6652,0.8568,0.2831,-1.1916,1.2472,-2.7657,0.15864,0.08699,1.19696,-107.21618,51.04963,165.46715
1.6976,1.4457,-1.2388,0.3204,0.4678,-1.3045,0.15074,0.00414,1.52702,36.27773,-12.96459,37.53126
1.6956,-0.0325,1.034,-0.4451,-0.4772,2.201,0.13907,0.09688,0.90765,-34.03695,-2.34566,-155.66753
3.0175,-0.9908,0.2774,-0.5882,-0.8108,1.3408,-0.51188,0.21506,0.62386,81.20246,34.33288,-126.01682
0.7738,0.9189,-1.0549,0.53,-1.3615,-2.1504,0.3485,0.13073,1.44014,-83.99234,-29.12775,-18.82295
3.0618,0.1905,1.4547,0.0115,-1.4957,-2.3411,0.02006,0.14892,0.74174,6.62706,5.47915,41.61076
1.0691,-0.2125,1.2503,0.3393,0.9666,-1.5201,0.16065,-0.01912,0.81765,113.7281,-19.32118,-19.79738
2.7967,1.4476,1.5414,-0.165,1.3249,1.5673,0.08145,0.13018,0.67666,112.71298,-1.24584,-100.33762
0.1634,-1.4396,0.0486,-1.281,-0.0932,2.2345,0.50291,-0.06916,0.30099,79.43619,34.05587,88.22313
2.5946,-1.1695,-0.0038,0.8271,1.3085,-0.7921,-0.41277,0.42705,0.42277,41.74291,19.51997,126.99967
2.8264,-0.8298,-0.664,-1.3051,1.2078,-1.4855,-0.6414,0.36696,0.36622,-20.72476,-73.08945,73.13558
1.2581,0.4278,-1.385,-0.3639,1.0489,2.7502,0.37583,0.67471,1.08301,13.26856,12.72821,-140.167
2.8231,-1.0148,0.8129,0.5708,-0.5572,1.1548,-0.27057,0.24721,0.72403,41.15044,9.67851,-93.89952
1.9342,0.012,1.1627,1.1011,0.91,0.148,0.12559,0.09188,0.86234,-95.91562,-25.68651,-111.61065
2.6657,-0.3579,-1.3943,-1.2955,0.2311,-2.2255,-0.66502,0.51156,0.4227,108.7386,-69.14378,-122.03605
2.2392,1.0424,1.2511,0.769,-1.3071,1.5933,0.19188,-0.00087,0.77437,-65.60198,32.61385,-173.70122
2.7109,-0.9216,-1.4282,0.3018,-1.2606,-2.752,-0.44081,0.36767,0.01006,-178.64794,30.48975,124.1089
0.8901,0.4904,-0.7313,-1.1084,0.3389,-0.9422,0.43357,0.29697,1.28969,3.2728,-17.66955,-64.89647
0.7315,-0.1856,0.2061,1.2452,-1.2437,-1.5162,0.42456,0.17946,1.02427,-70.87647,1.8428,24.27745
2.3513,-1.1397,-1.3663,-0.4285,-1.1282,0.7592,-0.18922,0.40433,-0.07999,-147.99908,-10.94908,-75.69391
1.3909,0.4817,-0.7708,-0.0706,-0.0957,0.7511,0.24161,0.4899,1.27997,14.57332,16.7133,120.77783
0.2157,0.6244,-0.6242,-0.3463,-0.4001,2.1446,0.39407,-0.06727,1.35607,19.54244,-12.20447,113.28498
0.0952,-0.3646,0.6729,0.4946,1.0581,0.9477,0.30468,-0.12164,0.93546,-74.81722,-26.36112,113.76798
0.2664,0.1511,0.0265,-0.8427,0.4846,1.3397,0.39701,-0.0472,1.16542,-32.37166,-14.90498,46.17833
2.04,-0.2215,0.4574,-0.2896,0.4349,0.0907,-0.01994,0.37117,1.00155,0.79778,-38.04737,104.33339
1.2978,0.2796,1.1859,-0.1879,0.3367,1.5105,0.14119,-0.05225,0.85656,-103.32499,-14.06852,164.02346
0.2781,-0.4774,0.8997,0.3734,0.7868,2.4884,0.25761,-0.0825,0.87562,-49.48823,54.864,157.04832
2.023,0.3744,-1.2444,0.3615,0.2986,-3.0411,-0.19057,0.7357,1.09267,-21.07095,-27.64457,-35.03915
0.6583,-1.1663,-0.0734,1.0133,-1.0999,2.9373,0.55446,0.23912,0.39605,-113.66185,-41.97075,16.45275
0.8333,-0.7032,0.813,1.4144,0.1332,-1.2975,0.31429,0.1228,0.82403,6.62617,-8.30371,54.37605
2.6816,-0.7984,0.4419,1.3276,0.0553,-0.2638,-0.35548,0.34357,0.76012,18.71903,6.85331,-144.827
1.8061,0.549,-1.4393,0.3261,0.8703,-2.255,-0.02118,0.73197,1.15306,-8.94361,11.36167,-14.6477
0.74,1.1288,1.4871,-0.2287,1.256,-0.6831,0.06459,-0.14421,0.69882,-155.3999,36.32482,-81.43828
1.223,-0.5633,0.4386,-1.3874,1.2891,-2.0031,0.29067,0.36151,0.86718,71.90735,16.59727,-106.87192
1.9217,-0.376,-0.4262,1.1252,-0.5856,0.249,-0.10871,0.73349,0.79883,62.59323,27.56383,-140.27435
2.3358,0.5036,0.3958,0.7973,1.5075,-1.6674,0.07172,0.14196,1.16472,125.64391,-29.62697,80.22205
2.0283,1.4289,0.7874,-0.2048,-0.59,1.3386,0.26539,-0.19934,0.85573,-94.02324,-22.62275,-145.72668
0.5838,-0.9327,-1.5551,0.9921,1.4819,3.0373,0.503,0.15245,-0.03011,-58.21808,-60.31146,-144.58578
1.5189,1.4043,-0.1455,-0.0842,0.9692,2.468,0.13257,-0.3405,1.24952,-137.60328,34.56659,140.15848
0.7562,0.7287,1.0917,1.4558,1.045,1.5219,0.02927,-0.17866,0.87237,153.32338,75.73697,77.66573
3.032,0.0842,0.298,-1.1668,0.9358,1.2795,-0.26992,0.18066,1.11636,-58.31117,-34.61065,-170.78293
0.332,0.8514,1.0862,0.0776,-1.4086,2.2275,-0.07005,-0.18287,0.86072,-22.42706,21.41638,141.88395
0.7528,-0.2668,-0.689,0.1983,-0.2565,-1.2542,0.67248,0.4244,0.79054,-66.72383,26.08033,-33.09407
1.3809,0.4179,0.6861,-0.991,0.2271,0.953,0.15078,-0.01048,1.05952,-6.67605,-70.69724,74.687
0.4104,0.153,-0.4805,0.06,1.2945,2.0022,0.59618,0.09576,1.13996,-53.11876,19.07202,131.30635
0.4883,0.0291,-0.5545,0.2661,-1.281,-1.5541,0.65834,0.17981,1.04777,-102.6459,8.51261,-48.96568
1.7263,0.931,-0.2645,-0.1076,-0.8794,1.5922,0.14719,0.02996,1.37017,12.27717,-4.06855,-174.74216
2.6987,-0.7313,-1.1193,0.4125,1.2516,1.9798,-0.59598,0.44876,0.2447,24.45971,-34.58965,-99.16953
3.0808,-0.5151,0.4145,0.7495,-0.4465,-0.3996,-0.42941,0.17646,0.88669,-8.53505,28.91333,-164.73982
2.1547,-1.322,-0.1897,-1.1583,0.6758,-0.9136,-0.17172,0.53206,0.25856,-69.10995,-33.76995,58.34873
0.1785,1.0107,-0.5686,-0.1625,0.3952,0.3882,0.08865,-0.13648,1.43662,-17.76165,-45.14962,29.71966
2.2385,1.0556,1.4515,-1.0061,-1.4543,-1.0113,0.1547,0.04614,0.71185,77.20238,-1.13118,97.87397
3.0282,1.5682,0.4959,0.5771,-0.4486,1.2781,0.40329,0.10509,0.91703,-96.25529,12.06064,-111.57641
2.7812,-0.0764,-1.3638,1.1102,0.304,0.7569,-0.75306,0.44414,0.67498,74.23873,-19.42235,-121.39242
0.4388,1.1902,1.3811,-1.0736,-1.4541,2.0759,-0.01755,-0.17399,0.72023,-80.92389,0.21766,177.30652
1.6077,0.0515,-1.5563,1.1785,1.3588,-2.9469,0.11809,0.86837,0.70228,-66.91784,9.3742,-72.32237
2.6561,1.4065,0.4973,-0.9656,1.4048,-2.4008,0.37435,-0.02786,0.97585,-128.6299,20.6205,134.53984
2.8476,0.4158,-0.4465,-0.007,0.4804,-2.7251,-0.36668,0.2678,1.27722,11.06133,23.41877,8.92009
2.8419,1.0924,0.1819,1.1855,-0.3074,2.279,0.24326,0.08188,1.20073,44.71671,56.97922,14.86518
3.0718,0.8053,-1.4283,0.9285,0.9653,3.1016,-0.55578,0.18927,1.32201,-32.93324,26.72821,24.88568
2.0667,0.1199,0.1322,0.2918,1.4155,-1.2486,-0.03012,0.37101,1.14669,95.35588,-22.50206,42.93372
1.5181,0.3357,-0.3919,0.5385,-0.3622,2.8494,0.17366,0.44369,1.24406,5.4414,-22.97051,-79.70951
1.4983,0.1741,-1.0298,-0.4668,-1.0583,-0.4071,0.20504,0.75173,1.01443,-111.68537,43.93245,-43.58684
2.0599,-1.3813,1.094,1.0905,0.9525,0.3202,0.02761,0.26749,0.65611,1.42183,-48.4877,-169.1099
1.96,0.129,-1.549,0.0448,-1.052,-2.8442,-0.1868,0.85092,0.77218,-164.03521,-35.44893,89.63069
2.7972,-0.154,-1.0407,1.5194,-0.8203,-2.6726,-0.73603,0.42341,0.74531,-77.40527,8.69398,120.61665
2.8564,-0.8279,-0.45,-0.0148,1.0621,-1.344,-0.6404,0.34412,0.45904,-12.23411,1.96738,86.11049
2.5661,0.6609,-1.4519,1.1381,0.7151,-1.972,-0.47386,0.48628,1.22606,-2.75132,43.34565,83.01232
0.6674,-0.6145,0.2901,-1.3671,-0.5117,-0.0739,0.49319,0.19761,0.82568,-23.74807,29.72732,-55.55467
0.3772,-0.3969,1.0494,-1.1603,-0.1216,-2.949,0.19675,-0.08345,0.86033,-32.38375,14.3608,144.12254
2.9585,1.2273,-0.76,0.3075,-0.8047,-1.1892,0.05777,0.1419,1.47306,-21.81421,0.12561,115.76483
2.9501,-1.2229,-0.3691,-1.1522,-1.3338,-2.2089,-0.53935,0.25741,0.23645,129.57016,-51.10246,150.57929
2.4877,-0.1188,1.1612,-0.1755,-1.4973,2.535,0.03882,0.15929,0.85588,8.1747,-26.59919,-77.22255
2.5087,0.4886,0.9349,-1.016,-0.8388,-1.0658,0.12332,0.09563,0.95797,51.7475,38.32923,74.00985
0.6497,0.0325,1.0106,-0.8846,0.085,2.0715,0.1455,-0.0779,0.92083,-61.45352,-17.69889,113.6036
0.9917,0.2503,1.1448,-0.7067,0.8283,-2.4583,0.1238,-0.08485,0.87425,-167.65897,63.65501,38.47416
1.461,1.4302,1.4698,-0.9657,0.8517,-2.4638,0.1423,-0.07857,0.68497,-143.19486,-22.07674,87.7496
0.8172,-0.8322,-0.7426,-0.237,-0.8699,1.9635,0.60375,0.42414,0.33052,138.21532,-1.24981,119.8064
1.5335,-0.8878,-0.3028,-0.459,-0.778,-1.8391,0.17534,0.67495,0.47828,-114.14116,-38.53124,-5.69775
2.3595,-0.3835,-0.3787,0.5014,0.2582,-2.2215,-0.40028,0.60915,0.80858,-31.33412,1.22175,33.55266
0.6172,-1.3586,-1.1341,-0.6826,-0.2878,1.1792,0.36061,0.07192,-0.10659,176.10647,25.95301,-177.38116
2.4396,-0.408,-0.0787,-0.3393,-0.0781,-2.4163,-0.37365,0.51251,0.87267,-14.62336,-28.94027,-14.68587
2.0455,0.4621,0.9899,0.7797,-1.37,-1.8764,0.15167,0.03315,0.93567,18.07912,-41.17289,10.33672
1.0634,-0.9036,1.2661,1.0974,0.2505,-2.9199,0.1958,0.04338,0.74356,24.43127,18.02921,-37.18103
0.8648,-1.3367,-0.3925,-1.2147,-0.6563,2.278,0.45373,0.3009,0.16365,114.4904,36.07954,117.19397
0.0794,-1.2505,-1.4396,-1.4141,1.4803,-2.4205,0.31702,-0.1253,-0.1354,-92.84299,-74.19718,-3.04347
1.2435,-1.2639,0.9733,0.6037,1.0279,2.2269,0.23005,0.21085,0.66808,-43.12186,17.28921,-138.47566
2.8082,0.5842,1.3464,-0.6618,-0.9763,2.086,0.0974,0.12506,0.77695,-65.20152,-8.80334,-79.13109
2.2603,-1.1131,-0.426,-0.3701,0.8599,0.4598,-0.28057,0.57616,0.27787,-5.09596,43.14066,145.59459
1.1003,-0.2796,-0.1729,1.3748,0.4021,-0.5958,0.41575,0.48646,0.93213,30.56717,0.8129,102.67646
1.7691,-0.6833,1.2991,0.9186,0.5245,-2.0469,0.12701,0.12958,0.76342,57.80553,-4.67895,42.31614
0.7417,0.7981,-1.237,-0.3021,-0.286,2.7678,0.47245,0.22936,1.36326,25.09245,-33.63648,174.94441
0.0348,-0.0749,-0.4635,-1.015,-1.1634,-1.8806,0.67424,-0.12667,0.99982,-82.73702,-43.45982,-144.57609
2.6138,-0.8482,-1.1559,0.4094,-0.2086,1.1786,-0.50234,0.46653,0.14822,125.73924,-3.19567,-116.71323
0.7592,0.7951,-1.2161,-0.2327,-1.1187,0.5345,0.46405,0.2335,1.36591,84.49768,64.68556,116.53976
2.0264,0.274,1.3113,0.7936,0.472,0.8056,0.14194,0.05133,0.8027,-109.44921,4.93767,-135.54151
1.9513,0.2908,1.4089,-1.0637,0.9502,0.184,0.14569,0.0398,0.76026,119.63386,-19.33797,-42.38328
2.9773,0.8699,-0.7208,0.4862,1.1824,3.1188,-0.2067,0.18637,1.43186,10.61374,75.08686,28.11316
0.6988,1.5545,-0.9441,0.1661,-1.2047,-3.1103,-0.07484,-0.25887,1.46903,5.36495,-34.43303,-133.69618
0.9535,-0.7243,1.3008,1.453,0.1215,-2.4655,0.18316,-0.00119,0.75879,32.51945,-12.11456,-4.86936
1.101,0.0479,1.5696,-0.7079,1.2123,-1.2714,0.13335,-0.0688,0.69262,150.9261,33.71039,-44.44708
0.5577,0.9092,0.8123,1.5448,-0.2379,0.7988,-0.0603,-0.21446,0.96777,-100.80635,41.76344,100.94465
2.287,-0.4529,-0.3094,-1.2002,-1.4711,-2.743,-0.34714,0.62739,0.78117,120.17128,-69.39367,122.03401
2.6355,-0.4176,-0.4882,1.115,-0.6798,-1.1486,-0.58063,0.49336,0.74718,-49.78589,66.04604,134.49203
1.5784,1.0449,0.2481,-0.0318,-0.9818,-3.1399,0.15151,-0.19177,1.18322,-1.80925,17.81728,-90.52556
2.4133,-1.2321,-1.2838,1.3883,0.0151,-1.2281,-0.18365,0.36485,-0.09733,174.21789,35.61024,-53.04063
2.0404,-1.4737,-0.469,-0.6862,1.2214,-0.6998,-0.06384,0.45739,0.06624,-56.34637,3.99985,75.16015
0.0445,-0.371,-0.4648,0.2414,-1.4753,1.9887,0.74231,-0.11714,0.78978,137.38456,-27.44332,84.25792
0.7728,-1.4858,1.4349,-0.6702,0.4561,-0.6329,0.16125,-0.05235,0.6718,13.14708,-20.15192,-32.31152
1.8679,0.3563,-0.8989,-0.341,-0.8435,0.7478,-0.04536,0.6607,1.18174,68.71509,55.45245,164.44232
1.2521,1.5606,-1.2207,-1.0027,-0.031,0.7893,0.10476,-0.16137,1.51747,5.50838,-17.76944,58.90797
0.2812,1.1163,0.0625,1.342,-0.5593,3.0712,-0.15216,-0.20014,1.24352,64.19209,2.19652,-109.97434
2.9062,1.5143,-0.5975,-1.1826,-0.4697,2.5365,0.33253,0.07455,1.38174,-41.48478,-25.08861,-94.33715
2.1048,-0.0368,-0.7316,-1.464,0.3152,1.9618,-0.25064,0.71868,0.95231,9.82779,44.18533,160.3763
2.827,1.3765,1.2124,1.4168,0.2762,-2.1749,0.19914,0.09299,0.73865,168.73916,-30.983,32.97581
1.5823,0.2666,-1.5121,-1.0693,0.0918,-0.119,0.14047,0.83386,0.90435,-67.64485,18.82442,13.16079
2.8408,-1.3256,0.8614,1.4912,-1.197,2.7963,-0.25763,0.23702,0.62996,-24.51545,-71.18946,84.5891
1.6346,-0.4115,-0.4469,-1.2031,0.5034,0.4423,0.10283,0.74388,0.766,-43.64287,13.45349,56.68669
1.1129,0.4303,0.9491,0.8278,0.5967,-0.7099,0.12238,-0.0911,0.95402,-150.80308,-75.68518,-121.13296
1.1051,-0.8929,-1.5061,-1.4523,-0.8448,-0.671,0.38007,0.42212,0.00366,-158.4896,-53.84544,-25.36965
2.1389,-1.1283,0.0457,1.4033,-0.5275,-1.6661,-0.18331,0.56607,0.46622,-53.3158,56.33521,96.08585
2.9326,-0.4111,1.2672,-0.7855,1.1419,-1.4841,-0.05005,0.164,0.7976,103.89679,27.4699,43.37034
2.4766,-0.0215,-0.774,0.956,0.3394,-3.076,-0.50099,0.58352,0.95028,-36.61638,-6.71069,16.19092
1.7681,-0.3522,-1.3597,1.2755,-0.2002,3.0209,-0.01555,0.84326,0.44205,-102.10641,-21.50617,26.98641
2.0607,-0.8697,-1.0981,0.4781,-1.3762,-0.1346,-0.18234,0.66083,0.1562,152.86021,-9.32796,-60.1313
0.8451,-0.6156,1.2764,-0.7139,0.0307,2.3877,0.18096,-0.02213,0.77585,-38.97497,4.62389,142.28867
1.9878,0.9153,-0.8151,0.1802,0.7801,1.5569,0.0399,0.2804,1.4458,-50.35151,0.41425,-146.34154
1.1103,0.1942,1.4958,0.661,0.9865,-2.4137,0.1311,-0.07337,0.72397,136.74893,-9.02183,11.64093
3.0795,-0.9574,0.021,0.7196,0.206,0.9313,-0.5979,0.18751,0.55832,44.64101,-8.30501,-96.1798
1.5155,1.2422,1.3412,-0.2214,-1.0865,-2.4448,0.14393,-0.11471,0.72502,83.4927,56.59902,2.62062
1.1477,-1.2264,-1.3321,0.1307,-1.2373,0.6919,0.28734,0.27266,-0.10624,-157.06054,-31.03466,-165.18958
2.9511,-1.2264,-0.7306,-1.1495,-0.5501,2.4198,-0.49999,0.24923,0.08393,125.87596,27.64241,-116.29467
2.1129,-1.2836,0.4258,-1.1287,1.3689,2.6314,-0.10993,0.47336,0.5248,35.13075,56.76738,-100.9943
0.2325,1.0963,1.25,-0.5499,-1.106,-1.625,-0.08732,-0.17487,0.76813,75.28215,24.91759,-54.30347
1.8429,0.0683,-0.2038,1.201,0.9228,-1.7706,0.00767,0.53083,1.1264,48.51613,15.92587,76.6085
0.7381,-0.0923,1.0614,-0.3474,1.1405,0.0847,0.1642,-0.05348,0.89318,155.97369,-59.15086,-130.76953
2.9135,-0.4968,-0.7099,-0.769,0.0792,1.327,-0.73592,0.32487,0.60082,48.75182,51.75734,-134.16996
1.1523,1.1118,1.3914,0.6105,1.3157,-0.9958,0.10365,-0.13618,0.72428,-132.58719,3.95109,-76.36083
2.4429,1.0799,-1.514,0.7648,-1.0922,2.1705,-0.21251,0.37449,1.43585,76.44646,-50.69591,-81.04131
0.6718,-1.2477,1.0749,-0.6641,1.2439,-1.3781,0.27446,0.02654,0.68425,62.46501,-15.9234,-84.03436
2.2026,1.3588,-1.0031,-0.5629,0.1527,2.4749,0.145,0.05595,1.5058,-25.16436,13.05532,-128.02751
2.6378,1.3422,1.2309,-1.5439,0.1574,0.3274,0.20531,0.05816,0.73944,146.73572,-3.52738,39.25196
0.5667,-0.6962,0.8937,-1.4256,-0.2413,-2.8742,0.30539,0.01647,0.8223,-14.15696,-8.51717,148.52816
1.2238,0.6571,0.9747,1.2765,-1.5142,1.7737,0.11038,-0.13599,0.92952,22.24702,72.02597,-172.17632
2.97,0.981,1.4265,-0.4191,-1.4588,-1.2715,0.08886,0.13689,0.72369,58.31409,1.30613,107.73336
2.1758,0.1292,-0.9156,-0.6354,-0.7037,-3.1154,-0.30212,0.70072,1.01812,66.79877,-64.43759,-147.13115
2.4002,1.1776,-0.2572,-0.0913,-0.1156,-0.7314,0.2237,-0.00138,1.34829,37.57807,-29.04222,80.60375
3.1182,1.1068,-0.6336,-1.4398,0.2979,-2.3294,-0.01101,0.15035,1.45158,-5.4757,33.14838,-43.05876
1.2484,1.1884,-1.4386,0.3668,-0.1912,2.3011,0.23348,0.22534,1.48577,15.22768,-19.89824,-137.79777
2.1661,0.1154,-0.4562,0.9229,-0.9331,-2.39,-0.20795,0.57462,1.12173,-63.31112,-27.32403,65.43631
0.0275,-0.8053,-0.281,-0.4275,0.2469,0.2549,0.69462,-0.131,0.54364,-16.0734,47.55931,-12.10279
1.2077,-0.3196,-0.7247,-0.168,-0.7941,-2.0101,0.42208,0.68843,0.7356,-107.6527,-32.50559,-18.18572
1.2675,1.1724,-1.5673,-0.2531,1.3639,0.8757,0.24844,0.29147,1.46057,-51.50274,-27.1017,125.58337
2.1217,0.7507,1.1723,-1.3361,-0.0291,0.7003,0.1784,-0.00373,0.83648,121.56354,-49.71262,8.17927
0.0444,0.0335,0.2753,0.1571,0.3016,0.8446,0.32601,-0.13571,1.10384,-29.14166,-20.04105,65.63074
3.0829,-0.4012,0.4461,-0.2715,-1.2808,2.3913,-0.38892,0.17316,0.93548,62.76439,-44.37908,-89.34391
2.9806,0.4692,-0.3727,-1.3179,0.8567,1.6234,-0.33498,0.20642,1.29883,-50.61307,-3.02535,-172.74907
0.0492,-1.2401,-0.5036,-0.6205,-1.1442,2.3747,0.56877,-0.12223,0.16914,146.31045,15.74978,52.86565
2.6352,-1.4753,1.1956,-0.2367,1.2213,1.1505,-0.08454,0.21847,0.65141,-52.84214,-15.77536,-146.36596
1.6465,0.0263,-0.5617,1.3205,1.4329,-0.6094,0.09899,0.67884,1.0442,74.58909,-23.66507,92.29969
1.6056,-0.9302,0.1579,-0.6097,-1.4605,1.5602,0.12999,0.57879,0.62078,122.43544,24.0639,155.76955
2.3929,-1.3715,-0.5342,0.7265,0.467,-0.4681,-0.25436,0.44116,0.08748,83.34395,77.87204,-156.81189
2.4949,0.9978,0.302,0.9511,-1.4723,2.5189,0.23128,0.0134,1.16981,52.51311,16.604,-53.6482
0.1101,-0.2069,0.8962,-0.2557,-0.8278,-2.8779,0.17913,-0.13116,0.92925,-11.30368,-6.01931,-168.67379
1.4532,-1.5627,-0.6381,0.7352,-0.3672,0.8403,0.18896,0.32049,-0.03075,140.9452,-9.87991,-176.72155
3.0936,1.2073,0.7889,-1.0798,0.4618,-1.7908,0.25508,0.13797,0.91571,177.90849,55.86162,146.39175
0.6359,0.4558,0.5831,-1.3942,-0.713,-2.1095,0.10993,-0.10536,1.09839,-52.17681,38.0861,-160.64914
0.1248,-0.9793,0.3052,-1.2778,0.0039,1.7899,0.54075,-0.08339,0.63807,21.17329,33.00988,42.90634
0.235,0.6317,0.67,1.1967,-0.3712,0.6747,-0.02574,-0.16045,1.06118,-66.05251,22.30169,91.66603
2.7561,0.8225,-1.2246,0.5145,0.2587,-2.4927,-0.38971,0.32007,1.37769,-12.14497,2.38076,42.85597
2.0088,0.231,-1.0957,-1.2282,0.2138,3.005,-0.18733,0.75376,1.03543,46.49705,-0.77266,-138.17941
1.6008,-1.4644,0.9877,0.267,-1.4847,-0.7163,0.14212,0.26641,0.61682,-125.29765,50.88355,-10.66393
1.0199,1.2345,-1.4248,1.0417,-1.5397,1.7239,0.25563,0.12944,1.49961,93.91624,-18.15041,-152.94077
2.6812,-1.0044,1.2991,-0.8999,0.5523,-2.1088,-0.04595,0.19028,0.72654,31.81111,32.09912,-13.26652
1.3578,1.3965,-0.4627,0.1682,0.4508,-2.7474,0.09166,-0.286,1.37023,69.10105,57.80437,-25.85034
0.8317,-0.8737,-1.1122,-0.6217,0.91,-2.7095,0.55829,0.38979,0.14805,25.141,-67.95608,-129.9325
2.3313,-0.6129,-0.128,-0.999,-0.7038,-2.8439,-0.34596,0.58132,0.72835,44.53194,-62.76993,-129.46465
1.6957,-0.4627,-0.0757,1.2752,0.553,-2.6499,0.07099,0.63906,0.83939,-19.06071,31.1346,4.66015
2.3858,0.3089,-0.9574,-1.3632,-1.2266,-0.0917,-0.39801,0.58131,1.13498,-77.0719,47.29052,-12.4671
1.858,0.5322,-0.784,-1.1531,-0.2164,1.1406,0.00246,0.52137,1.30406,11.24464,19.56451,106.23611
1.9528,-0.3134,-1.3414,0.1067,1.5102,-2.6332,-0.17366,0.83478,0.48225,-9.38817,-4.23889,-38.70763
1.1647,0.8313,-0.7851,-1.3901,0.7642,1.8446,0.25293,0.20837,1.42312,-43.69386,8.32477,88.3825
0.3509,-0.2061,0.8906,-0.1224,1.4065,-1.7906,0.20687,-0.08406,0.93083,120.70079,15.32941,-68.92834
2.3189,-0.7581,-1.1312,0.3659,-1.1939,-2.7655,-0.37794,0.62782,0.22045,-160.70789,5.28115,104.99521
1.6898,0.3419,-0.4308,-1.5686,-0.4302,-3.1161,0.09374,0.47989,1.2449,4.93498,-24.69015,-173.7894
0.5502,-1.04,0.9154,-1.4116,0.5175,-1.7493,0.3277,0.02497,0.72537,29.23153,-2.0997,-148.26662
2.8865,-0.4535,-1.552,-1.3524,-0.1084,1.9344,-0.70842,0.33981,0.28239,134.04097,50.74034,-74.54445
2.1391,0.9344,0.9725,-1.2392,-0.5955,-1.3129,0.21135,-0.05217,0.89585,98.76794,48.67904,71.38207
0.0763,-1.103,-0.8418,0.262,1.0396,0.9464,0.59896,-0.1047,0.10977,52.39012,14.76174,67.20715
2.8901,-1.3413,-0.7148,1.4161,0.0584,-1.5822,-0.41855,0.26246,0.03197,-159.26951,60.69795,5.3327
2.5097,0.0477,-0.7493,0.3316,-0.0835,-1.2007,-0.4968,0.54962,1.00913,-37.77159,26.03462,85.53402
0.6772,-0.889,1.5564,-0.917,-0.1366,-1.2212,0.11023,-0.10391,0.68828,26.75733,21.74552,-76.35169
3.0933,1.3384,-1.4466,0.8014,0.9882,-2.0895,-0.15882,0.1579,1.5191,46.68201,27.28577,113.03565
1.0666,-0.8196,0.5592,0.7168,0.5713,-2.8963,0.33694,0.30006,0.76826,-4.78668,22.92571,-67.54854
0.3397,1.2236,-1.2024,-0.0444,0.35,-1.7149,0.19903,-0.08881,1.51,21.05875,3.03918,-80.78162
2.8381,-0.582,0.5794,0.9843,0.848,2.451,-0.31983,0.25739,0.86622,-35.85267,35.17002,-12.32444
2.3165,1.3329,-0.9829,-1.0837,0.682,2.2662,0.12871,0.0818,1.50405,-49.84596,13.09395,-172.16601
1.0778,-1.438,-1.3505,-0.2387,-0.6696,-2.2998,0.22089,0.09411,-0.16835,162.79741,8.71223,24.29257
2.5537,-1.1344,0.8555,0.3117,-1.2166,1.0491,-0.18381,0.30283,0.69002,84.45243,24.92616,-109.24456
1.7278,-0.1791,-0.8365,-0.0499,-1.3775,0.8064,0.02272,0.81613,0.80526,147.74589,30.09623,-136.65069
2.9375,0.0794,0.2257,0.233,1.2447,-0.1005,-0.28304,0.21181,1.12403,47.25795,-87.57777,133.66256
0.7569,-1.2485,-1.2897,0.9615,0.5526,-1.5593,0.36843,0.14161,-0.10481,-127.02531,28.25813,-96.79854
1.4839,-0.3554,-0.5589,0.0366,-1.2101,-2.3844,0.21538,0.74336,0.76905,-130.9539,-36.7388,24.76251
1.9184,1.3941,-1.5262,-0.669,1.2941,-2.166,0.08899,0.19487,1.52227,65.49241,26.81965,-31.66575
1.4087,-1.5609,0.31,0.5111,1.0381,-1.3761,0.21595,0.39082,0.35657,-3.73142,28.97908,13.30459
1.8116,-0.7171,-1.3726,-0.2011,-0.1144,2.5681,-0.01892,0.70621,0.15628,135.79731,-34.63867,161.8752
1.2969,-0.6629,-0.0955,0.7788,-0.5276,-0.8866,0.32083,0.58717,0.7056,-38.75322,60.77371,54.18593
1.4981,-1.1733,0.9979,-1.2037,0.506,2.4511,0.16872,0.2509,0.69533,-9.14343,25.43135,157.64954
1.3425,-0.8325,0.1791,0.2602,1.4555,1.3514,0.27498,0.52049,0.68298,-44.78588,-18.0352,169.85837
1.7139,0.3606,-1.5436,0.2971,-0.8693,2.3344,0.03279,0.82455,0.96868,134.88307,-52.2384,164.34182
2.3491,-0.8571,-0.81,-1.0593,0.4896,-1.198,-0.39198,0.61131,0.28369,-79.23372,-39.44055,62.18842
2.3558,-1.1797,-0.0124,0.7595,0.124,-3.0366,-0.29909,0.51161,0.41341,-57.3096,-33.53327,19.98419
1.4641,-0.4865,-1.1922,0.5212,-0.0929,-2.1681,0.23533,0.78822,0.40326,-100.81532,-3.89213,-2.67518
0.0182,-1.269,-0.0611,-0.0758,-0.2007,-1.5433,0.55518,-0.13997,0.34276,-87.67402,-2.64347,-89.93027
1.6734,-0.441,-0.5556,0.9222,-0.9295,-2.0278,0.071,0.77542,0.70501,-94.86125,15.93318,44.38754
0.3365,-0.3799,0.6484,1.0486,0.0949,1.238,0.33842,-0.04059,0.93342,-16.79765,8.30452,149.70335
0.3905,1.432,-1.0742,0.394,-0.3584,2.9974,-0.0099,-0.16634,1.51104,7.85962,-0.35195,-144.73586
2.4627,0.8127,-0.8029,1.272,0.1702,-1.0582,-0.14934,0.31329,1.41736,8.40187,-5.31452,153.0073
1.9539,-0.8181,0.7353,1.2178,1.4703,0.135,0.00792,0.38176,0.78532,-23.62108,-81.94197,-153.93076
2.7501,1.0528,-0.166,1.5544,-1.29,2.5724,0.15712,0.09747,1.33557,79.15819,-5.20936,-9.39903
1.9631,0.9335,1.3208,-0.349,-0.59,0.6735,0.17332,-0.02643,0.76192,-107.038,-65.95781,-130.83985
2.1919,0.2356,0.9448,0.8278,1.1847,0.4209,0.10557,0.11032,0.95572,-116.84575,-14.98323,-87.6545
1.2875,0.7552,-0.85,-1.1389,-1.4262,-1.1062,0.24903,0.31858,1.39574,-83.56592,21.53685,-78.49896
1.4147,-1.4937,-0.5561,0.1253,0.8357,-2.3583,0.21152,0.37883,0.02428,-64.96262,-35.62147,-29.82866
1.9356,0.7574,1.5438,-0.79,-0.9288,1.3089,0.14782,0.03351,0.69553,-88.28651,-46.94798,-125.66713
2.0169,0.0363,-0.2761,0.7833,0.3392,-0.3231,-0.10357,0.56433,1.10212,12.25571,-5.89937,139.6494
1.3036,-0.1584,0.5932,1.2967,-1.1363,-2.448,0.21414,0.21397,1.00389,-20.71037,-58.75298,5.57319
0.5194,0.4142,0.4872,-0.0719,1.2989,-1.2067,0.13461,-0.09588,1.12947,127.13535,-13.59226,-75.23398
0.2187,-0.5104,0.6337,-0.1856,-1.2547,-1.8703,0.36817,-0.07188,0.8919,-64.10299,-14.21301,-95.4304
2.4237,-1.2747,-0.8613,-0.7303,-0.4586,1.8635,-0.26266,0.42861,0.01041,147.91702,26.42524,-122.72131
2.5855,-0.2202,-1.2583,-1.4233,0.8868,1.1159,-0.64544,0.57782,0.5971,-67.47229,63.38202,129.57906
1.8581,-1.0153,-0.2521,1.1155,0.252,1.7308,-0.03912,0.66191,0.41459,25.87685,-64.03229,-115.98945
2.5398,0.4586,-1.3355,0.9731,-1.1011,2.4843,-0.51855,0.53816,1.12353,-160.0156,-84.1187,173.21691
1.4766,0.1004,-1.5211,-0.3237,1.2449,-1.0158,0.23024,0.84168,0.75961,-17.79431,-10.59106,23.63853
2.2311,1.4793,1.4993,0.344,0.2703,1.651,0.14958,0.05203,0.67904,173.08496,2.59274,-166.20436
0.8299,1.4369,-0.3464,-0.0376,-1.2004,-1.521,-0.10251,-0.33438,1.31728,-6.21107,2.22176,-40.60805
3.0811,-1.1534,-0.5491,-1.4218,1.5622,0.0602,-0.59027,0.18608,0.20027,-81.44411,11.03012,176.56003
0.2889,-0.612,1.024,-0.2802,-0.9059,2.443,0.23362,-0.0871,0.82756,14.60847,-26.2069,139.98948
1.9375,-1.1451,-1.2564,1.3807,-0.5839,-0.127,-0.02289,0.47809,-0.05397,134.64089,-12.384,-122.84653
3.0257,0.0663,-0.9087,0.7232,0.9698,3.0829,-0.7441,0.23769,0.97273,-31.162,11.73056,13.03136
0.8766,-0.0104,0.6758,0.8855,-1.4415,1.3109,0.23123,0.04324,1.01956,49.98676,40.50107,173.2834
1.2157,0.8404,-0.7523,1.2497,-0.9871,-0.1934,0.23467,0.20128,1.42539,-22.64972,51.68682,116.53629
1.4909,1.0563,-0.4405,-1.065,0.0866,-0.0225,0.14795,-0.03227,1.41194,33.03105,-19.75229,15.81251
0.5255,-1.5318,-0.1595,0.2509,0.309,3.1109,0.45855,0.09246,0.1683,-50.66595,-73.69704,-102.47771
2.2426,-0.8082,0.7651,-1.3707,0.0035,1.347,-0.09241,0.3573,0.79014,-0.25409,2.42425,127.13246
0.808,0.9946,1.5665,0.0721,-0.4077,0.5537,0.09567,-0.11707,0.68398,-139.40321,-43.50192,173.1066
0.318,1.2444,-0.8021,0.9786,-1.224,-1.2954,0.0203,-0.15129,1.47977,-57.54646,-7.6259,-9.46255
0.9186,-0.7416,-1.2825,0.8884,1.1658,-0.3702,0.54271,0.46343,0.17281,50.57652,56.7122,58.58194
1.8822,-1.1312,0.7628,0.8332,-0.908,-0.0787,0.03308,0.38695,0.6766,27.11301,64.50524,176.57328
2.8242,0.6176,-0.245,-0.9337,-1.1073,2.5974,-0.15624,0.20926,1.33144,12.10497,-51.39253,-98.69291
1.7753,1.5144,1.3398,-1.4499,-1.4772,-2.7984,0.17079,-0.0846,0.69461,134.09187,85.41752,137.56189
2.614,-0.6012,1.0356,-0.2113,1.3033,2.2737,-0.09102,0.2267,0.82783,-101.00907,34.6462,-138.3588
1.9572,0.5739,0.4245,-1.0615,0.8512,2.9936,0.13498,0.06641,1.15721,-86.6212,34.1843,162.93683
0.5937,-0.9549,-0.791,-1.3278,1.5191,-1.9358,0.64021,0.25107,0.22416,36.3026,-73.59446,-98.89457
1.704,0.3702,-0.4429,1.0696,-0.5726,-1.5549,0.0884,0.47006,1.25724,-34.7605,4.17198,69.60144
2.9123,1.3062,-0.1228,0.4121,1.207,2.2774,0.30601,0.08266,1.27052,-158.65244,45.01372,-134.38803
0.864,0.7646,-0.6944,1.3655,-0.1654,0.0196,0.30995,0.13189,1.4029,-3.81187,8.71122,128.24716
1.4233,-0.74,0.0545,-0.8449,-0.9331,2.1243,0.23776,0.57929,0.70208,82.9111,-3.19243,134.67868
0.6262,-0.6242,0.6939,1.1524,0.0806,-2.8209,0.36388,0.07801,0.85163,5.44714,4.75694,-59.34569
0.4016,-0.4524,-0.5955,1.4817,-0.1874,-1.4437,0.76978,0.16389,0.68113,-6.94725,61.32708,27.28663
2.508,-0.6657,0.4061,1.3288,-1.028,2.5788,-0.28999,0.39922,0.81727,29.01976,-59.29189,-0.83911
2.2973,-0.2857,-0.2535,1.4531,-0.9569,1.3357,-0.32188,0.58811,0.91025,61.93422,-18.92868,-63.53928
2.9504,0.8683,-0.8913,-0.3816,-0.4117,1.9454,-0.27507,0.20608,1.43261,23.44664,-8.37033,-103.19803
0.5821,1.0587,-1.352,1.2869,0.9834,2.9961,0.37974,0.0703,1.45573,-32.68366,44.73092,-103.50711
2.5002,-0.0199,-0.0245,0.124,-0.7159,2.5703,-0.28775,0.40213,1.09371,26.9085,-35.62358,-71.04907
0.7043,1.4002,0.8865,0.8555,1.443,-1.1958,-0.10541,-0.28646,0.82929,-127.24209,-18.34081,-102.3601
3.0862,1.0002,0.4514,-0.1614,0.9968,-2.7084,0.2011,0.13913,1.10673,170.97387,39.83591,150.9508
2.4941,0.4636,-0.5136,0.6752,-1.1853,0.0332,-0.25093,0.37789,1.29516,10.42243,69.81252,-168.0054
1.3024,-0.1518,1.3883,0.8878,-0.8632,-0.6298,0.15147,-0.01511,0.76739,-37.47205,-32.90518,77.06247
2.9598,-0.7501,1.544,-1.0611,-0.994,-1.3813,0.00526,0.1516,0.69466,-22.09053,43.33499,41.03488
0.0077,-0.5726,0.1692,1.1115,-0.0236,-1.6669,0.55224,-0.1458,0.82704,-14.01838,19.35776,-33.53532
1.605,0.526,1.1797,1.1325,-0.7961,-1.6855,0.15192,-0.05201,0.85067,67.16978,-57.85284,-19.82369
1.6079,0.2723,-0.6508,-0.0948,0.8505,0.2829,0.1279,0.59947,1.1817,-10.24866,-25.33324,106.07856
2.7744,-0.8775,0.2183,1.0231,-0.5061,-2.1882,-0.46551,0.33982,0.66861,-57.50155,2.4659,99.906
1.7859,-1.3911,-0.4521,-1.5174,-0.4731,-2.851,0.04252,0.50838,0.11126,105.57193,-11.65097,160.96586
1.7821,-0.2785,-0.2468,1.4252,-0.6151,-1.2659,0.01054,0.66629,0.91652,-30.01483,39.86562,109.90831
0.844,-0.2956,-1.0204,-0.5215,0.0421,-1.0238,0.66767,0.52508,0.63523,-73.31018,1.07529,-40.06574
1.1449,-0.1467,-0.6619,-0.1638,1.0043,1.4617,0.44795,0.62421,0.89219,-12.25572,5.48078,142.93618
0.1685,0.1694,0.6129,-0.9565,0.7022,1.3933,0.15888,-0.12518,1.06521,-66.90877,-44.63978,49.63423
0.5943,0.672,0.743,0.2512,0.1559,0.0909,0.01317,-0.1722,1.0277,-89.18845,-70.57516,125.49741
2.3414,-0.6224,-1.0196,-1.5688,-0.181,-1.2255,-0.43573,0.66423,0.36913,-102.12497,-70.43476,45.19969
1.4393,-1.0706,0.5653,-0.6062,0.0406,3.1111,0.20564,0.41045,0.66094,17.84735,-20.69522,-136.95769
2.584,-0.0701,1.2474,1.0343,0.0351,-2.7439,0.04569,0.14834,0.82589,68.26834,8.0433,56.718
0.5389,0.1978,-0.3981,0.36,1.225,0.5144,0.53119,0.14279,1.17581,-35.47512,-51.464,95.83051
2.3089,-1.4383,-1.3887,-0.0635,-1.3636,1.7029,-0.0043,0.22772,-0.17308,-120.15425,7.6819,-138.04419
